
;FLAVOR:Marlin
;TIME:0
;Filament used: 0m
;Layer height: 0
;MINX:0
;MINY:0
;MINZ:0
;MAXX:220
;MAXY:220
;MAXZ:250

;Time to print!!!!!
;GCode created with FullControl - tell us what you're printing!
;info@fullcontrol.xyz or tag FullControlXYZ on Twitter/Instagram 

G28 ; home axes
M140 S45 ; set bed temp and continue
M105
M104 S215 ; set hotend temp and continue
M190 S45 ; set bed temp and wait
M105
M109 S215  ; set hotend temp and wait
G90 ; absolute coordinates
G21 ; set units to millimeters
M83 ; relative extrusion
M106 S255 ; set fan speed
M220 S100 ; set speed factor override percentage
M221 S100 ; set extrude factor override percentage
G0 F8000 X0.0 Y0.0 Z10.0
G1 F250 E20.7876
G0 F250 Z30.0
G0 F8000 X10.0 Y10.0 Z0.3
;-----
; END OF STARTING PROCEDURE
;-----

;-----
; START OF PRIMER PROCEDURE
;-----
G0 F8000 Y14.0 Z0.2
G1 F1500 X110.0 E4.98902
G1 Y12.0 E0.0997804
G1 X10.0 E4.98902
G1 Y14.0 E0.0997804
G1 Y16.0 E0.0997804
G1 X8.2 E0.0898024
G1 Y20.8 E0.239473
;-----
; END OF PRIMER PROCEDURE
;-----

G1 X186.2 E8.88046
G1 Y167.3 E7.30891
G1 X8.2 E8.88046
G1 Y20.8 E7.30891
G1 X9.4 Y22.0 E0.0846665
G1 X185.0 E8.76072
G1 Y166.1 E7.18918
G1 X9.4 E8.76072
G1 Y22.0 E7.18918
G1 X10.0 Y25.0 E0.152635
G1 X13.2 E0.159649
G1 X30.0 E0.838155
G1 X46.8 E0.838155
G1 X63.6 E0.838155
G1 Z0.1 E0.00498902
G1 X80.4 E0.419078
G1 Z0.3 E0.00498902
G1 X97.2 E1.25723
G1 Z0.2 E0.00748353
G1 X114.0 E0.838155
G1 X130.8 E0.838155
G1 X147.6 E0.838155
G1 X164.4 E0.838155
G1 X181.2 E0.838155
G1 X184.4 E0.159649
G1 Y35.0 E0.498902
G1 X181.2 E0.159649
G1 X164.4 E0.838155
G1 X147.6 E0.838155
G1 X130.8 E0.838155
G1 X114.0 E0.838155
G1 X97.2 E0.838155
G1 Z0.3 E0.00498902
G1 X80.4 E1.25723
G1 Z0.1 E0.0149671
G1 X63.6 E0.419078
G1 Z0.2 E0.00249451
G1 X46.8 E0.838155
G1 X30.0 E0.838155
G1 X13.2 E0.838155
G1 X10.0 E0.159649
G1 Y37.5 E0.124726
G1 X13.2 E0.159649
G1 X30.0 E0.838155
G1 X46.8 E0.838155
G1 X63.6 E0.838155
G1 Z0.1 E0.00498902
G1 X80.4 E0.419078
G1 Z0.3 E0.00498902
G1 X97.2 E1.25723
G1 Z0.2 E0.00748353
G1 X114.0 E0.838155
G1 X130.8 E0.838155
G1 X147.6 E0.838155
G1 X164.4 E0.838155
G1 X181.2 E0.838155
G1 X184.4 E0.159649
G1 Y47.5 E0.498902
G1 X181.2 E0.159649
G1 X164.4 E0.838155
G1 X147.6 E0.838155
G1 X130.8 E0.838155
G1 X114.0 E0.838155
G1 X97.2 E0.838155
G1 Z0.3 E0.00498902
G1 X80.4 E1.25723
G1 Z0.1 E0.0149671
G1 X63.6 E0.419078
G1 Z0.2 E0.00249451
G1 X46.8 E0.838155
G1 X30.0 E0.838155
G1 X13.2 E0.838155
G1 X10.0 E0.159649
G1 Y52.5 E0.249451
G1 X13.2 E0.159649
G1 X30.0 E0.838155
G1 X46.8 E0.838155
G1 X63.6 E0.838155
G1 Z0.1 E0.00498902
G1 X80.4 E0.419078
G1 Z0.3 E0.00498902
G1 X97.2 E1.25723
G1 Z0.2 E0.00748353
G1 X114.0 E0.838155
G1 X130.8 E0.838155
G1 X147.6 E0.838155
G1 X164.4 E0.838155
G1 X181.2 E0.838155
G1 X184.4 E0.159649
G1 Y62.5 E0.498902
G1 X181.2 E0.159649
G1 X164.4 E0.838155
G1 X147.6 E0.838155
G1 X130.8 E0.838155
G1 X114.0 E0.838155
G1 X97.2 E0.838155
G1 Z0.3 E0.00498902
G1 X80.4 E1.25723
G1 Z0.1 E0.0149671
G1 X63.6 E0.419078
G1 Z0.2 E0.00249451
G1 X46.8 E0.838155
G1 X30.0 E0.838155
G1 X13.2 E0.838155
G1 X10.0 E0.159649
G1 Y72.5 E0.498902
G1 X13.2 E0.159649
G1 X30.0 E0.838155
G1 X46.8 E0.838155
G1 X63.6 E0.838155
G1 Z0.1 E0.00498902
G1 X80.4 E0.419078
G1 Z0.3 E0.00498902
G1 X97.2 E1.25723
G1 Z0.2 E0.00748353
G1 X114.0 E0.838155
G1 X130.8 E0.838155
G1 X147.6 E0.838155
G1 X164.4 E0.838155
G1 X181.2 E0.838155
G1 X184.4 E0.159649
G1 Y82.5 E0.498902
G1 X181.2 E0.159649
G1 X164.4 E0.838155
G1 X147.6 E0.838155
G1 X130.8 E0.838155
G1 X114.0 E0.838155
G1 X97.2 E0.838155
G1 Z0.3 E0.00498902
G1 X80.4 E1.25723
G1 Z0.1 E0.0149671
G1 X63.6 E0.419078
G1 Z0.2 E0.00249451
G1 X46.8 E0.838155
G1 X30.0 E0.838155
G1 X13.2 E0.838155
G1 X10.0 E0.159649
G1 Y102.5 E0.997804
G1 X13.2 E0.159649
G1 X30.0 E0.838155
G1 X46.8 E0.838155
G1 X63.6 E0.838155
G1 Z0.1 E0.00498902
G1 X80.4 E0.419078
G1 Z0.3 E0.00498902
G1 X97.2 E1.25723
G1 Z0.2 E0.00748353
G1 X114.0 E0.838155
G1 X130.8 E0.838155
G1 X147.6 E0.838155
G1 X164.4 E0.838155
G1 X181.2 E0.838155
G1 X184.4 E0.159649
G1 Y112.5 E0.498902
G1 X181.2 E0.159649
G1 X164.4 E0.838155
G1 X147.6 E0.838155
G1 X130.8 E0.838155
G1 X114.0 E0.838155
G1 X97.2 E0.838155
G1 Z0.3 E0.00498902
G1 X80.4 E1.25723
G1 Z0.1 E0.0149671
G1 X63.6 E0.419078
G1 Z0.2 E0.00249451
G1 X46.8 E0.838155
G1 X30.0 E0.838155
G1 X13.2 E0.838155
G1 X10.0 E0.159649
G1 Y152.5 E1.99561
G1 X13.2 E0.159649
G1 X30.0 E0.838155
G1 X46.8 E0.838155
G1 X63.6 E0.838155
G1 Z0.1 E0.00498902
G1 X80.4 E0.419078
G1 Z0.3 E0.00498902
G1 X97.2 E1.25723
G1 Z0.2 E0.00748353
G1 X114.0 E0.838155
G1 X130.8 E0.838155
G1 X147.6 E0.838155
G1 X164.4 E0.838155
G1 X181.2 E0.838155
G1 X184.4 E0.159649
G1 Y162.5 E0.498902
G1 X181.2 E0.159649
G1 X164.4 E0.838155
G1 X147.6 E0.838155
G1 X130.8 E0.838155
G1 X114.0 E0.838155
G1 X97.2 E0.838155
G1 Z0.3 E0.00498902
G1 X80.4 E1.25723
G1 Z0.1 E0.0149671
G1 X63.6 E0.419078
G1 Z0.2 E0.00249451
G1 X46.8 E0.838155
G1 X30.0 E0.838155
G1 X13.2 E0.838155
G1 X10.0 E0.159649
G1 X9.4 E0.0299341
G10 ; retract
G0 F8000 Y25.0
G11 ; unretract
G1 F1500 X15.0 E0.279385
M104 S215 ; set hotend temp and continue
M106 S255 ; set fan speed
G1 F1500 Y162.5 E6.8599
G1 X15.6 E0.0299341
G1 Y25.0 E6.8599
G1 X17.4 E0.0898024
M207 F2000 S0
G1 F1500 Y35.0 E0.498902
G10 ; retract
G0 F8000 Y37.5
G11 ; unretract
G1 F1500 Y47.5 E0.498902
G10 ; retract
G0 F8000 Y52.5
G11 ; unretract
G1 F1500 Y62.5 E0.498902
G10 ; retract
G0 F8000 Y72.5
G11 ; unretract
G1 F1500 Y82.5 E0.498902
G10 ; retract
G0 F8000 Y102.5
G11 ; unretract
G1 F1500 Y112.5 E0.498902
G10 ; retract
G0 F8000 Y152.5
G11 ; unretract
G1 F1500 Y162.5 E0.498902
G1 X21.0 Y166.1 E0.253999
G1 X24.6 Y162.5 E0.253999
G10 ; retract
G0 F8000 Y152.5
G11 ; unretract
G1 F1500 Y112.5 E1.99561
G10 ; retract
G0 F8000 Y102.5
G11 ; unretract
G1 F1500 Y82.5 E0.997804
G10 ; retract
G0 F8000 Y72.5
G11 ; unretract
G1 F1500 Y62.5 E0.498902
G10 ; retract
G0 F8000 Y52.5
G11 ; unretract
G1 F1500 Y47.5 E0.249451
G10 ; retract
G0 F8000 Y37.5
G11 ; unretract
G1 F1500 Y35.0 E0.124726
G10 ; retract
G0 F8000 Y25.0
G11 ; unretract
G1 F1500 X21.6 Y22.0 E0.211666
G1 X18.6 Y25.0 E0.211666
M207 F2000 S1.0
G1 F1500 Y35.0 E0.498902
G10 ; retract
G0 F8000 Y37.5
G11 ; unretract
G1 F1500 Y47.5 E0.498902
G10 ; retract
G0 F8000 Y52.5
G11 ; unretract
G1 F1500 Y62.5 E0.498902
G10 ; retract
G0 F8000 Y72.5
G11 ; unretract
G1 F1500 Y82.5 E0.498902
G10 ; retract
G0 F8000 Y102.5
G11 ; unretract
G1 F1500 Y112.5 E0.498902
G10 ; retract
G0 F8000 Y152.5
G11 ; unretract
G1 F1500 Y162.5 E0.498902
G1 X22.2 Y166.1 E0.253999
G1 X25.8 Y162.5 E0.253999
G10 ; retract
G0 F8000 Y152.5
G11 ; unretract
G1 F1500 Y112.5 E1.99561
G10 ; retract
G0 F8000 Y102.5
G11 ; unretract
G1 F1500 Y82.5 E0.997804
G10 ; retract
G0 F8000 Y72.5
G11 ; unretract
G1 F1500 Y62.5 E0.498902
G10 ; retract
G0 F8000 Y52.5
G11 ; unretract
G1 F1500 Y47.5 E0.249451
G10 ; retract
G0 F8000 Y37.5
G11 ; unretract
G1 F1500 Y35.0 E0.124726
G10 ; retract
G0 F8000 Y25.0
G11 ; unretract
G1 F1500 X22.8 Y22.0 E0.211666
G1 X19.8 Y25.0 E0.211666
M207 F2000 S2.0
G1 F1500 Y35.0 E0.498902
G10 ; retract
G0 F8000 Y37.5
G11 ; unretract
G1 F1500 Y47.5 E0.498902
G10 ; retract
G0 F8000 Y52.5
G11 ; unretract
G1 F1500 Y62.5 E0.498902
G10 ; retract
G0 F8000 Y72.5
G11 ; unretract
G1 F1500 Y82.5 E0.498902
G10 ; retract
G0 F8000 Y102.5
G11 ; unretract
G1 F1500 Y112.5 E0.498902
G10 ; retract
G0 F8000 Y152.5
G11 ; unretract
G1 F1500 Y162.5 E0.498902
G1 X23.4 Y166.1 E0.253999
G1 X27.0 Y162.5 E0.253999
G10 ; retract
G0 F8000 Y152.5
G11 ; unretract
G1 F1500 Y112.5 E1.99561
G10 ; retract
G0 F8000 Y102.5
G11 ; unretract
G1 F1500 Y82.5 E0.997804
G10 ; retract
G0 F8000 Y72.5
G11 ; unretract
G1 F1500 Y62.5 E0.498902
G10 ; retract
G0 F8000 Y52.5
G11 ; unretract
G1 F1500 Y47.5 E0.249451
G10 ; retract
G0 F8000 Y37.5
G11 ; unretract
G1 F1500 Y35.0 E0.124726
G10 ; retract
G0 F8000 Y25.0
G11 ; unretract
G1 F1500 X24.0 Y22.0 E0.211666
G1 X21.0 Y25.0 E0.211666
M207 F2000 S4
G1 F1500 Y35.0 E0.498902
G10 ; retract
G0 F8000 Y37.5
G11 ; unretract
G1 F1500 Y47.5 E0.498902
G10 ; retract
G0 F8000 Y52.5
G11 ; unretract
G1 F1500 Y62.5 E0.498902
G10 ; retract
G0 F8000 Y72.5
G11 ; unretract
G1 F1500 Y82.5 E0.498902
G10 ; retract
G0 F8000 Y102.5
G11 ; unretract
G1 F1500 Y112.5 E0.498902
G10 ; retract
G0 F8000 Y152.5
G11 ; unretract
G1 F1500 Y162.5 E0.498902
G1 X24.6 Y166.1 E0.253999
G1 X28.2 Y162.5 E0.253999
G10 ; retract
G0 F8000 Y152.5
G11 ; unretract
G1 F1500 Y112.5 E1.99561
G10 ; retract
G0 F8000 Y102.5
G11 ; unretract
G1 F1500 Y82.5 E0.997804
G10 ; retract
G0 F8000 Y72.5
G11 ; unretract
G1 F1500 Y62.5 E0.498902
G10 ; retract
G0 F8000 Y52.5
G11 ; unretract
G1 F1500 Y47.5 E0.249451
G10 ; retract
G0 F8000 Y37.5
G11 ; unretract
G1 F1500 Y35.0 E0.124726
G10 ; retract
G0 F8000 Y25.0
G11 ; unretract
G1 F1500 X25.2 Y22.0 E0.211666
G1 X22.2 Y25.0 E0.211666
M207 F2000 S6.0
G1 F1500 Y35.0 E0.498902
G10 ; retract
G0 F8000 Y37.5
G11 ; unretract
G1 F1500 Y47.5 E0.498902
G10 ; retract
G0 F8000 Y52.5
G11 ; unretract
G1 F1500 Y62.5 E0.498902
G10 ; retract
G0 F8000 Y72.5
G11 ; unretract
G1 F1500 Y82.5 E0.498902
G10 ; retract
G0 F8000 Y102.5
G11 ; unretract
G1 F1500 Y112.5 E0.498902
G10 ; retract
G0 F8000 Y152.5
G11 ; unretract
G1 F1500 Y162.5 E0.498902
G1 X25.8 Y166.1 E0.253999
G1 X29.4 Y162.5 E0.253999
G10 ; retract
G0 F8000 Y152.5
G11 ; unretract
G1 F1500 Y112.5 E1.99561
G10 ; retract
G0 F8000 Y102.5
G11 ; unretract
G1 F1500 Y82.5 E0.997804
G10 ; retract
G0 F8000 Y72.5
G11 ; unretract
G1 F1500 Y62.5 E0.498902
G10 ; retract
G0 F8000 Y52.5
G11 ; unretract
G1 F1500 Y47.5 E0.249451
G10 ; retract
G0 F8000 Y37.5
G11 ; unretract
G1 F1500 Y35.0 E0.124726
G10 ; retract
G0 F8000 Y25.0
G11 ; unretract
M104 S215 ; set hotend temp and continue
M106 S255 ; set fan speed
G1 F1500 X31.8 E0.0798243
G1 F1500 Y162.5 E4.57327
G1 X32.2 E0.0133041
G1 Y25.0 E4.57327
G1 X33.8 E0.0532162
M207 F2000 S0
G1 F1500 Y35.0 E0.332601
G10 ; retract
G0 F8000 Y37.5
G11 ; unretract
G1 F1500 Y47.5 E0.332601
G10 ; retract
G0 F8000 Y52.5
G11 ; unretract
G1 F1500 Y62.5 E0.332601
G10 ; retract
G0 F8000 Y72.5
G11 ; unretract
G1 F1500 Y82.5 E0.332601
G10 ; retract
G0 F8000 Y102.5
G11 ; unretract
G1 F1500 Y112.5 E0.332601
G10 ; retract
G0 F8000 Y152.5
G11 ; unretract
G1 F1500 Y162.5 E0.332601
G1 X37.4 Y166.1 E0.169333
G1 X41.0 Y162.5 E0.169333
G10 ; retract
G0 F8000 Y152.5
G11 ; unretract
G1 F1500 Y112.5 E1.33041
G10 ; retract
G0 F8000 Y102.5
G11 ; unretract
G1 F1500 Y82.5 E0.665203
G10 ; retract
G0 F8000 Y72.5
G11 ; unretract
G1 F1500 Y62.5 E0.332601
G10 ; retract
G0 F8000 Y52.5
G11 ; unretract
G1 F1500 Y47.5 E0.166301
G10 ; retract
G0 F8000 Y37.5
G11 ; unretract
G1 F1500 Y35.0 E0.0831503
G10 ; retract
G0 F8000 Y25.0
G11 ; unretract
G1 F1500 X38.0 Y22.0 E0.141111
G1 X35.0 Y25.0 E0.141111
M207 F2000 S1.0
G1 F1500 Y35.0 E0.332601
G10 ; retract
G0 F8000 Y37.5
G11 ; unretract
G1 F1500 Y47.5 E0.332601
G10 ; retract
G0 F8000 Y52.5
G11 ; unretract
G1 F1500 Y62.5 E0.332601
G10 ; retract
G0 F8000 Y72.5
G11 ; unretract
G1 F1500 Y82.5 E0.332601
G10 ; retract
G0 F8000 Y102.5
G11 ; unretract
G1 F1500 Y112.5 E0.332601
G10 ; retract
G0 F8000 Y152.5
G11 ; unretract
G1 F1500 Y162.5 E0.332601
G1 X38.6 Y166.1 E0.169333
G1 X42.2 Y162.5 E0.169333
G10 ; retract
G0 F8000 Y152.5
G11 ; unretract
G1 F1500 Y112.5 E1.33041
G10 ; retract
G0 F8000 Y102.5
G11 ; unretract
G1 F1500 Y82.5 E0.665203
G10 ; retract
G0 F8000 Y72.5
G11 ; unretract
G1 F1500 Y62.5 E0.332601
G10 ; retract
G0 F8000 Y52.5
G11 ; unretract
G1 F1500 Y47.5 E0.166301
G10 ; retract
G0 F8000 Y37.5
G11 ; unretract
G1 F1500 Y35.0 E0.0831503
G10 ; retract
G0 F8000 Y25.0
G11 ; unretract
G1 F1500 X39.2 Y22.0 E0.141111
G1 X36.2 Y25.0 E0.141111
M207 F2000 S2.0
G1 F1500 Y35.0 E0.332601
G10 ; retract
G0 F8000 Y37.5
G11 ; unretract
G1 F1500 Y47.5 E0.332601
G10 ; retract
G0 F8000 Y52.5
G11 ; unretract
G1 F1500 Y62.5 E0.332601
G10 ; retract
G0 F8000 Y72.5
G11 ; unretract
G1 F1500 Y82.5 E0.332601
G10 ; retract
G0 F8000 Y102.5
G11 ; unretract
G1 F1500 Y112.5 E0.332601
G10 ; retract
G0 F8000 Y152.5
G11 ; unretract
G1 F1500 Y162.5 E0.332601
G1 X39.8 Y166.1 E0.169333
G1 X43.4 Y162.5 E0.169333
G10 ; retract
G0 F8000 Y152.5
G11 ; unretract
G1 F1500 Y112.5 E1.33041
G10 ; retract
G0 F8000 Y102.5
G11 ; unretract
G1 F1500 Y82.5 E0.665203
G10 ; retract
G0 F8000 Y72.5
G11 ; unretract
G1 F1500 Y62.5 E0.332601
G10 ; retract
G0 F8000 Y52.5
G11 ; unretract
G1 F1500 Y47.5 E0.166301
G10 ; retract
G0 F8000 Y37.5
G11 ; unretract
G1 F1500 Y35.0 E0.0831503
G10 ; retract
G0 F8000 Y25.0
G11 ; unretract
G1 F1500 X40.4 Y22.0 E0.141111
G1 X37.4 Y25.0 E0.141111
M207 F2000 S4
G1 F1500 Y35.0 E0.332601
G10 ; retract
G0 F8000 Y37.5
G11 ; unretract
G1 F1500 Y47.5 E0.332601
G10 ; retract
G0 F8000 Y52.5
G11 ; unretract
G1 F1500 Y62.5 E0.332601
G10 ; retract
G0 F8000 Y72.5
G11 ; unretract
G1 F1500 Y82.5 E0.332601
G10 ; retract
G0 F8000 Y102.5
G11 ; unretract
G1 F1500 Y112.5 E0.332601
G10 ; retract
G0 F8000 Y152.5
G11 ; unretract
G1 F1500 Y162.5 E0.332601
G1 X41.0 Y166.1 E0.169333
G1 X44.6 Y162.5 E0.169333
G10 ; retract
G0 F8000 Y152.5
G11 ; unretract
G1 F1500 Y112.5 E1.33041
G10 ; retract
G0 F8000 Y102.5
G11 ; unretract
G1 F1500 Y82.5 E0.665203
G10 ; retract
G0 F8000 Y72.5
G11 ; unretract
G1 F1500 Y62.5 E0.332601
G10 ; retract
G0 F8000 Y52.5
G11 ; unretract
G1 F1500 Y47.5 E0.166301
G10 ; retract
G0 F8000 Y37.5
G11 ; unretract
G1 F1500 Y35.0 E0.0831503
G10 ; retract
G0 F8000 Y25.0
G11 ; unretract
G1 F1500 X41.6 Y22.0 E0.141111
G1 X38.6 Y25.0 E0.141111
M207 F2000 S6.0
G1 F1500 Y35.0 E0.332601
G10 ; retract
G0 F8000 Y37.5
G11 ; unretract
G1 F1500 Y47.5 E0.332601
G10 ; retract
G0 F8000 Y52.5
G11 ; unretract
G1 F1500 Y62.5 E0.332601
G10 ; retract
G0 F8000 Y72.5
G11 ; unretract
G1 F1500 Y82.5 E0.332601
G10 ; retract
G0 F8000 Y102.5
G11 ; unretract
G1 F1500 Y112.5 E0.332601
G10 ; retract
G0 F8000 Y152.5
G11 ; unretract
G1 F1500 Y162.5 E0.332601
G1 X42.2 Y166.1 E0.169333
G1 X45.8 Y162.5 E0.169333
G10 ; retract
G0 F8000 Y152.5
G11 ; unretract
G1 F1500 Y112.5 E1.33041
G10 ; retract
G0 F8000 Y102.5
G11 ; unretract
G1 F1500 Y82.5 E0.665203
G10 ; retract
G0 F8000 Y72.5
G11 ; unretract
G1 F1500 Y62.5 E0.332601
G10 ; retract
G0 F8000 Y52.5
G11 ; unretract
G1 F1500 Y47.5 E0.166301
G10 ; retract
G0 F8000 Y37.5
G11 ; unretract
G1 F1500 Y35.0 E0.0831503
G10 ; retract
G0 F8000 Y25.0
G11 ; unretract
M104 S215 ; set hotend temp and continue
M106 S255 ; set fan speed
G1 F1500 X48.6 E0.186257
G1 F1500 Y162.5 E9.14654
G1 X49.4 E0.0532162
G1 Y25.0 E9.14654
G1 X51.4 E0.133041
M207 F2000 S0
G1 F1500 Y35.0 E0.665203
G10 ; retract
G0 F8000 Y37.5
G11 ; unretract
G1 F1500 Y47.5 E0.665203
G10 ; retract
G0 F8000 Y52.5
G11 ; unretract
G1 F1500 Y62.5 E0.665203
G10 ; retract
G0 F8000 Y72.5
G11 ; unretract
G1 F1500 Y82.5 E0.665203
G10 ; retract
G0 F8000 Y102.5
G11 ; unretract
G1 F1500 Y112.5 E0.665203
G10 ; retract
G0 F8000 Y152.5
G11 ; unretract
G1 F1500 Y162.5 E0.665203
G1 X55.0 Y166.1 E0.338666
G1 X58.6 Y162.5 E0.338666
G10 ; retract
G0 F8000 Y152.5
G11 ; unretract
G1 F1500 Y112.5 E2.66081
G10 ; retract
G0 F8000 Y102.5
G11 ; unretract
G1 F1500 Y82.5 E1.33041
G10 ; retract
G0 F8000 Y72.5
G11 ; unretract
G1 F1500 Y62.5 E0.665203
G10 ; retract
G0 F8000 Y52.5
G11 ; unretract
G1 F1500 Y47.5 E0.332601
G10 ; retract
G0 F8000 Y37.5
G11 ; unretract
G1 F1500 Y35.0 E0.166301
G10 ; retract
G0 F8000 Y25.0
G11 ; unretract
G1 F1500 X55.6 Y22.0 E0.282222
G1 X52.6 Y25.0 E0.282222
M207 F2000 S1.0
G1 F1500 Y35.0 E0.665203
G10 ; retract
G0 F8000 Y37.5
G11 ; unretract
G1 F1500 Y47.5 E0.665203
G10 ; retract
G0 F8000 Y52.5
G11 ; unretract
G1 F1500 Y62.5 E0.665203
G10 ; retract
G0 F8000 Y72.5
G11 ; unretract
G1 F1500 Y82.5 E0.665203
G10 ; retract
G0 F8000 Y102.5
G11 ; unretract
G1 F1500 Y112.5 E0.665203
G10 ; retract
G0 F8000 Y152.5
G11 ; unretract
G1 F1500 Y162.5 E0.665203
G1 X56.2 Y166.1 E0.338666
G1 X59.8 Y162.5 E0.338666
G10 ; retract
G0 F8000 Y152.5
G11 ; unretract
G1 F1500 Y112.5 E2.66081
G10 ; retract
G0 F8000 Y102.5
G11 ; unretract
G1 F1500 Y82.5 E1.33041
G10 ; retract
G0 F8000 Y72.5
G11 ; unretract
G1 F1500 Y62.5 E0.665203
G10 ; retract
G0 F8000 Y52.5
