;FLAVOR:Marlin
;TIME:3476
;Filament used: 2.78454m
;Layer height: 0.2
;MINX:55.365
;MINY:68.365
;MINZ:0.2
;MAXX:179.634
;MAXY:121.634
;MAXZ:5.2
;Generated with Cura_SteamEngine 4.9.1
M140 S50
M105
M190 S50
M104 S215
M105
M109 S215
M82 ;absolute extrusion mode
; Ender 3 Custom Start G-code
G92 E0 ; Reset Extruder
G28 ; Home all axes
G1 Z2.0 F3000 ; Move Z Axis up little to prevent scratching of Heat Bed
G1 X0.1 Y20 Z0.3 F5000.0 ; Move to start position
G1 X0.1 Y200.0 Z0.3 F1500.0 E15 ; Draw the first line
G1 X0.4 Y200.0 Z0.3 F5000.0 ; Move to side a little
G1 X0.4 Y20 Z0.3 F1500.0 E30 ; Draw the second line
G92 E0 ; Reset Extruder
G1 Z2.0 F3000 ; Move Z Axis up little to prevent scratching of Heat Bed
G1 X5 Y20 Z0.3 F5000.0 ; Move over to prevent blob squish
G92 E0
G92 E0
G1 F2700 E-5
;LAYER_COUNT:26
;LAYER:0
M107
G0 F6000 X60.758 Y72.283 Z0.2
;TYPE:SKIRT
G1 F2700 E0
G1 F1200 X61.453 Y71.701 E0.03015
G1 X61.635 Y71.561 E0.03779
G1 X62.048 Y71.259 E0.0548
G1 X62.177 Y71.169 E0.06004
G1 X62.589 Y70.895 E0.07649
G1 X62.796 Y70.764 E0.08464
G1 X63.303 Y70.461 E0.10429
G1 X63.602 Y70.297 E0.11563
G1 X63.827 Y70.177 E0.12411
G1 X64.233 Y69.971 E0.13925
G1 X64.393 Y69.894 E0.14516
G1 X64.805 Y69.706 E0.16022
G1 X65.002 Y69.621 E0.16736
G1 X65.707 Y69.345 E0.19254
G1 X65.974 Y69.251 E0.20195
G1 X66.44 Y69.099 E0.21826
G1 X66.734 Y69.01 E0.22847
G1 X67.231 Y68.872 E0.24563
G1 X67.461 Y68.814 E0.25352
G1 X68.288 Y68.639 E0.28163
G1 X68.48 Y68.606 E0.28811
G1 X69.058 Y68.522 E0.30754
G1 X69.381 Y68.484 E0.31836
G1 X69.766 Y68.446 E0.33122
G1 X69.9 Y68.435 E0.33569
G1 X70.287 Y68.41 E0.34859
G1 X70.844 Y68.384 E0.36714
G1 X71.205 Y68.373 E0.37915
G1 X71.862 Y68.365 E0.401
G1 X156.692 Y68.365 E3.22246
G1 X157.383 Y68.373 E3.24545
G1 X157.729 Y68.383 E3.25696
G1 X158.746 Y68.428 E3.29082
G1 X159.7 Y68.512 E3.32267
G1 X160.73 Y68.648 E3.35723
G1 X161.157 Y68.713 E3.37159
G1 X161.308 Y68.739 E3.37669
G1 X161.721 Y68.818 E3.39067
G1 X162.193 Y68.918 E3.40672
G1 X162.679 Y69.032 E3.42332
G1 X162.96 Y69.105 E3.43298
G1 X163.506 Y69.262 E3.45188
G1 X164.529 Y69.585 E3.48756
G1 X164.926 Y69.719 E3.50149
G1 X165.419 Y69.904 E3.51901
G1 X165.766 Y70.044 E3.53145
G1 X166.304 Y70.278 E3.55097
G1 X167.165 Y70.68 E3.58257
G1 X167.483 Y70.835 E3.59434
G1 X167.631 Y70.91 E3.59985
G1 X168.109 Y71.167 E3.61791
G1 X168.386 Y71.325 E3.62851
G1 X168.843 Y71.601 E3.64627
G1 X169.718 Y72.158 E3.68077
G1 X170.496 Y72.701 E3.71232
G1 X171.237 Y73.268 E3.74336
G1 X171.528 Y73.499 E3.75571
G1 X171.667 Y73.613 E3.76169
G1 X172.058 Y73.949 E3.77884
G1 X172.435 Y74.289 E3.79572
G1 X172.809 Y74.642 E3.81283
G1 X173.017 Y74.848 E3.82257
G1 X173.374 Y75.219 E3.83969
G1 X174.092 Y76 E3.87498
G1 X174.704 Y76.726 E3.90656
G1 X175.254 Y77.439 E3.93651
G1 X175.571 Y77.872 E3.95436
G1 X175.854 Y78.294 E3.97126
G1 X176.347 Y79.066 E4.00172
G1 X176.549 Y79.395 E4.01456
G1 X176.657 Y79.578 E4.02163
G1 X176.896 Y80.005 E4.03791
G1 X177.072 Y80.336 E4.05037
G1 X177.321 Y80.834 E4.06889
G1 X177.692 Y81.626 E4.09798
G1 X177.934 Y82.18 E4.11809
G1 X178.067 Y82.51 E4.12992
G1 X178.197 Y82.846 E4.14191
G1 X178.429 Y83.508 E4.16524
G1 X178.731 Y84.469 E4.19874
G1 X178.842 Y84.844 E4.21175
G1 X178.885 Y85 E4.21713
G1 X178.998 Y85.446 E4.23243
G1 X179.108 Y85.922 E4.24868
G1 X179.204 Y86.384 E4.26438
G1 X179.272 Y86.749 E4.27673
G1 X179.361 Y87.305 E4.29545
G1 X179.479 Y88.187 E4.32505
G1 X179.566 Y89.174 E4.35801
G1 X179.619 Y90.408 E4.39909
G1 X179.628 Y90.747 E4.41037
G1 X179.634 Y91.291 E4.42846
G1 X179.634 Y98.767 E4.67711
G1 X179.628 Y99.34 E4.69617
G1 X179.618 Y99.713 E4.70858
G1 X179.572 Y100.748 E4.74304
G1 X179.488 Y101.7 E4.77483
G1 X179.355 Y102.707 E4.80861
G1 X179.3 Y103.075 E4.82099
G1 X179.271 Y103.249 E4.82685
G1 X179.182 Y103.721 E4.84283
G1 X179.082 Y104.193 E4.85888
G1 X178.968 Y104.679 E4.87548
G1 X178.895 Y104.96 E4.88514
G1 X178.738 Y105.503 E4.90394
G1 X178.415 Y106.527 E4.93965
G1 X178.306 Y106.857 E4.95121
G1 X178.272 Y106.954 E4.95463
G1 X178.097 Y107.418 E4.97112
G1 X177.974 Y107.724 E4.98209
G1 X177.733 Y108.279 E5.00221
G1 X177.31 Y109.184 E5.03544
G1 X177.121 Y109.571 E5.04976
G1 X176.837 Y110.102 E5.06979
G1 X176.671 Y110.393 E5.08094
G1 X176.401 Y110.842 E5.09836
G1 X175.854 Y111.703 E5.13229
G1 X175.301 Y112.493 E5.16436
G1 X174.728 Y113.241 E5.1957
G1 X174.501 Y113.528 E5.20787
G1 X174.387 Y113.667 E5.21385
G1 X174.051 Y114.058 E5.231
G1 X173.711 Y114.435 E5.24788
G1 X173.358 Y114.809 E5.26499
G1 X173.152 Y115.017 E5.27473
G1 X172.776 Y115.378 E5.29206
G1 X171.992 Y116.098 E5.32747
G1 X171.273 Y116.704 E5.35874
G1 X170.563 Y117.252 E5.38857
G1 X170.15 Y117.556 E5.40563
G1 X169.702 Y117.857 E5.42358
G1 X168.929 Y118.35 E5.45407
G1 X168.605 Y118.549 E5.46672
G1 X168.422 Y118.657 E5.47379
G1 X167.995 Y118.896 E5.49006
G1 X167.664 Y119.072 E5.50253
G1 X167.166 Y119.321 E5.52105
G1 X166.374 Y119.692 E5.55014
G1 X165.82 Y119.934 E5.57025
G1 X165.298 Y120.142 E5.58894
G1 X165.104 Y120.216 E5.59584
G1 X164.482 Y120.432 E5.61774
G1 X163.521 Y120.734 E5.65125
G1 X163.13 Y120.849 E5.6648
G1 X162.984 Y120.889 E5.66984
G1 X162.554 Y120.998 E5.68459
G1 X162.078 Y121.108 E5.70084
G1 X161.63 Y121.201 E5.71606
G1 X161.289 Y121.265 E5.7276
G1 X160.699 Y121.359 E5.74747
G1 X159.767 Y121.482 E5.77874
G1 X158.807 Y121.567 E5.81079
G1 X157.613 Y121.619 E5.85054
G1 X157.264 Y121.628 E5.86215
G1 X156.711 Y121.634 E5.88055
G1 X71.598 Y121.633 E8.71142
G1 X71.084 Y121.627 E8.72851
G1 X70.801 Y121.62 E8.73793
G1 X70.48 Y121.608 E8.74861
G1 X69.984 Y121.579 E8.76514
G1 X69.851 Y121.568 E8.76958
G1 X69.074 Y121.475 E8.7956
G1 X68.506 Y121.387 E8.81472
G1 X67.598 Y121.207 E8.84551
G1 X67.103 Y121.087 E8.86245
G1 X66.158 Y120.813 E8.89517
G1 X65.613 Y120.615 E8.91446
G1 X65.115 Y120.419 E8.93226
G1 X64.46 Y120.136 E8.95599
G1 X64.307 Y120.064 E8.96162
G1 X63.416 Y119.594 E8.99512
G1 X62.853 Y119.263 E9.01684
G1 X61.941 Y118.663 E9.05315
G1 X61.7 Y118.487 E9.06308
G1 X61.16 Y118.067 E9.08583
G1 X60.989 Y117.925 E9.09322
G1 X60.453 Y117.449 E9.11707
G1 X60.227 Y117.235 E9.12742
G1 X59.749 Y116.754 E9.14997
G1 X59.44 Y116.423 E9.16503
G1 X58.856 Y115.745 E9.1948
G1 X58.818 Y115.697 E9.19683
G1 X58.467 Y115.228 E9.21632
G1 X58.088 Y114.693 E9.23812
G1 X57.579 Y113.905 E9.26932
G1 X57.344 Y113.484 E9.28536
G1 X57.175 Y113.165 E9.29737
G1 X56.878 Y112.56 E9.31978
G1 X56.682 Y112.128 E9.33556
G1 X56.291 Y111.142 E9.37084
G1 X56.198 Y110.87 E9.3804
G1 X56.066 Y110.46 E9.39473
G1 X56.017 Y110.296 E9.40042
G1 X55.925 Y109.97 E9.41169
G1 X55.848 Y109.68 E9.42167
G1 X55.627 Y108.647 E9.4568
G1 X55.595 Y108.453 E9.46334
G1 X55.526 Y107.967 E9.47967
G1 X55.486 Y107.632 E9.49089
G1 X55.444 Y107.223 E9.50456
G1 X55.432 Y107.076 E9.50947
G1 X55.408 Y106.685 E9.5225
G1 X55.384 Y106.162 E9.53991
G1 X55.373 Y105.809 E9.55166
G1 X55.365 Y105.146 E9.57371
G1 X55.367 Y84.579 E10.25777
G1 X55.369 Y84.412 E10.26333
G1 X55.378 Y84.067 E10.27481
G1 X55.418 Y83.146 E10.30547
G1 X55.481 Y82.362 E10.33163
G1 X55.487 Y82.31 E10.33337
G1 X55.587 Y81.628 E10.3563
G1 X55.683 Y81.093 E10.37437
G1 X55.904 Y80.119 E10.40759
G1 X55.992 Y79.799 E10.41863
G1 X56.271 Y78.926 E10.44911
G1 X56.431 Y78.49 E10.46456
G1 X56.824 Y77.555 E10.49829
G1 X56.99 Y77.206 E10.51115
G1 X57.443 Y76.353 E10.54327
G1 X57.706 Y75.906 E10.56052
G1 X58.236 Y75.09 E10.59288
G1 X58.386 Y74.88 E10.60147
G1 X58.61 Y74.578 E10.61397
G1 X58.788 Y74.346 E10.6237
G1 X59.395 Y73.621 E10.65515
G1 X59.586 Y73.412 E10.66457
G1 X60.304 Y72.696 E10.69829
G1 X60.758 Y72.283 E10.7187
G0 F6000 X61.027 Y72.579
G1 F1200 X61.697 Y72.018 E10.74777
G1 X61.879 Y71.878 E10.75541
G1 X62.277 Y71.587 E10.7718
G1 X62.406 Y71.497 E10.77704
G1 X62.803 Y71.233 E10.79289
G1 X63.01 Y71.102 E10.80104
G1 X63.499 Y70.81 E10.81998
G1 X63.79 Y70.65 E10.83103
G1 X64.015 Y70.53 E10.83951
G1 X64.406 Y70.332 E10.85409
G1 X64.566 Y70.255 E10.85999
G1 X64.964 Y70.073 E10.87455
G1 X65.161 Y69.988 E10.88169
G1 X65.84 Y69.723 E10.90593
G1 X66.107 Y69.629 E10.91534
G1 X66.556 Y69.482 E10.93106
G1 X66.85 Y69.393 E10.94127
G1 X67.329 Y69.26 E10.95781
G1 X67.559 Y69.202 E10.9657
G1 X68.355 Y69.033 E10.99276
G1 X68.547 Y69 E10.99924
G1 X69.104 Y68.92 E11.01796
G1 X69.427 Y68.882 E11.02878
G1 X69.799 Y68.845 E11.04121
G1 X69.933 Y68.834 E11.04568
G1 X70.306 Y68.81 E11.05811
G1 X70.863 Y68.784 E11.07666
G1 X71.21 Y68.773 E11.08821
G1 X71.862 Y68.765 E11.10989
G1 X156.692 Y68.765 E13.93135
G1 X157.378 Y68.773 E13.95417
G1 X157.712 Y68.782 E13.96528
G1 X158.729 Y68.827 E13.99914
G1 X159.648 Y68.908 E14.02982
G1 X160.678 Y69.044 E14.06438
G1 X161.089 Y69.107 E14.07821
G1 X161.24 Y69.133 E14.08331
G1 X161.638 Y69.209 E14.09678
G1 X162.11 Y69.309 E14.11283
G1 X162.578 Y69.42 E14.12883
G1 X162.859 Y69.493 E14.13848
G1 X163.386 Y69.644 E14.15672
G1 X164.409 Y69.967 E14.1924
G1 X164.794 Y70.096 E14.2059
G1 X165.269 Y70.275 E14.22279
G1 X165.616 Y70.415 E14.23523
G1 X166.134 Y70.64 E14.25401
G1 X166.995 Y71.042 E14.28562
G1 X167.303 Y71.192 E14.29701
G1 X167.451 Y71.267 E14.30253
G1 X167.911 Y71.515 E14.31991
G1 X168.188 Y71.673 E14.33052
G1 X168.628 Y71.938 E14.3476
G1 X169.503 Y72.495 E14.3821
G1 X170.253 Y73.019 E14.41253
G1 X170.994 Y73.586 E14.44357
G1 X171.274 Y73.808 E14.45545
G1 X171.413 Y73.922 E14.46143
G1 X171.79 Y74.246 E14.47796
G1 X172.167 Y74.586 E14.49485
G1 X172.527 Y74.927 E14.51134
G1 X172.735 Y75.133 E14.52108
G1 X173.079 Y75.49 E14.53757
G1 X173.797 Y76.271 E14.57285
G1 X174.387 Y76.971 E14.6033
G1 X174.937 Y77.684 E14.63325
G1 X175.242 Y78.1 E14.65041
G1 X175.517 Y78.509 E14.6668
G1 X176.01 Y79.281 E14.69727
G1 X176.205 Y79.599 E14.70967
G1 X176.313 Y79.782 E14.71674
G1 X176.543 Y80.193 E14.73241
G1 X176.719 Y80.524 E14.74487
G1 X176.959 Y81.003 E14.76269
G1 X177.33 Y81.795 E14.79178
G1 X177.563 Y82.33 E14.81119
G1 X177.753 Y82.806 E14.82824
G1 X177.824 Y82.99 E14.8348
G1 X178.047 Y83.628 E14.85728
G1 X178.349 Y84.589 E14.89078
G1 X178.456 Y84.95 E14.9033
G1 X178.499 Y85.106 E14.90869
G1 X178.608 Y85.536 E14.92344
G1 X178.718 Y86.012 E14.93969
G1 X178.811 Y86.458 E14.95484
G1 X178.879 Y86.823 E14.96719
G1 X178.964 Y87.358 E14.98521
G1 X179.082 Y88.24 E15.01481
G1 X179.166 Y89.191 E15.04656
G1 X179.219 Y90.425 E15.08764
G1 X179.228 Y90.751 E15.09849
G1 X179.234 Y91.291 E15.11645
G1 X179.234 Y98.763 E15.36497
G1 X179.228 Y99.336 E15.38403
G1 X179.219 Y99.696 E15.396
G1 X179.173 Y100.731 E15.43046
G1 X179.092 Y101.648 E15.46108
G1 X178.959 Y102.655 E15.49486
G1 X178.906 Y103.01 E15.5068
G1 X178.877 Y103.184 E15.51267
G1 X178.791 Y103.638 E15.52804
G1 X178.691 Y104.11 E15.54409
G1 X178.58 Y104.578 E15.56008
G1 X178.507 Y104.859 E15.56974
G1 X178.357 Y105.383 E15.58787
G1 X178.034 Y106.407 E15.62358
G1 X177.894 Y106.821 E15.63812
G1 X177.726 Y107.268 E15.654
G1 X177.603 Y107.574 E15.66497
G1 X177.371 Y108.109 E15.68436
G1 X176.948 Y109.014 E15.71759
G1 X176.763 Y109.392 E15.73159
G1 X176.489 Y109.904 E15.7509
G1 X176.323 Y110.195 E15.76204
G1 X176.063 Y110.627 E15.77881
G1 X175.516 Y111.488 E15.81274
G1 X174.984 Y112.25 E15.84365
G1 X174.411 Y112.998 E15.87499
G1 X174.192 Y113.274 E15.88671
G1 X174.078 Y113.413 E15.89269
G1 X173.754 Y113.79 E15.90922
G1 X173.414 Y114.167 E15.92611
G1 X173.073 Y114.527 E15.9426
G1 X172.867 Y114.735 E15.95234
G1 X172.506 Y115.083 E15.96901
G1 X171.722 Y115.803 E16.00442
G1 X171.029 Y116.387 E16.03456
G1 X170.319 Y116.935 E16.06439
G1 X169.918 Y117.23 E16.08095
G1 X169.487 Y117.52 E16.09823
G1 X168.714 Y118.013 E16.12872
G1 X168.401 Y118.205 E16.14093
G1 X168.218 Y118.313 E16.148
G1 X167.807 Y118.543 E16.16366
G1 X167.476 Y118.719 E16.17613
G1 X166.997 Y118.959 E16.19395
G1 X166.205 Y119.33 E16.22304
G1 X165.67 Y119.563 E16.24245
G1 X165.156 Y119.768 E16.26086
G1 X164.962 Y119.842 E16.26776
G1 X164.362 Y120.05 E16.28888
G1 X163.401 Y120.352 E16.32239
G1 X163.024 Y120.463 E16.33546
G1 X162.878 Y120.503 E16.34049
G1 X162.464 Y120.608 E16.3547
G1 X161.988 Y120.718 E16.37095
G1 X161.556 Y120.808 E16.38562
G1 X161.215 Y120.872 E16.39716
G1 X160.647 Y120.963 E16.4163
G1 X159.715 Y121.086 E16.44756
G1 X158.789 Y121.167 E16.47848
G1 X157.595 Y121.219 E16.51823
G1 X157.259 Y121.228 E16.52941
G1 X156.711 Y121.234 E16.54764
G1 X71.602 Y121.233 E19.37838
G1 X71.088 Y121.227 E19.39547
G1 X70.816 Y121.221 E19.40452
G1 X70.495 Y121.209 E19.4152
G1 X70.017 Y121.18 E19.43113
G1 X69.884 Y121.169 E19.43557
G1 X69.135 Y121.08 E19.46066
G1 X68.567 Y120.992 E19.47978
G1 X67.693 Y120.819 E19.50941
G1 X67.198 Y120.699 E19.52635
G1 X66.286 Y120.434 E19.55794
G1 X65.76 Y120.243 E19.57655
G1 X65.262 Y120.047 E19.59435
G1 X64.631 Y119.774 E19.61722
G1 X64.478 Y119.702 E19.62284
G1 X63.619 Y119.249 E19.65514
G1 X63.056 Y118.918 E19.67686
G1 X62.176 Y118.34 E19.71188
G1 X61.935 Y118.164 E19.72181
G1 X61.415 Y117.759 E19.74373
G1 X61.244 Y117.617 E19.75112
G1 X60.728 Y117.159 E19.77407
G1 X60.502 Y116.945 E19.78442
G1 X60.042 Y116.481 E19.80615
G1 X59.733 Y116.15 E19.82121
G1 X59.17 Y115.496 E19.84991
G1 X59.132 Y115.448 E19.85195
G1 X58.793 Y114.996 E19.87074
G1 X58.414 Y114.461 E19.89255
G1 X57.697 Y113.296 E19.93805
G1 X57.528 Y112.977 E19.95006
G1 X57.242 Y112.395 E19.97162
G1 X57.046 Y111.963 E19.9874
G1 X56.669 Y111.012 E20.02143
G1 X56.576 Y110.74 E20.03099
G1 X56.45 Y110.346 E20.04475
G1 X56.401 Y110.182 E20.05044
G1 X56.312 Y109.867 E20.06133
G1 X56.235 Y109.577 E20.07131
G1 X56.021 Y108.582 E20.10516
G1 X55.989 Y108.388 E20.1117
G1 X55.923 Y107.92 E20.12742
G1 X55.883 Y107.585 E20.13864
G1 X55.843 Y107.19 E20.15184
G1 X55.831 Y107.043 E20.15675
G1 X55.807 Y106.667 E20.16928
G1 X55.783 Y106.144 E20.18669
G1 X55.773 Y105.803 E20.19804
G1 X55.765 Y105.146 E20.21989
G1 X55.767 Y84.584 E20.90379
G1 X55.769 Y84.417 E20.90934
G1 X55.778 Y84.084 E20.92042
G1 X55.818 Y83.163 E20.95108
G1 X55.878 Y82.408 E20.97627
G1 X55.884 Y82.356 E20.97801
G1 X55.981 Y81.699 E21.0001
G1 X56.077 Y81.164 E21.01818
G1 X56.289 Y80.225 E21.0502
G1 X56.377 Y79.905 E21.06124
G1 X56.647 Y79.064 E21.09062
G1 X56.807 Y78.628 E21.10606
G1 X57.186 Y77.727 E21.13857
G1 X57.352 Y77.378 E21.15143
G1 X57.788 Y76.556 E21.18237
G1 X58.051 Y76.109 E21.19962
G1 X58.561 Y75.323 E21.23079
G1 X58.711 Y75.113 E21.23937
G1 X58.927 Y74.822 E21.25142
G1 X59.105 Y74.59 E21.26115
G1 X59.69 Y73.891 E21.29147
G1 X59.881 Y73.682 E21.30088
G1 X60.573 Y72.992 E21.33339
G1 X61.027 Y72.579 E21.3538
G0 F6000 X61.296 Y72.875
G1 F1200 X61.941 Y72.335 E21.38178
G1 X62.123 Y72.195 E21.38942
G1 X62.506 Y71.915 E21.4052
G1 X62.635 Y71.825 E21.41043
G1 X63.016 Y71.571 E21.42566
G1 X63.223 Y71.44 E21.4338
G1 X63.694 Y71.159 E21.45205
G1 X63.978 Y71.003 E21.46282
G1 X64.203 Y70.883 E21.4713
G1 X64.58 Y70.692 E21.48536
G1 X64.74 Y70.615 E21.49127
G1 X65.122 Y70.441 E21.50523
G1 X65.319 Y70.356 E21.51236
G1 X65.973 Y70.1 E21.53572
G1 X66.24 Y70.006 E21.54514
G1 X66.672 Y69.865 E21.56025
G1 X66.966 Y69.776 E21.57047
G1 X67.427 Y69.648 E21.58638
G1 X67.657 Y69.59 E21.59427
G1 X68.423 Y69.427 E21.62032
G1 X68.615 Y69.394 E21.6268
G1 X69.151 Y69.317 E21.64481
G1 X69.474 Y69.279 E21.65563
G1 X69.831 Y69.243 E21.66756
G1 X69.965 Y69.232 E21.67203
G1 X70.324 Y69.209 E21.684
G1 X70.881 Y69.183 E21.70254
G1 X71.216 Y69.173 E21.71369
G1 X71.862 Y69.165 E21.73518
G1 X156.692 Y69.165 E24.55664
G1 X157.373 Y69.173 E24.57929
G1 X157.694 Y69.182 E24.58997
G1 X158.711 Y69.227 E24.62383
G1 X159.595 Y69.305 E24.65334
G1 X160.625 Y69.441 E24.6879
G1 X161.021 Y69.501 E24.70122
G1 X161.172 Y69.527 E24.70632
G1 X161.555 Y69.6 E24.71928
G1 X162.027 Y69.7 E24.73533
G1 X162.478 Y69.807 E24.75075
