;FLAVOR:Marlin
M73 P0
M73 R374
;TIME:22412
;Filament used: 18.8572m
;Layer height: 0.2
;MINX:66.526
;MINY:32.444
;MINZ:0.2
;MAXX:168.474
;MAXY:202.542
;MAXZ:42.6
;POSTPROCESSED
;Generated with Cura_SteamEngine 5.0.0
M140 S50
M105
M190 S50
M104 S200
M105
M109 S200
M82 ;absolute extrusion mode
; Ender 3 Custom Start G-code
G92 E0 ; Reset Extruder
G28 ; Home all axes
G1 Z2.0 F3000 ; Move Z Axis up little to prevent scratching of Heat Bed
G1 X0.1 Y20 Z0.3 F5000.0 ; Move to start position
G1 X0.1 Y200.0 Z0.3 F1500.0 E15 ; Draw the first line
G1 X0.4 Y200.0 Z0.3 F5000.0 ; Move to side a little
G1 X0.4 Y20 Z0.3 F1500.0 E30 ; Draw the second line
G92 E0 ; Reset Extruder
G1 Z2.0 F3000 ; Move Z Axis up little to prevent scratching of Heat Bed
G1 X5 Y20 Z0.3 F5000.0 ; Move over to prevent blob squish
G92 E0
G92 E0
G1 F2700 E-5
;LAYER_COUNT:213
;LAYER:0
M107
G0 F6000 X68.32 Y37.923 Z0.2
G0 X66.82 Y43.953
;TYPE:SKIRT
G1 F2700 E0
G1 F1200 X66.83 Y43.288 E0.02212
G1 X66.884 Y42.351 E0.05334
G1 X67.018 Y41.423 E0.08452
G1 X67.23 Y40.509 E0.11573
G1 X67.519 Y39.617 E0.14692
G1 X67.884 Y38.753 E0.17811
G1 X68.32 Y37.923 E0.20929
G1 X68.826 Y37.133 E0.2405
G1 X69.397 Y36.389 E0.27169
G1 X70.029 Y35.696 E0.30289
G1 X70.718 Y35.06 E0.33407
G1 X71.459 Y34.485 E0.36527
G1 X72.246 Y33.975 E0.39646
G1 X73.074 Y33.534 E0.42766
G1 X73.936 Y33.165 E0.45885
G1 X74.827 Y32.871 E0.49005
G1 X75.739 Y32.653 E0.52124
G1 X76.666 Y32.515 E0.55241
G1 X77.52 Y32.457 E0.58088
G1 X78.149 Y32.444 E0.60181
G1 X156.767 Y32.444 E3.21665
G1 X157.623 Y32.455 E3.24513
G1 X158.559 Y32.509 E3.27631
G1 X159.487 Y32.641 E3.30749
G1 X160.401 Y32.853 E3.33869
G1 X161.293 Y33.142 E3.36988
G1 X162.158 Y33.505 E3.40108
G1 X162.988 Y33.941 E3.43226
G1 X163.779 Y34.446 E3.46348
G1 X164.523 Y35.017 E3.49467
G1 X165.216 Y35.649 E3.52586
G1 X165.853 Y36.337 E3.55705
G1 X166.428 Y37.078 E3.58825
G1 X166.939 Y37.864 E3.61943
G1 X167.381 Y38.692 E3.65064
G1 X167.75 Y39.554 E3.68183
G1 X168.045 Y40.444 E3.71302
G1 X168.263 Y41.356 E3.7442
G1 X168.403 Y42.284 E3.77542
G1 X168.461 Y43.145 E3.80412
G1 X168.474 Y43.774 E3.82505
G1 X168.472 Y60.73 E4.389
G1 X168.46 Y61.434 E4.41242
G1 X168.404 Y62.371 E4.44364
G1 X168.269 Y63.299 E4.47483
G1 X168.055 Y64.212 E4.50602
G1 X167.764 Y65.103 E4.5372
G1 X167.398 Y65.967 E4.56841
G1 X166.96 Y66.796 E4.59959
G1 X166.453 Y67.585 E4.63079
G1 X165.821 Y68.398 E4.66504
G1 X163.972 Y70.559 E4.75963
G1 X162.382 Y72.529 E4.84383
G1 X160.862 Y74.527 E4.92733
G1 X159.4 Y76.564 E5.01072
G1 X158.003 Y78.633 E5.09376
G1 X156.645 Y80.773 E5.17805
G1 X155.347 Y82.95 E5.26236
G1 X154.112 Y85.162 E5.34662
G1 X152.975 Y87.342 E5.42839
G1 X151.852 Y89.65 E5.51376
G1 X150.829 Y91.915 E5.59642
G1 X149.849 Y94.264 E5.68108
G1 X148.942 Y96.616 E5.76492
G1 X148.112 Y98.966 E5.84782
G1 X147.338 Y101.372 E5.93188
G1 X146.641 Y103.77 E6.01494
G1 X145.997 Y106.244 E6.09996
G1 X145.44 Y108.667 E6.18266
G1 X144.941 Y111.153 E6.26699
G1 X144.517 Y113.625 E6.35041
G1 X144.163 Y116.112 E6.43396
G1 X143.877 Y118.63 E6.51825
G1 X143.664 Y121.128 E6.60163
G1 X143.523 Y123.61 E6.68432
G1 X143.45 Y126.197 E6.7704
G1 X143.441 Y127.494 E6.81354
G1 X143.44 Y190.987 E8.92532
G1 X143.429 Y191.711 E8.9494
G1 X143.375 Y192.647 E8.98059
G1 X143.241 Y193.576 E9.01181
G1 X143.028 Y194.489 E9.04299
G1 X142.739 Y195.381 E9.07417
G1 X142.375 Y196.246 E9.10539
G1 X141.938 Y197.076 E9.13659
G1 X141.432 Y197.865 E9.16776
G1 X140.861 Y198.609 E9.19896
G1 X140.229 Y199.302 E9.23015
G1 X139.539 Y199.938 E9.26136
G1 X138.799 Y200.513 E9.29253
G1 X138.011 Y201.023 E9.32375
G1 X137.184 Y201.464 E9.35492
G1 X136.321 Y201.833 E9.38614
G1 X135.431 Y202.127 E9.41731
G1 X134.518 Y202.344 E9.44853
G1 X133.591 Y202.483 E9.4797
G1 X132.655 Y202.542 E9.5109
G1 X131.717 Y202.521 E9.5421
G1 X130.622 Y202.394 E9.57877
G1 X129.819 Y202.259 E9.60585
G1 X76.133 Y192.52 E11.4206
G1 X75.443 Y192.386 E11.44397
G1 X74.531 Y192.168 E11.47516
G1 X73.64 Y191.874 E11.50637
G1 X72.778 Y191.504 E11.53757
G1 X71.951 Y191.062 E11.56876
G1 X71.164 Y190.552 E11.59995
G1 X70.424 Y189.976 E11.63114
G1 X69.735 Y189.339 E11.66235
G1 X69.103 Y188.646 E11.69354
G1 X68.533 Y187.902 E11.72472
G1 X68.028 Y187.112 E11.7559
G1 X67.592 Y186.282 E11.78708
G1 X67.228 Y185.417 E11.8183
G1 X66.939 Y184.525 E11.84948
G1 X66.728 Y183.611 E11.88068
G1 X66.595 Y182.683 E11.91186
G1 X66.541 Y181.768 E11.94235
G1 X66.526 Y180.732 E11.97681
G1 X66.528 Y165.123 E12.49597
G1 X66.54 Y164.416 E12.51949
G1 X66.595 Y163.48 E12.55067
G1 X66.731 Y162.552 E12.58187
G1 X66.945 Y161.639 E12.61306
G1 X67.236 Y160.747 E12.64426
G1 X67.602 Y159.884 E12.67544
G1 X68.012 Y159.103 E12.70478
G1 X68.368 Y158.488 E12.72841
G1 X69.134 Y157.204 E12.77814
G1 X70.36 Y155.009 E12.86176
G1 X71.523 Y152.783 E12.9453
G1 X72.631 Y150.509 E13.02943
G1 X73.666 Y148.219 E13.11301
G1 X74.642 Y145.89 E13.197
G1 X75.548 Y143.54 E13.28077
G1 X76.38 Y141.188 E13.36375
G1 X77.162 Y138.763 E13.4485
G1 X77.858 Y136.369 E13.53142
G1 X78.495 Y133.927 E13.61536
G1 X79.063 Y131.467 E13.69933
G1 X79.557 Y129.009 E13.78272
G1 X79.989 Y126.499 E13.86743
G1 X80.339 Y124.05 E13.94971
G1 X80.626 Y121.533 E14.03397
G1 X80.841 Y119.029 E14.11756
G1 X80.986 Y116.494 E14.20201
G1 X81.057 Y114.015 E14.2845
G1 X81.059 Y111.491 E14.36845
G1 X80.988 Y108.96 E14.45266
G1 X80.847 Y106.442 E14.53654
G1 X80.635 Y103.933 E14.62029
G1 X80.353 Y101.441 E14.7037
G1 X80.001 Y98.956 E14.78718
G1 X79.573 Y96.451 E14.8717
G1 X79.085 Y94.007 E14.95459
G1 X78.521 Y91.551 E15.03841
G1 X77.89 Y89.123 E15.12184
G1 X77.182 Y86.68 E15.20644
G1 X76.418 Y84.297 E15.28968
G1 X75.577 Y81.915 E15.37369
G1 X74.694 Y79.613 E15.4557
G1 X73.704 Y77.242 E15.54116
G1 X72.666 Y74.942 E15.62508
G1 X71.585 Y72.713 E15.70748
G1 X70.42 Y70.478 E15.79131
G1 X68.794 Y67.585 E15.90169
G1 X68.342 Y66.813 E15.93144
G1 X67.903 Y65.984 E15.96264
G1 X67.536 Y65.121 E15.99383
G1 X67.245 Y64.23 E16.02501
G1 X67.03 Y63.317 E16.0562
G1 X66.893 Y62.389 E16.0874
G1 X66.837 Y61.453 E16.11859
G1 X66.819 Y60.363 E16.15485
G1 X66.82 Y43.953 E16.70065
G0 F6000 X67.22 Y43.959
G1 F1200 X67.23 Y43.294 E16.72277
G1 X67.284 Y42.375 E16.75339
G1 X67.417 Y41.464 E16.78401
G1 X67.629 Y40.568 E16.81463
G1 X67.918 Y39.693 E16.84528
G1 X68.282 Y38.848 E16.87588
G1 X68.717 Y38.037 E16.90649
G1 X69.222 Y37.266 E16.93715
G1 X69.791 Y36.543 E16.96775
G1 X70.421 Y35.871 E16.99839
G1 X71.107 Y35.257 E17.02901
G1 X71.843 Y34.705 E17.05961
G1 X72.625 Y34.218 E17.09025
G1 X73.446 Y33.802 E17.12086
G1 X74.3 Y33.458 E17.15148
G1 X75.18 Y33.189 E17.18209
G1 X76.081 Y32.998 E17.21272
G1 X76.995 Y32.886 E17.24335
G1 X77.531 Y32.857 E17.2612
G1 X78.149 Y32.844 E17.28176
G1 X156.767 Y32.844 E19.8966
G1 X157.617 Y32.855 E19.92488
G1 X158.536 Y32.908 E19.95549
G1 X159.447 Y33.041 E19.98612
G1 X160.343 Y33.252 E20.01673
G1 X161.217 Y33.54 E20.04734
G1 X162.064 Y33.903 E20.07799
G1 X162.875 Y34.338 E20.1086
G1 X163.645 Y34.842 E20.13921
G1 X164.369 Y35.411 E20.16983
G1 X165.041 Y36.041 E20.20047
G1 X165.656 Y36.726 E20.23109
G1 X166.209 Y37.462 E20.26171
G1 X166.696 Y38.243 E20.29232
G1 X167.113 Y39.064 E20.32295
G1 X167.458 Y39.918 E20.35358
G1 X167.727 Y40.798 E20.38419
G1 X167.919 Y41.699 E20.41483
G1 X168.032 Y42.612 E20.44543
G1 X168.07 Y43.476 E20.47419
G1 X168.074 Y60.543 E21.04184
G1 X168.06 Y61.428 E21.07128
G1 X168.005 Y62.347 E21.1019
G1 X167.87 Y63.257 E21.1325
G1 X167.656 Y64.153 E21.16314
G1 X167.365 Y65.026 E21.19375
G1 X167 Y65.871 E21.22436
G1 X166.563 Y66.682 E21.255
G1 X166.057 Y67.451 E21.28562
G1 X165.517 Y68.138 E21.31468
G1 X163.641 Y70.331 E21.41067
G1 X162.081 Y72.264 E21.49329
G1 X160.551 Y74.274 E21.5773
G1 X159.06 Y76.353 E21.66239
G1 X157.666 Y78.416 E21.74521
G1 X156.306 Y80.559 E21.82962
G1 X154.997 Y82.756 E21.91468
G1 X153.78 Y84.934 E21.99767
G1 X152.604 Y87.189 E22.08225
G1 X151.499 Y89.461 E22.16628
G1 X150.454 Y91.775 E22.25073
G1 X149.47 Y94.132 E22.33568
G1 X148.578 Y96.445 E22.41814
G1 X147.73 Y98.847 E22.50286
G1 X146.959 Y101.243 E22.58658
G1 X146.256 Y103.662 E22.67036
G1 X145.616 Y106.119 E22.75481
G1 X145.043 Y108.612 E22.83989
G1 X144.549 Y111.072 E22.92334
G1 X144.12 Y113.573 E23.00774
G1 X143.763 Y116.082 E23.09203
G1 X143.483 Y118.552 E23.17471
G1 X143.265 Y121.108 E23.26003
G1 X143.123 Y123.61 E23.34338
G1 X143.05 Y126.183 E23.42899
G1 X143.041 Y127.491 E23.4725
G1 X143.04 Y190.981 E25.58419
G1 X143.029 Y191.705 E25.60827
G1 X142.975 Y192.624 E25.63889
G1 X142.841 Y193.535 E25.66951
G1 X142.629 Y194.431 E25.70014
G1 X142.34 Y195.305 E25.73075
G1 X141.977 Y196.151 E25.76137
G1 X141.541 Y196.962 E25.792
G1 X141.036 Y197.732 E25.82263
G1 X140.467 Y198.455 E25.85323
G1 X139.837 Y199.127 E25.88386
G1 X139.151 Y199.741 E25.91448
G1 X138.414 Y200.293 E25.94511
G1 X137.633 Y200.779 E25.9757
G1 X136.812 Y201.196 E26.00633
G1 X135.958 Y201.54 E26.03695
G1 X135.077 Y201.808 E26.06758
G1 X134.176 Y201.999 E26.09822
G1 X133.263 Y202.111 E26.12881
G1 X132.342 Y202.144 E26.15946
G1 X131.423 Y202.096 E26.19007
G1 X130.687 Y202 E26.21476
G1 X129.89 Y201.866 E26.24164
G1 X76.209 Y192.128 E28.05621
G1 X75.519 Y191.994 E28.07959
G1 X74.624 Y191.779 E28.11021
G1 X73.751 Y191.488 E28.14081
G1 X72.906 Y191.121 E28.17145
G1 X72.096 Y190.683 E28.20208
G1 X71.327 Y190.177 E28.2327
G1 X70.606 Y189.605 E28.26331
G1 X69.936 Y188.973 E28.29394
G1 X69.324 Y188.286 E28.32454
G1 X68.774 Y187.547 E28.35518
G1 X68.29 Y186.764 E28.3858
G1 X67.876 Y185.942 E28.41641
G1 X67.534 Y185.087 E28.44704
G1 X67.268 Y184.206 E28.47765
G1 X67.08 Y183.304 E28.50829
G1 X66.97 Y182.39 E28.53891
G1 X66.941 Y181.761 E28.55986
G1 X66.926 Y180.732 E28.59408
G1 X66.928 Y165.13 E29.11301
G1 X66.94 Y164.423 E29.13653
G1 X66.995 Y163.504 E29.16715
G1 X67.13 Y162.593 E29.19778
G1 X67.344 Y161.698 E29.22839
G1 X67.634 Y160.824 E29.25901
G1 X68 Y159.979 E29.28964
G1 X68.358 Y159.303 E29.31508
G1 X68.712 Y158.693 E29.33854
G1 X69.469 Y157.425 E29.38766
G1 X70.721 Y155.183 E29.47307
G1 X71.88 Y152.964 E29.55633
G1 X72.998 Y150.671 E29.64118
G1 X74.028 Y148.39 E29.72442
G1 X75.008 Y146.053 E29.80871
G1 X75.927 Y143.669 E29.89369
G1 X76.762 Y141.308 E29.97698
G1 X77.538 Y138.901 E30.0611
G1 X78.246 Y136.467 E30.14541
G1 X78.886 Y134.013 E30.22976
G1 X79.451 Y131.564 E30.31335
G1 X79.957 Y129.049 E30.39868
G1 X80.381 Y126.586 E30.4818
G1 X80.733 Y124.12 E30.56465
G1 X81.028 Y121.541 E30.65099
G1 X81.238 Y119.085 E30.73298
G1 X81.384 Y116.529 E30.81813
G1 X81.457 Y113.991 E30.90258
G1 X81.459 Y111.48 E30.98609
G1 X81.388 Y108.927 E31.07104
G1 X81.247 Y106.419 E31.15459
G1 X81.037 Y103.927 E31.23776
G1 X80.748 Y101.376 E31.32315
G1 X80.398 Y98.904 E31.40619
G1 X79.967 Y96.382 E31.49129
G1 X79.482 Y93.951 E31.57374
G1 X78.903 Y91.433 E31.65967
G1 X78.276 Y89.016 E31.74272
G1 X77.561 Y86.552 E31.82806
G1 X76.8 Y84.178 E31.91098
G1 X75.956 Y81.787 E31.99531
G1 X75.06 Y79.452 E32.07849
G1 X74.066 Y77.073 E32.16425
G1 X73.033 Y74.782 E32.24783
G1 X71.935 Y72.519 E32.33149
G1 X70.768 Y70.28 E32.41547
G1 X69.159 Y67.417 E32.5247
G1 X68.687 Y66.611 E32.55577
G1 X68.257 Y65.797 E32.58639
G1 X67.899 Y64.949 E32.617
G1 X67.616 Y64.073 E32.64762
G1 X67.41 Y63.175 E32.67827
G1 X67.283 Y62.264 E32.70886
G1 X67.237 Y61.446 E32.73611
G1 X67.219 Y60.363 E32.77213
G1 X67.22 Y43.959 E33.31773
G0 F6000 X67.62 Y43.965
G1 F1200 X67.63 Y43.3 E33.33985
G1 X67.684 Y42.398 E33.36991
G1 X67.817 Y41.505 E33.39994
G1 X68.028 Y40.627 E33.42997
G1 X68.317 Y39.771 E33.46002
G1 X68.68 Y38.944 E33.49006
G1 X69.114 Y38.153 E33.52007
G1 X69.617 Y37.402 E33.55013
G1 X70.185 Y36.7 E33.58017
G1 X70.812 Y36.05 E33.6102
G1 X71.494 Y35.458 E33.64024
G1 X72.226 Y34.929 E33.67028
G1 X73.002 Y34.467 E33.70032
G1 X73.816 Y34.076 E33.73035
G1 X74.661 Y33.757 E33.76039
G1 X75.531 Y33.515 E33.79043
G1 X76.419 Y33.351 E33.82046
G1 X77.542 Y33.257 E33.85794
G1 X78.149 Y33.244 E33.87814
G1 X156.767 Y33.244 E36.49298
G1 X157.611 Y33.255 E36.52106
G1 X158.513 Y33.308 E36.55111
G1 X159.406 Y33.44 E36.58113
G1 X160.284 Y33.651 E36.61117
G1 X161.14 Y33.939 E36.64121
G1 X161.967 Y34.301 E36.67123
G1 X162.759 Y34.736 E36.70129
G1 X163.51 Y35.238 E36.73133
G1 X164.213 Y35.805 E36.76137
G1 X164.863 Y36.432 E36.79141
G1 X165.455 Y37.114 E36.82145
G1 X165.985 Y37.845 E36.85148
G1 X166.447 Y38.621 E36.88151
G1 X166.84 Y39.434 E36.91155
G1 X167.158 Y40.279 E36.94158
G1 X167.401 Y41.149 E36.97162
G1 X167.566 Y42.037 E37.00166
G1 X167.661 Y43.167 E37.03938
G1 X167.674 Y43.774 E37.05957
G1 X167.673 Y60.717 E37.6231
G1 X167.661 Y61.421 E37.64652
G1 X167.605 Y62.322 E37.67654
G1 X167.47 Y63.215 E37.70658
G1 X167.257 Y64.093 E37.73663
G1 X166.967 Y64.948 E37.76666
G1 X166.602 Y65.774 E37.79669
G1 X166.166 Y66.565 E37.82674
G1 X165.661 Y67.314 E37.85678
G1 X165.213 Y67.878 E37.88074
G1 X163.342 Y70.065 E37.97646
G1 X161.768 Y72.016 E38.05984
G1 X160.224 Y74.045 E38.14464
G1 X158.748 Y76.102 E38.22885
G1 X157.314 Y78.225 E38.31406
G1 X155.958 Y80.362 E38.39824
G1 X154.662 Y82.535 E38.48239
G1 X153.419 Y84.761 E38.56719
G1 X152.247 Y87.008 E38.65148
G1 X151.133 Y89.3 E38.73624
G1 X150.097 Y91.592 E38.8199
G1 X149.099 Y93.983 E38.90607
G1 X148.204 Y96.305 E38.98884
G1 X147.347 Y98.729 E39.07435
G1 X146.574 Y101.135 E39.1584
G1 X145.871 Y103.555 E39.24222
G1 X145.225 Y106.033 E39.32739
G1 X144.647 Y108.55 E39.41329
G1 X144.155 Y110.997 E39.49631
G1 X143.729 Y113.485 E39.58026
G1 X143.369 Y116.012 E39.66516
G1 X143.081 Y118.545 E39.74995
G1 X142.868 Y121.05 E39.83357
G1 X142.723 Y123.612 E39.91891
G1 X142.65 Y126.17 E40.00403
G1 X142.641 Y127.488 E40.04787
G1 X142.64 Y190.975 E42.15945
G1 X142.629 Y191.699 E42.18354
G1 X142.575 Y192.6 E42.21356
G1 X142.442 Y193.494 E42.24362
G1 X142.23 Y194.372 E42.27366
G1 X141.942 Y195.227 E42.30367
G1 X141.579 Y196.054 E42.33371
G1 X141.144 Y196.846 E42.36376
G1 X140.641 Y197.596 E42.3938
G1 X140.073 Y198.298 E42.42383
G1 X139.446 Y198.948 E42.45387
G1 X138.763 Y199.54 E42.48393
G1 X138.031 Y200.068 E42.51395
G1 X137.255 Y200.53 E42.54399
G1 X136.442 Y200.922 E42.57401
G1 X135.596 Y201.24 E42.60407
G1 X134.726 Y201.482 E42.6341
G1 X133.838 Y201.646 E42.66414
G1 X132.939 Y201.731 E42.69417
G1 X132.036 Y201.736 E42.72421
G1 X130.753 Y201.605 E42.7671
G1 X129.961 Y201.472 E42.79381
G1 X76.285 Y191.735 E44.60822
G1 X75.595 Y191.601 E44.6316
G1 X74.717 Y191.39 E44.66163
G1 X73.861 Y191.102 E44.69167
G1 X73.034 Y190.739 E44.72171
G1 X72.243 Y190.305 E44.75172
G1 X71.492 Y189.802 E44.78178
G1 X70.79 Y189.235 E44.81179
G1 X70.14 Y188.608 E44.84183
G1 X69.548 Y187.926 E44.87187
G1 X69.019 Y187.194 E44.90191
G1 X68.556 Y186.418 E44.93196
G1 X68.164 Y185.604 E44.96201
G1 X67.846 Y184.759 E44.99204
G1 X67.603 Y183.889 E45.02209
G1 X67.438 Y183.001 E45.05213
G1 X67.341 Y181.755 E45.09369
G1 X67.326 Y180.732 E45.12772
G1 X67.327 Y165.137 E45.64641
G1 X67.339 Y164.43 E45.66993
G1 X67.395 Y163.528 E45.69999
G1 X67.53 Y162.635 E45.73003
G1 X67.743 Y161.758 E45.76005
G1 X68.033 Y160.903 E45.79007
G1 X68.397 Y160.076 E45.82013
G1 X68.705 Y159.503 E45.84176
G1 X69.055 Y158.898 E45.86501
G1 X69.834 Y157.593 E45.91556
G1 X71.061 Y155.397 E45.99923
G1 X72.229 Y153.16 E46.08316
G1 X73.363 Y150.832 E46.16929
G1 X74.398 Y148.543 E46.25284
G1 X75.379 Y146.202 E46.33727
G1 X76.301 Y143.81 E46.42253
G1 X77.148 Y141.416 E46.50699
G1 X77.916 Y139.031 E46.59033
M73 P1
G1 X78.637 Y136.553 E46.67616
G1 X79.277 Y134.099 E46.76051
G1 X79.84 Y131.661 E46.84374
G1 X80.35 Y129.125 E46.92977
G1 X80.777 Y126.64 E47.01364
G1 X81.132 Y124.155 E47.09713
G1 X81.422 Y121.619 E47.18202
G1 X81.64 Y119.071 E47.26708
G1 X81.784 Y116.563 E47.35063
