;FLAVOR:Marlin
;TIME:6187
;Filament used: 8.5506m
;Layer height: 0.28
;MINX:75.84
;MINY:67.25
;MINZ:0.28
;MAXX:159.16
;MAXY:167.75
;MAXZ:24.92
;Generated with Cura_SteamEngine 4.9.1
M140 S50
M105
M190 S50
M104 S215
M105
M109 S215
M82 ;absolute extrusion mode
; Ender 3 Custom Start G-code
G92 E0 ; Reset Extruder
G28 ; Home all axes
G1 Z2.0 F3000 ; Move Z Axis up little to prevent scratching of Heat Bed
G1 X0.1 Y20 Z0.3 F5000.0 ; Move to start position
G1 X0.1 Y200.0 Z0.3 F1500.0 E15 ; Draw the first line
G1 X0.4 Y200.0 Z0.3 F5000.0 ; Move to side a little
G1 X0.4 Y20 Z0.3 F1500.0 E30 ; Draw the second line
G92 E0 ; Reset Extruder
G1 Z2.0 F3000 ; Move Z Axis up little to prevent scratching of Heat Bed
G1 X5 Y20 Z0.3 F5000.0 ; Move over to prevent blob squish
G92 E0
G92 E0
G1 F2700 E-5
;LAYER_COUNT:89
;LAYER:0
M107
G0 F6000 X78.406 Y71.208 Z0.28
;TYPE:SKIRT
G1 F2700 E0
G1 F1200 X79.038 Y70.514 E0.04371
G1 X79.726 Y69.877 E0.08737
G1 X80.466 Y69.301 E0.13103
G1 X81.252 Y68.789 E0.17471
G1 X82.079 Y68.347 E0.21838
G1 X82.941 Y67.977 E0.26205
G1 X83.831 Y67.681 E0.30573
G1 X84.743 Y67.463 E0.34939
G1 X85.67 Y67.322 E0.39305
G1 X86.541 Y67.263 E0.4337
G1 X86.862 Y67.254 E0.44866
G1 X87.17 Y67.25 E0.463
G1 X147.453 Y67.25 E3.27003
G1 X148.309 Y67.261 E3.30989
G1 X149.245 Y67.315 E3.35355
G1 X150.173 Y67.447 E3.39719
G1 X151.087 Y67.659 E3.44088
G1 X151.979 Y67.948 E3.48454
G1 X152.844 Y68.311 E3.52823
G1 X153.674 Y68.747 E3.57188
G1 X154.465 Y69.252 E3.61558
G1 X155.209 Y69.823 E3.65925
G1 X155.902 Y70.455 E3.70292
G1 X156.539 Y71.143 E3.74658
G1 X157.114 Y71.884 E3.79026
G1 X157.625 Y72.67 E3.83391
G1 X158.067 Y73.498 E3.87762
G1 X158.436 Y74.36 E3.92128
G1 X158.731 Y75.25 E3.96494
G1 X158.949 Y76.162 E4.0086
G1 X159.089 Y77.09 E4.0523
G1 X159.147 Y77.951 E4.09248
G1 X159.156 Y78.271 E4.10739
G1 X159.16 Y78.58 E4.12178
G1 X159.16 Y156.149 E7.73372
G1 X159.151 Y156.877 E7.76762
G1 X159.1 Y157.813 E7.81127
G1 X158.968 Y158.742 E7.85496
G1 X158.759 Y159.656 E7.89862
G1 X158.472 Y160.549 E7.94229
G1 X158.11 Y161.414 E7.98596
G1 X157.676 Y162.246 E8.02965
G1 X157.172 Y163.037 E8.07332
G1 X156.603 Y163.782 E8.11698
G1 X155.972 Y164.477 E8.16069
G1 X155.285 Y165.115 E8.20434
G1 X154.546 Y165.692 E8.248
G1 X153.76 Y166.204 E8.29168
G1 X152.934 Y166.647 E8.33532
G1 X152.072 Y167.019 E8.37904
G1 X151.183 Y167.315 E8.42267
G1 X150.271 Y167.535 E8.46636
G1 X149.344 Y167.676 E8.51002
G1 X148.461 Y167.737 E8.55123
G1 X148.141 Y167.746 E8.56614
G1 X147.832 Y167.75 E8.58053
G1 X87.405 Y167.749 E11.39426
G1 X86.707 Y167.74 E11.42677
G1 X85.771 Y167.688 E11.47042
G1 X84.842 Y167.556 E11.51411
G1 X83.928 Y167.346 E11.55778
G1 X83.035 Y167.059 E11.60145
G1 X82.17 Y166.696 E11.64514
G1 X81.339 Y166.262 E11.68879
G1 X80.548 Y165.758 E11.73246
G1 X79.803 Y165.188 E11.77614
G1 X79.109 Y164.557 E11.81982
G1 X78.472 Y163.87 E11.86344
G1 X77.895 Y163.13 E11.90714
G1 X77.383 Y162.344 E11.95082
G1 X76.94 Y161.517 E11.9945
G1 X76.569 Y160.656 E12.03816
G1 X76.273 Y159.766 E12.08183
G1 X76.054 Y158.854 E12.12551
G1 X75.913 Y157.927 E12.16917
G1 X75.853 Y157.038 E12.21066
G1 X75.844 Y156.705 E12.22617
G1 X75.84 Y156.408 E12.24
G1 X75.841 Y78.775 E15.85492
G1 X75.85 Y78.11 E15.88589
G1 X75.903 Y77.174 E15.92954
G1 X76.035 Y76.245 E15.97323
G1 X76.246 Y75.331 E16.01691
G1 X76.534 Y74.439 E16.06056
G1 X76.897 Y73.574 E16.10424
G1 X77.332 Y72.743 E16.14791
G1 X77.836 Y71.953 E16.19155
G1 X78.406 Y71.208 E16.23523
G0 F6000 X78.801 Y71.361
G1 F1200 X79.429 Y70.689 E16.27806
G1 X80.114 Y70.073 E16.32095
G1 X80.85 Y69.52 E16.36382
G1 X81.631 Y69.032 E16.4067
G1 X82.451 Y68.614 E16.44956
G1 X83.305 Y68.269 E16.49245
G1 X84.185 Y67.999 E16.53531
G1 X85.085 Y67.807 E16.57816
G1 X85.999 Y67.693 E16.62105
G1 X86.552 Y67.663 E16.64684
G1 X86.873 Y67.654 E16.66179
G1 X87.17 Y67.65 E16.67562
G1 X147.453 Y67.65 E19.48265
G1 X148.303 Y67.661 E19.52223
G1 X149.222 Y67.714 E19.5651
G1 X150.133 Y67.847 E19.60797
G1 X151.029 Y68.058 E19.65083
G1 X151.903 Y68.346 E19.69368
G1 X152.75 Y68.709 E19.73659
G1 X153.561 Y69.144 E19.77944
G1 X154.331 Y69.648 E19.82229
G1 X155.055 Y70.217 E19.86517
G1 X155.727 Y70.847 E19.90806
G1 X156.342 Y71.532 E19.95093
G1 X156.895 Y72.268 E19.9938
G1 X157.382 Y73.049 E20.03665
G1 X157.799 Y73.87 E20.07953
G1 X158.144 Y74.724 E20.12242
G1 X158.413 Y75.604 E20.16527
G1 X158.605 Y76.505 E20.20816
G1 X158.718 Y77.418 E20.251
G1 X158.747 Y77.962 E20.27637
G1 X158.756 Y78.282 E20.29127
G1 X158.76 Y78.58 E20.30515
G1 X158.76 Y156.144 E23.91686
G1 X158.751 Y156.872 E23.95076
G1 X158.7 Y157.791 E23.99362
G1 X158.569 Y158.703 E24.03652
G1 X158.359 Y159.599 E24.07937
G1 X158.073 Y160.474 E24.12224
G1 X157.712 Y161.321 E24.16511
G1 X157.278 Y162.133 E24.20798
G1 X156.776 Y162.905 E24.25086
G1 X156.208 Y163.63 E24.29374
G1 X155.58 Y164.303 E24.33661
G1 X154.896 Y164.919 E24.37947
G1 X154.161 Y165.473 E24.42233
G1 X153.381 Y165.962 E24.46519
G1 X152.561 Y166.381 E24.50807
G1 X151.708 Y166.727 E24.55094
G1 X150.828 Y166.998 E24.59381
G1 X149.928 Y167.191 E24.63667
G1 X149.014 Y167.306 E24.67957
G1 X148.45 Y167.337 E24.70587
G1 X148.13 Y167.346 E24.72077
G1 X147.832 Y167.35 E24.73465
G1 X87.41 Y167.349 E27.54815
G1 X86.712 Y167.34 E27.58066
G1 X85.793 Y167.288 E27.62352
G1 X84.882 Y167.157 E27.66638
G1 X83.986 Y166.947 E27.70923
G1 X83.111 Y166.66 E27.75211
G1 X82.264 Y166.298 E27.795
G1 X81.452 Y165.864 E27.83787
G1 X80.681 Y165.362 E27.88071
G1 X79.956 Y164.794 E27.9236
G1 X79.283 Y164.165 E27.96649
G1 X78.668 Y163.481 E28.00932
G1 X78.114 Y162.746 E28.05218
G1 X77.626 Y161.965 E28.09506
G1 X77.207 Y161.145 E28.13794
G1 X76.861 Y160.292 E28.1808
G1 X76.591 Y159.412 E28.22366
G1 X76.398 Y158.511 E28.26657
G1 X76.284 Y157.598 E28.30941
G1 X76.253 Y157.027 E28.33604
G1 X76.244 Y156.694 E28.35155
G1 X76.24 Y156.408 E28.36487
G1 X76.241 Y78.781 E31.97951
G1 X76.25 Y78.116 E32.01048
G1 X76.302 Y77.196 E32.05338
G1 X76.434 Y76.285 E32.09625
G1 X76.645 Y75.389 E32.13911
G1 X76.932 Y74.514 E32.18199
G1 X77.295 Y73.668 E32.22486
G1 X77.729 Y72.856 E32.26773
G1 X78.232 Y72.085 E32.31059
G1 X78.801 Y71.361 E32.35347
G0 F6000 X79.195 Y71.517
G1 F1200 X79.821 Y70.867 E32.39549
G1 X80.502 Y70.274 E32.43754
G1 X81.234 Y69.744 E32.47962
G1 X82.009 Y69.281 E32.52166
G1 X82.822 Y68.888 E32.56371
G1 X83.667 Y68.568 E32.60578
G1 X84.536 Y68.325 E32.6478
G1 X85.424 Y68.159 E32.68986
G1 X86.563 Y68.063 E32.74309
G1 X86.884 Y68.054 E32.75804
G1 X87.17 Y68.05 E32.77136
G1 X147.453 Y68.05 E35.57839
G1 X148.297 Y68.061 E35.61769
G1 X149.199 Y68.114 E35.65976
G1 X150.092 Y68.246 E35.7018
G1 X150.97 Y68.457 E35.74384
G1 X151.826 Y68.745 E35.7859
G1 X152.653 Y69.107 E35.82793
G1 X153.445 Y69.542 E35.87001
G1 X154.196 Y70.044 E35.91207
G1 X154.899 Y70.611 E35.95413
G1 X155.549 Y71.238 E35.99618
G1 X156.141 Y71.92 E36.03823
G1 X156.671 Y72.651 E36.08028
G1 X157.133 Y73.427 E36.12233
G1 X157.526 Y74.24 E36.16438
G1 X157.844 Y75.085 E36.20642
G1 X158.087 Y75.955 E36.24848
G1 X158.252 Y76.843 E36.29054
G1 X158.347 Y77.973 E36.34334
G1 X158.356 Y78.293 E36.35825
G1 X158.36 Y78.58 E36.37161
G1 X158.36 Y156.139 E39.98308
G1 X158.351 Y156.867 E40.01698
G1 X158.3 Y157.769 E40.05905
G1 X158.169 Y158.662 E40.10108
G1 X157.96 Y159.541 E40.14315
G1 X157.674 Y160.397 E40.18517
G1 X157.313 Y161.225 E40.22723
G1 X156.881 Y162.018 E40.26928
G1 X156.38 Y162.77 E40.31136
G1 X155.814 Y163.474 E40.35342
G1 X155.189 Y164.125 E40.39544
G1 X154.508 Y164.719 E40.43752
G1 X153.777 Y165.249 E40.47957
G1 X153.003 Y165.714 E40.52161
G1 X152.19 Y166.108 E40.56368
G1 X151.346 Y166.428 E40.60571
G1 X150.476 Y166.673 E40.64779
G1 X149.589 Y166.839 E40.68981
G1 X148.439 Y166.937 E40.74356
G1 X148.119 Y166.946 E40.75846
G1 X147.832 Y166.95 E40.77183
G1 X87.415 Y166.949 E43.5851
G1 X86.717 Y166.94 E43.6176
G1 X85.816 Y166.889 E43.65962
G1 X84.922 Y166.757 E43.7017
G1 X84.044 Y166.548 E43.74373
G1 X83.187 Y166.261 E43.78581
G1 X82.36 Y165.9 E43.82783
G1 X81.567 Y165.467 E43.8699
G1 X80.816 Y164.966 E43.91194
G1 X80.112 Y164.4 E43.954
G1 X79.461 Y163.774 E43.99605
G1 X78.868 Y163.093 E44.0381
G1 X78.338 Y162.362 E44.08015
G1 X77.874 Y161.587 E44.12221
G1 X77.48 Y160.774 E44.16427
G1 X77.16 Y159.93 E44.2063
G1 X76.916 Y159.06 E44.24838
G1 X76.75 Y158.172 E44.29044
G1 X76.653 Y157.017 E44.34442
G1 X76.644 Y156.684 E44.35993
G1 X76.64 Y156.408 E44.37278
G1 X76.641 Y78.786 E47.98719
G1 X76.65 Y78.121 E48.01815
G1 X76.702 Y77.219 E48.06022
G1 X76.834 Y76.326 E48.10226
G1 X77.044 Y75.448 E48.14429
G1 X77.331 Y74.591 E48.18638
G1 X77.693 Y73.764 E48.22841
G1 X78.126 Y72.972 E48.27044
G1 X78.628 Y72.221 E48.31251
G1 X79.195 Y71.517 E48.3546
G1 F2700 E43.3546
;MESH:BracketPart1.stl
G0 F6000 X86.175 Y78.67
G0 X87.26 Y78.67
G0 X87.44 Y156.15
;TYPE:WALL-INNER
G1 F2700 E48.3546
G1 F1200 X87.44 Y78.85 E51.95401
G1 X147.56 Y78.85 E54.75345
G1 X147.561 Y155.951 E58.34359
G1 X147.561 Y156.15 E58.35286
G1 X147.362 Y156.15 E58.35886
G1 X87.44 Y156.15 E61.14908
G0 F6000 X87.04 Y156.55
;TYPE:WALL-OUTER
G1 F1200 X87.04 Y78.45 E64.78574
G1 X147.96 Y78.45 E67.62243
G1 X147.961 Y156.55 E71.25909
G1 X87.04 Y156.55 E74.09583
G0 F6000 X87.31 Y156.28
G0 X87.55 Y155.76
G0 X87.83 Y155.76
;TYPE:SKIN
G1 F1200 X87.83 Y79.24 E77.65892
G1 X147.17 Y79.24 E80.42204
G1 X147.171 Y155.76 E83.98513
G1 X87.83 Y155.76 E86.7483
G0 F6000 X88.282 Y155.599
G1 F1200 X87.989 Y155.306 E86.76759
G0 F6000 X87.989 Y154.74
G1 F1200 X88.848 Y155.599 E86.82416
G0 F6000 X89.414 Y155.599
G1 F1200 X87.989 Y154.174 E86.918
G0 F6000 X87.989 Y153.609
G1 F1200 X89.98 Y155.599 E87.04908
G0 F6000 X90.545 Y155.599
G1 F1200 X87.989 Y153.043 E87.21739
G0 F6000 X87.989 Y152.477
G1 F1200 X91.111 Y155.599 E87.42298
G0 F6000 X91.677 Y155.599
G1 F1200 X87.989 Y151.911 E87.66584
G0 F6000 X87.989 Y151.346
G1 F1200 X92.242 Y155.599 E87.94591
G0 F6000 X92.808 Y155.599
G1 F1200 X87.989 Y150.78 E88.26325
G0 F6000 X87.989 Y150.214
G1 F1200 X93.374 Y155.599 E88.61786
G0 F6000 X93.939 Y155.599
G1 F1200 X87.989 Y149.649 E89.00968
G0 F6000 X87.989 Y149.083
G1 F1200 X94.505 Y155.599 E89.43877
G0 F6000 X95.071 Y155.599
G1 F1200 X87.989 Y148.517 E89.90513
G0 F6000 X87.989 Y147.952
G1 F1200 X95.636 Y155.599 E90.4087
G0 F6000 X96.202 Y155.599
G1 F1200 X87.989 Y147.386 E90.94954
G0 F6000 X87.989 Y146.82
G1 F1200 X96.768 Y155.599 E91.52765
G0 F6000 X97.333 Y155.599
G1 F1200 X87.989 Y146.255 E92.14297
G0 F6000 X87.989 Y145.689
G1 F1200 X97.899 Y155.599 E92.79556
G0 F6000 X98.465 Y155.599
G1 F1200 X87.989 Y145.123 E93.48542
G0 F6000 X87.989 Y144.558
G1 F1200 X99.031 Y155.599 E94.21252
G0 F6000 X99.596 Y155.599
G1 F1200 X87.989 Y143.992 E94.97686
G0 F6000 X87.989 Y143.426
G1 F1200 X100.162 Y155.599 E95.77848
G0 F6000 X100.728 Y155.599
G1 F1200 X87.989 Y142.861 E96.61733
G0 F6000 X87.989 Y142.295
G1 F1200 X101.293 Y155.599 E97.49342
G0 F6000 X101.859 Y155.599
G1 F1200 X87.989 Y141.729 E98.40678
G0 F6000 X87.989 Y141.163
G1 F1200 X102.425 Y155.599 E99.35742
G0 F6000 X102.99 Y155.599
G1 F1200 X87.989 Y140.598 E100.34526
G0 F6000 X87.989 Y140.032
G1 F1200 X103.556 Y155.599 E101.37037
G0 F6000 X104.122 Y155.599
G1 F1200 X87.989 Y139.466 E102.43276
G0 F6000 X87.989 Y138.901
G1 F1200 X104.687 Y155.599 E103.53235
G0 F6000 X105.253 Y155.599
G1 F1200 X87.989 Y138.335 E104.66921
G0 F6000 X87.989 Y137.769
G1 F1200 X105.819 Y155.599 E105.84335
G0 F6000 X106.384 Y155.599
G1 F1200 X87.989 Y137.204 E107.05469
G0 F6000 X87.989 Y136.638
G1 F1200 X106.95 Y155.599 E108.30331
G0 F6000 X107.516 Y155.599
G1 F1200 X87.989 Y136.072 E109.58919
G0 F6000 X87.989 Y135.507
G1 F1200 X108.081 Y155.599 E110.91229
G0 F6000 X108.647 Y155.599
G1 F1200 X87.989 Y134.941 E112.27265
G0 F6000 X87.989 Y134.375
G1 F1200 X109.213 Y155.599 E113.67029
G0 F6000 X109.779 Y155.599
G1 F1200 X87.989 Y133.81 E115.10516
G0 F6000 X87.989 Y133.244
G1 F1200 X110.344 Y155.599 E116.57728
G0 F6000 X110.91 Y155.599
G1 F1200 X87.989 Y132.678 E118.08666
G0 F6000 X87.989 Y132.113
G1 F1200 X111.476 Y155.599 E119.63329
G0 F6000 X112.041 Y155.599
G1 F1200 X87.989 Y131.547 E121.21716
G0 F6000 X87.989 Y130.981
G1 F1200 X112.607 Y155.599 E122.83829
G0 F6000 X113.173 Y155.599
G1 F1200 X87.989 Y130.415 E124.4967
G0 F6000 X87.989 Y129.85
G1 F1200 X113.738 Y155.599 E126.19232
G0 F6000 X114.304 Y155.599
G1 F1200 X87.989 Y129.284 E127.92521
G0 F6000 X87.989 Y128.718
G1 F1200 X114.87 Y155.599 E129.69537
G0 F6000 X115.435 Y155.599
G1 F1200 X87.989 Y128.153 E131.50273
G0 F6000 X87.989 Y127.587
G1 F1200 X116.001 Y155.599 E133.34737
G0 F6000 X116.567 Y155.599
G1 F1200 X87.989 Y127.021 E135.22928
G0 F6000 X87.989 Y126.456
G1 F1200 X117.132 Y155.599 E137.1484
G0 F6000 X117.698 Y155.599
G1 F1200 X87.989 Y125.89 E139.10478
G0 F6000 X87.989 Y125.324
G1 F1200 X118.264 Y155.599 E141.09844
G0 F6000 X118.83 Y155.599
G1 F1200 X87.989 Y124.759 E143.12934
G0 F6000 X87.989 Y124.193
G1 F1200 X119.395 Y155.599 E145.19748
G0 F6000 X119.961 Y155.599
G1 F1200 X87.989 Y123.627 E147.30289
G0 F6000 X87.989 Y123.062
G1 F1200 X120.527 Y155.599 E149.44554
G0 F6000 X121.092 Y155.599
G1 F1200 X87.989 Y122.496 E151.62543
G0 F6000 X87.989 Y121.93
G1 F1200 X121.658 Y155.599 E153.84259
G0 F6000 X122.224 Y155.599
G1 F1200 X87.989 Y121.364 E156.09703
G0 F6000 X87.989 Y120.799
G1 F1200 X122.789 Y155.599 E158.38867
G0 F6000 X123.355 Y155.599
G1 F1200 X87.989 Y120.233 E160.71758
G0 F6000 X87.989 Y119.667
G1 F1200 X123.921 Y155.599 E163.08376
G0 F6000 X124.486 Y155.599
G1 F1200 X87.989 Y119.102 E165.48715
G0 F6000 X87.989 Y118.536
G1 F1200 X125.052 Y155.599 E167.92781
G0 F6000 X125.618 Y155.599
G1 F1200 X87.989 Y117.97 E170.40575
G0 F6000 X87.989 Y117.405
G1 F1200 X126.183 Y155.599 E172.92089
G0 F6000 X126.749 Y155.599
G1 F1200 X87.989 Y116.839 E175.4733
G0 F6000 X87.989 Y116.273
G1 F1200 X127.315 Y155.599 E178.06298
G0 F6000 X127.88 Y155.599
G1 F1200 X87.989 Y115.708 E180.68987
G0 F6000 X87.989 Y115.142
G1 F1200 X128.446 Y155.599 E183.35404
G0 F6000 X129.012 Y155.599
G1 F1200 X87.989 Y114.576 E186.05547
G0 F6000 X87.989 Y114.011
G1 F1200 X129.578 Y155.599 E188.79415
G0 F6000 X130.143 Y155.599
G1 F1200 X87.989 Y113.445 E191.57006
G0 F6000 X87.989 Y112.879
G1 F1200 X130.709 Y155.599 E194.38324
G0 F6000 X131.275 Y155.599
G1 F1200 X87.989 Y112.314 E197.23367
G0 F6000 X87.989 Y111.748
G1 F1200 X131.84 Y155.599 E200.12133
G0 F6000 X132.406 Y155.599
G1 F1200 X87.989 Y111.182 E203.04627
G0 F6000 X87.989 Y110.616
G1 F1200 X132.972 Y155.599 E206.00847
G0 F6000 X133.537 Y155.599
G1 F1200 X87.989 Y110.051 E209.00789
G0 F6000 X87.989 Y109.485
G1 F1200 X134.103 Y155.599 E212.04457
G0 F6000 X134.669 Y155.599
G1 F1200 X87.989 Y108.919 E215.11853
G0 F6000 X87.989 Y108.354
G1 F1200 X135.234 Y155.599 E218.22969
G0 F6000 X135.8 Y155.599
G1 F1200 X87.989 Y107.788 E221.37813
G0 F6000 X87.989 Y107.222
G1 F1200 X136.366 Y155.599 E224.56384
G0 F6000 X136.931 Y155.599
G1 F1200 X87.989 Y106.657 E227.78675
G0 F6000 X87.989 Y106.091
G1 F1200 X137.497 Y155.599 E231.04694
G0 F6000 X138.063 Y155.599
G1 F1200 X87.989 Y105.525 E234.3444
G0 F6000 X87.989 Y104.96
G1 F1200 X138.628 Y155.599 E237.67906
G0 F6000 X139.194 Y155.599
G1 F1200 X87.989 Y104.394 E241.051
G0 F6000 X87.989 Y103.828
G1 F1200 X139.76 Y155.599 E244.46021
G0 F6000 X140.326 Y155.599
G1 F1200 X87.989 Y103.263 E247.90665
G0 F6000 X87.989 Y102.697
G1 F1200 X140.891 Y155.599 E251.39034
G0 F6000 X141.457 Y155.599
G1 F1200 X87.989 Y102.131 E254.9113
G0 F6000 X87.989 Y101.565
G1 F1200 X142.023 Y155.599 E258.46953
G0 F6000 X142.588 Y155.599
G1 F1200 X87.989 Y101 E262.06497
G0 F6000 X87.989 Y100.434
G1 F1200 X143.154 Y155.599 E265.69768
G0 F6000 X143.72 Y155.599
