;FLAVOR:Marlin
M73 P0
M73 R104
;TIME:6220
;Filament used: 4.03244m
;Layer height: 0.2
;MINX:67.557
;MINY:75.688
;MINZ:0.2
;MAXX:165.422
;MAXY:173.554
;MAXZ:23
;POSTPROCESSED
;Generated with Cura_SteamEngine 5.0.0
M140 S50
M105
M190 S50
M104 S215
M105
M109 S215
M82 ;absolute extrusion mode
; Ender 3 Custom Start G-code
G92 E0 ; Reset Extruder
G28 ; Home all axes
G1 Z2.0 F3000 ; Move Z Axis up little to prevent scratching of Heat Bed
G1 X0.1 Y20 Z0.3 F5000.0 ; Move to start position
G1 X0.1 Y200.0 Z0.3 F1500.0 E15 ; Draw the first line
G1 X0.4 Y200.0 Z0.3 F5000.0 ; Move to side a little
G1 X0.4 Y20 Z0.3 F1500.0 E30 ; Draw the second line
G92 E0 ; Reset Extruder
G1 Z2.0 F3000 ; Move Z Axis up little to prevent scratching of Heat Bed
G1 X5 Y20 Z0.3 F5000.0 ; Move over to prevent blob squish
G92 E0
G92 E0
G1 F2700 E-5
;LAYER_COUNT:115
;LAYER:0
M107
G0 F6000 X82.965 Y88.971 Z0.2
G0 X77.308 Y95.304
;TYPE:SKIRT
G1 F2700 E0
G1 F1200 X77.541 Y94.995 E0.01287
G1 X78.339 Y93.974 E0.05597
G1 X79.452 Y92.638 E0.11381
G1 X79.706 Y92.346 E0.12668
G1 X80.844 Y91.092 E0.183
G1 X81.75 Y90.153 E0.2264
G1 X82.028 Y89.875 E0.23948
G1 X82.965 Y88.971 E0.28278
G1 X84.262 Y87.796 E0.34099
G1 X84.544 Y87.55 E0.35344
G1 X85.524 Y86.727 E0.396
G1 X86.9 Y85.643 E0.45426
G1 X87.212 Y85.408 E0.46725
G1 X88.26 Y84.647 E0.51033
G1 X88.58 Y84.423 E0.52332
G1 X89.703 Y83.667 E0.56835
G1 X91.121 Y82.774 E0.62408
G1 X91.447 Y82.578 E0.63674
G1 X92.916 Y81.737 E0.69304
G1 X94.147 Y81.082 E0.73941
G1 X94.494 Y80.905 E0.75237
G1 X95.606 Y80.363 E0.79351
G1 X95.954 Y80.201 E0.80628
G1 X97.217 Y79.639 E0.85226
G1 X98.755 Y79.011 E0.90751
G1 X99.108 Y78.875 E0.9201
G1 X100.39 Y78.408 E0.96548
G1 X100.763 Y78.28 E0.97859
G1 X102 Y77.879 E1.02184
G1 X103.658 Y77.397 E1.07927
G1 X104.034 Y77.296 E1.09222
G1 X105.63 Y76.905 E1.14687
G1 X106.987 Y76.616 E1.19302
G1 X107.374 Y76.541 E1.20613
G1 X108.654 Y76.316 E1.24936
G1 X110.341 Y76.072 E1.30605
G1 X110.729 Y76.024 E1.31905
G1 X112.035 Y75.887 E1.36273
G1 X113.739 Y75.761 E1.41956
G1 X114.132 Y75.74 E1.43265
G1 X115.473 Y75.694 E1.47728
G1 X115.858 Y75.688 E1.49008
G1 X117.536 Y75.695 E1.5459
G1 X118.848 Y75.74 E1.58956
G1 X120.58 Y75.855 E1.64729
G1 X120.965 Y75.889 E1.66015
G1 X122.666 Y76.075 E1.71706
G1 X123.961 Y76.258 E1.76056
G1 X125.671 Y76.554 E1.81828
G1 X126.048 Y76.627 E1.83105
G1 X127.689 Y76.983 E1.8869
G1 X128.999 Y77.311 E1.93182
G1 X130.617 Y77.768 E1.98774
G1 X131.004 Y77.886 E2.00119
G1 X132.267 Y78.298 E2.04538
G1 X133.854 Y78.869 E2.10148
G1 X134.225 Y79.011 E2.11469
G1 X135.814 Y79.661 E2.17179
G1 X137.008 Y80.193 E2.21527
G1 X137.359 Y80.357 E2.22815
G1 X138.528 Y80.928 E2.27142
G1 X140.067 Y81.739 E2.32928
G1 X140.41 Y81.929 E2.34233
G1 X141.536 Y82.58 E2.38558
G1 X143.009 Y83.493 E2.44322
G1 X143.333 Y83.703 E2.45607
G1 X144.7 Y84.633 E2.51106
G1 X145.793 Y85.427 E2.55599
G1 X147.182 Y86.505 E2.61447
G1 X147.482 Y86.748 E2.62731
G1 X148.724 Y87.8 E2.68145
G1 X149.74 Y88.715 E2.72692
G1 X150.021 Y88.977 E2.7397
G1 X150.962 Y89.886 E2.78322
G1 X151.232 Y90.156 E2.79592
G1 X152.135 Y91.091 E2.83915
G1 X152.401 Y91.376 E2.85212
G1 X153.315 Y92.392 E2.89757
G1 X154.383 Y93.655 E2.95258
G1 X154.624 Y93.952 E2.9653
G1 X155.467 Y95.03 E3.01082
G1 X155.704 Y95.344 E3.02391
G1 X156.686 Y96.708 E3.07981
G1 X157.443 Y97.832 E3.12488
G1 X158.337 Y99.252 E3.18069
G1 X158.532 Y99.576 E3.19327
G1 X159.188 Y100.711 E3.23687
G1 X160.03 Y102.281 E3.29612
G1 X160.206 Y102.625 E3.30897
G1 X160.748 Y103.737 E3.35012
G1 X160.912 Y104.089 E3.36303
G1 X161.473 Y105.351 E3.40897
G1 X162.103 Y106.893 E3.46437
G1 X162.239 Y107.246 E3.47695
G1 X162.698 Y108.504 E3.52149
G1 X162.829 Y108.885 E3.53489
G1 X163.347 Y110.504 E3.59143
G1 X163.712 Y111.775 E3.63541
G1 X163.813 Y112.153 E3.64843
G1 X164.202 Y113.741 E3.70281
G1 X164.496 Y115.119 E3.74967
G1 X164.573 Y115.517 E3.76315
G1 X164.853 Y117.153 E3.81836
G1 X165.087 Y118.857 E3.87556
G1 X165.224 Y120.159 E3.91911
G1 X165.35 Y121.873 E3.97627
G1 X165.371 Y122.263 E3.98926
G1 X165.417 Y123.604 E4.03389
G1 X165.422 Y125.297 E4.0902
G1 X165.416 Y125.666 E4.10247
G1 X165.371 Y126.979 E4.14617
G1 X165.257 Y128.7 E4.20353
G1 X165.223 Y129.093 E4.21665
G1 X165.084 Y130.405 E4.26054
G1 X165.037 Y130.786 E4.2733
G1 X164.788 Y132.501 E4.33094
G1 X164.562 Y133.782 E4.37421
G1 X164.216 Y135.439 E4.43051
G1 X164.13 Y135.811 E4.44321
G1 X163.807 Y137.106 E4.4876
G1 X163.33 Y138.79 E4.54581
G1 X163.217 Y139.16 E4.55868
G1 X162.693 Y140.749 E4.61433
G1 X162.245 Y141.979 E4.65787
G1 X161.6 Y143.591 E4.71562
G1 X160.916 Y145.141 E4.77197
G1 X160.756 Y145.485 E4.78459
G1 X160.014 Y146.991 E4.84042
G1 X159.375 Y148.194 E4.88573
G1 X159.184 Y148.538 E4.89882
G1 X158.531 Y149.668 E4.94223
G1 X157.6 Y151.167 E5.00092
G1 X157.398 Y151.479 E5.01328
G1 X156.486 Y152.82 E5.06722
G1 X155.671 Y153.942 E5.11334
G1 X154.633 Y155.278 E5.16961
G1 X154.399 Y155.568 E5.18201
G1 X153.553 Y156.576 E5.22578
G1 X152.378 Y157.891 E5.28443
G1 X152.113 Y158.175 E5.29735
G1 X151.236 Y159.083 E5.33934
G1 X149.98 Y160.303 E5.39757
G1 X149.704 Y160.561 E5.41014
G1 X148.753 Y161.417 E5.4527
G1 X147.426 Y162.539 E5.51049
G1 X147.124 Y162.784 E5.52343
G1 X145.793 Y163.815 E5.57942
G1 X144.701 Y164.608 E5.62431
G1 X143.309 Y165.555 E5.68031
G1 X142.975 Y165.772 E5.69356
G1 X141.856 Y166.47 E5.73742
G1 X140.4 Y167.318 E5.79346
G1 X140.064 Y167.505 E5.80625
G1 X138.833 Y168.16 E5.85263
G1 X138.486 Y168.337 E5.86559
G1 X137.374 Y168.879 E5.90673
G1 X137.026 Y169.041 E5.9195
G1 X135.41 Y169.753 E5.97823
G1 X133.863 Y170.371 E6.03364
G1 X132.604 Y170.83 E6.07821
G1 X132.225 Y170.96 E6.09154
G1 X130.959 Y171.37 E6.1358
G1 X129.352 Y171.837 E6.19146
G1 X128.975 Y171.938 E6.20444
G1 X127.312 Y172.345 E6.26138
G1 X126.032 Y172.618 E6.30491
G1 X125.647 Y172.693 E6.31796
G1 X124.325 Y172.926 E6.36261
G1 X123.946 Y172.986 E6.37537
G1 X122.629 Y173.171 E6.4196
G1 X122.245 Y173.218 E6.43247
G1 X120.552 Y173.389 E6.48907
G1 X119.284 Y173.478 E6.53134
G1 X118.897 Y173.498 E6.54423
G1 X117.49 Y173.547 E6.59106
G1 X117.098 Y173.554 E6.6041
G1 X115.834 Y173.553 E6.64614
G1 X114.088 Y173.498 E6.70424
G1 X112.447 Y173.39 E6.75894
G1 X112.062 Y173.357 E6.77179
G1 X110.674 Y173.211 E6.81821
G1 X109.005 Y172.982 E6.87424
G1 X108.621 Y172.921 E6.88717
G1 X107.291 Y172.685 E6.9321
G1 X105.693 Y172.351 E6.9864
G1 X105.319 Y172.265 E6.99916
G1 X103.629 Y171.837 E7.05715
G1 X102.358 Y171.473 E7.10112
G1 X101.976 Y171.356 E7.11441
G1 X100.713 Y170.944 E7.15859
G1 X99.126 Y170.373 E7.21469
G1 X98.755 Y170.231 E7.2279
G1 X97.166 Y169.581 E7.285
G1 X95.972 Y169.049 E7.32848
G1 X95.621 Y168.885 E7.34136
G1 X94.452 Y168.314 E7.38464
G1 X92.913 Y167.503 E7.4425
G1 X92.572 Y167.314 E7.45546
G1 X91.442 Y166.661 E7.49887
G1 X89.965 Y165.745 E7.55668
G1 X89.634 Y165.53 E7.5698
G1 X88.284 Y164.61 E7.62414
G1 X87.173 Y163.803 E7.66981
G1 X86.864 Y163.57 E7.68268
G1 X85.843 Y162.772 E7.72578
G1 X84.508 Y161.66 E7.78357
G1 X84.214 Y161.405 E7.79652
G1 X83.257 Y160.543 E7.83936
G1 X82.974 Y160.279 E7.85223
G1 X81.746 Y159.083 E7.90924
G1 X80.814 Y158.118 E7.95386
G1 X80.55 Y157.835 E7.96673
G1 X79.445 Y156.598 E8.0219
G1 X78.582 Y155.57 E8.06654
G1 X77.535 Y154.24 E8.12284
G1 X77.306 Y153.937 E8.13548
G1 X76.489 Y152.813 E8.18169
G1 X75.55 Y151.43 E8.23729
G1 X75.341 Y151.109 E8.25003
G1 X74.451 Y149.671 E8.30628
G1 X73.793 Y148.533 E8.35
G1 X72.95 Y146.961 E8.40933
G1 X72.774 Y146.617 E8.42218
G1 X72.232 Y145.505 E8.46333
G1 X71.507 Y143.89 E8.52221
G1 X71.359 Y143.542 E8.53478
G1 X70.744 Y142.003 E8.58991
G1 X70.277 Y140.721 E8.63529
G1 X69.749 Y139.115 E8.69151
G1 X69.637 Y138.748 E8.70428
G1 X69.166 Y137.08 E8.76192
G1 X68.77 Y135.468 E8.81713
G1 X68.488 Y134.141 E8.86226
G1 X68.185 Y132.456 E8.9192
G1 X67.941 Y130.77 E8.97586
G1 X67.893 Y130.381 E8.98889
G1 X67.72 Y128.668 E9.04616
G1 X67.633 Y127.412 E9.08803
G1 X67.564 Y125.589 E9.14871
G1 X67.557 Y125.208 E9.16139
G1 X67.557 Y124.014 E9.2011
G1 X67.613 Y122.216 E9.26093
G1 X67.633 Y121.824 E9.27398
G1 X67.754 Y120.196 E9.32828
G1 X67.9 Y118.806 E9.37477
G1 X67.948 Y118.416 E9.38784
G1 X68.129 Y117.135 E9.43086
G1 X68.426 Y115.423 E9.48866
G1 X68.76 Y113.823 E9.54302
G1 X68.845 Y113.453 E9.55565
G1 X69.174 Y112.132 E9.60093
G1 X69.275 Y111.756 E9.61387
G1 X69.64 Y110.484 E9.65789
G1 X69.755 Y110.109 E9.67093
G1 X70.288 Y108.494 E9.7275
G1 X70.739 Y107.254 E9.77139
G1 X70.879 Y106.889 E9.78439
G1 X71.381 Y105.648 E9.82891
G1 X71.533 Y105.29 E9.84185
G1 X72.224 Y103.757 E9.89778
G1 X72.966 Y102.251 E9.95362
G1 X73.605 Y101.048 E9.99892
G1 X73.796 Y100.704 E10.01201
G1 X74.647 Y99.244 E10.06822
G1 X75.367 Y98.093 E10.11337
G1 X76.289 Y96.718 E10.16843
G1 X76.501 Y96.415 E10.18073
G1 X77.308 Y95.304 E10.22641
G1 F2700 E5.22641
G0 F6000 X73.959 Y101.236
G1 F2700 E10.22641
G1 F1200 X74.142 Y100.904 E10.23901
G1 X74.795 Y99.774 E10.28242
G1 X75.706 Y98.306 E10.33989
G1 X75.912 Y97.989 E10.35246
G1 X76.825 Y96.65 E10.40636
G1 X77.856 Y95.241 E10.46443
G1 X78.654 Y94.22 E10.50753
G1 X79.759 Y92.895 E10.56492
G1 X80.003 Y92.614 E10.57729
G1 X81.132 Y91.37 E10.63317
G1 X82.038 Y90.431 E10.67657
G1 X82.306 Y90.163 E10.68917
G1 X83.514 Y89.006 E10.74481
G1 X84.801 Y87.857 E10.80219
G1 X86.069 Y86.8 E10.8571
G1 X87.146 Y85.958 E10.90256
G1 X88.495 Y84.971 E10.95816
G1 X88.803 Y84.755 E10.97067
G1 X90.23 Y83.802 E11.02774
G1 X91.647 Y82.924 E11.08319
G1 X92.781 Y82.269 E11.12674
G1 X94.335 Y81.435 E11.1854
G1 X95.782 Y80.723 E11.23904
G1 X96.117 Y80.566 E11.25135
G1 X97.38 Y80.004 E11.29733
G1 X98.905 Y79.382 E11.3521
G1 X99.245 Y79.251 E11.36422
G1 X100.527 Y78.784 E11.4096
G1 X102.123 Y78.26 E11.46547
G1 X102.469 Y78.154 E11.47751
G1 X103.769 Y77.781 E11.52249
G1 X104.131 Y77.684 E11.53496
G1 X105.36 Y77.378 E11.57708
G1 X107.07 Y77.008 E11.63527
G1 X107.443 Y76.935 E11.64792
G1 X109.078 Y76.654 E11.70309
G1 X110.397 Y76.468 E11.7474
G1 X110.771 Y76.422 E11.75993
G1 X112.441 Y76.253 E11.81576
G1 X113.767 Y76.16 E11.85997
G1 X114.146 Y76.14 E11.87259
G1 X115.487 Y76.094 E11.91722
G1 X115.858 Y76.088 E11.92956
G1 X117.522 Y76.095 E11.98491
G1 X118.834 Y76.14 E12.02857
G1 X119.213 Y76.16 E12.04119
G1 X120.552 Y76.254 E12.08584
G1 X122.24 Y76.426 E12.14227
G1 X122.61 Y76.471 E12.15467
G1 X123.905 Y76.654 E12.19817
G1 X125.602 Y76.948 E12.25545
G1 X125.965 Y77.018 E12.26775
G1 X127.592 Y77.371 E12.32312
G1 X129.241 Y77.79 E12.37971
G1 X130.507 Y78.152 E12.4235
G1 X132.143 Y78.679 E12.48067
G1 X132.477 Y78.793 E12.49241
G1 X133.718 Y79.244 E12.53633
G1 X135.315 Y79.884 E12.59355
G1 X136.845 Y80.559 E12.64917
G1 X137.183 Y80.716 E12.66157
G1 X138.675 Y81.452 E12.7169
G1 X140.21 Y82.275 E12.77483
G1 X141.336 Y82.926 E12.81809
G1 X142.797 Y83.832 E12.87527
G1 X143.109 Y84.034 E12.88763
G1 X144.163 Y84.745 E12.92992
G1 X145.558 Y85.751 E12.98712
G1 X145.858 Y85.977 E12.99961
G1 X146.936 Y86.82 E13.04513
G1 X148.181 Y87.858 E13.09904
G1 X148.457 Y88.097 E13.11118
G1 X149.473 Y89.012 E13.15666
G1 X150.685 Y90.174 E13.21251
G1 X151.848 Y91.369 E13.26797
G1 X153.017 Y92.66 E13.32589
G1 X153.255 Y92.933 E13.33794
G1 X154.309 Y94.198 E13.3927
G1 X155.152 Y95.276 E13.43822
G1 X156.14 Y96.626 E13.49386
G1 X156.354 Y96.932 E13.50628
G1 X157.309 Y98.361 E13.56345
G1 X157.998 Y99.464 E13.6067
G1 X158.841 Y100.911 E13.6624
G1 X159.023 Y101.239 E13.67488
G1 X159.677 Y102.469 E13.72121
G1 X160.388 Y103.913 E13.77474
G1 X160.546 Y104.251 E13.78715
G1 X161.248 Y105.845 E13.84508
G1 X161.863 Y107.383 E13.90018
G1 X162.322 Y108.641 E13.94472
G1 X162.448 Y109.008 E13.95762
G1 X162.962 Y110.614 E14.01371
G1 X163.425 Y112.25 E14.07026
G1 X163.811 Y113.824 E14.12416
G1 X164.105 Y115.202 E14.17102
G1 X164.179 Y115.586 E14.18403
G1 X164.457 Y117.209 E14.2388
G1 X164.689 Y118.899 E14.29553
G1 X164.826 Y120.201 E14.33908
G1 X164.951 Y121.901 E14.39577
G1 X164.971 Y122.277 E14.4083
G1 X165.017 Y123.618 E14.45292
G1 X165.022 Y125.297 E14.50877
G1 X164.971 Y126.965 E14.56427
G1 X164.858 Y128.672 E14.62117
G1 X164.825 Y129.051 E14.63383
G1 X164.641 Y130.73 E14.69
G1 X164.394 Y132.432 E14.74721
G1 X164.097 Y134.078 E14.80284
G1 X163.825 Y135.356 E14.84629
G1 X163.419 Y137.009 E14.90291
G1 X162.946 Y138.679 E14.96064
G1 X162.837 Y139.036 E14.97305
G1 X162.317 Y140.612 E15.02825
G1 X161.869 Y141.842 E15.07179
G1 X161.229 Y143.441 E15.12907
G1 X161.083 Y143.785 E15.1415
G1 X160.396 Y145.31 E15.19713
G1 X159.825 Y146.48 E15.24043
G1 X159.021 Y148.006 E15.2978
G1 X158.838 Y148.338 E15.31041
G1 X158.185 Y149.468 E15.35382
G1 X157.261 Y150.955 E15.41205
G1 X156.375 Y152.28 E15.46506
G1 X156.162 Y152.585 E15.47744
G1 X155.347 Y153.707 E15.52356
G1 X155.116 Y154.013 E15.53631
G1 X154.318 Y155.032 E15.57936
G1 X153.246 Y156.318 E15.63504
G1 X153.006 Y156.595 E15.64723
G1 X152.08 Y157.624 E15.69328
G1 X150.948 Y158.805 E15.74769
G1 X150.682 Y159.071 E15.7602
G1 X149.436 Y160.264 E15.81757
G1 X148.485 Y161.12 E15.86013
G1 X147.169 Y162.232 E15.91743
G1 X146.878 Y162.468 E15.9299
G1 X145.558 Y163.491 E15.98544
G1 X144.169 Y164.492 E16.04239
G1 X143.085 Y165.224 E16.08589
G1 X142.763 Y165.433 E16.09866
G1 X141.337 Y166.315 E16.15443
G1 X139.876 Y167.152 E16.21043
G1 X138.645 Y167.807 E16.25681
G1 X137.198 Y168.519 E16.31045
G1 X136.863 Y168.676 E16.32275
G1 X135.6 Y169.238 E16.36873
G1 X134.064 Y169.865 E16.42391
G1 X132.467 Y170.454 E16.48052
G1 X130.836 Y170.989 E16.53761
G1 X130.491 Y171.095 E16.54962
G1 X129.242 Y171.453 E16.59283
G1 X128.879 Y171.55 E16.60533
G1 X127.229 Y171.954 E16.66183
G1 X125.949 Y172.227 E16.70536
G1 X124.256 Y172.532 E16.76258
G1 X123.891 Y172.59 E16.77487
G1 X122.574 Y172.775 E16.8191
G1 X120.887 Y172.958 E16.87554
G1 X119.256 Y173.079 E16.92994
G1 X118.883 Y173.099 E16.94236
G1 X117.476 Y173.148 E16.98919
G1 X115.835 Y173.153 E17.04377
G1 X114.102 Y173.098 E17.10144
G1 X113.734 Y173.079 E17.11369
G1 X112.104 Y172.959 E17.16805
G1 X110.716 Y172.813 E17.21447
G1 X110.343 Y172.767 E17.22697
G1 X109.061 Y172.586 E17.27003
G1 X108.691 Y172.527 E17.2825
G1 X107.008 Y172.222 E17.33939
G1 X105.416 Y171.877 E17.39356
G1 X104.093 Y171.547 E17.43892
G1 X102.469 Y171.088 E17.49505
G1 X102.1 Y170.975 E17.50788
G1 X100.503 Y170.449 E17.56381
G1 X99.262 Y169.998 E17.60772
G1 X97.665 Y169.358 E17.66495
G1 X96.135 Y168.683 E17.72057
G1 X95.797 Y168.526 E17.73296
G1 X94.305 Y167.79 E17.78829
G1 X92.772 Y166.968 E17.84615
G1 X91.642 Y166.315 E17.88956
G1 X90.177 Y165.406 E17.9469
G1 X89.858 Y165.199 E17.95955
G1 X88.519 Y164.286 E18.01345
G1 X87.11 Y163.255 E18.07152
G1 X86.089 Y162.457 E18.11462
G1 X84.765 Y161.354 E18.17194
G1 X84.482 Y161.108 E18.18441
G1 X83.525 Y160.246 E18.22725
G1 X82.291 Y159.062 E18.28413
G1 X82.033 Y158.805 E18.29624
G1 X81.101 Y157.84 E18.34086
G1 X79.991 Y156.616 E18.39582
G1 X78.889 Y155.312 E18.4526
G1 X78.653 Y155.022 E18.46504
G1 X77.85 Y153.994 E18.50843
G1 X76.813 Y152.577 E18.56683
G1 X76.595 Y152.267 E18.57943
G1 X75.881 Y151.207 E18.62194
G1 X74.982 Y149.777 E18.67812
G1 X74.14 Y148.333 E18.73372
G1 X73.957 Y148.003 E18.74627
G1 X73.303 Y146.773 E18.7926
G1 X72.592 Y145.329 E18.84613
G1 X72.434 Y144.991 E18.85854
G1 X71.73 Y143.392 E18.91665
G1 X71.12 Y141.866 E18.97131
G1 X70.653 Y140.584 E19.01669
G1 X70.53 Y140.227 E19.02925
G1 X70.129 Y138.991 E19.07247
G1 X69.648 Y137.332 E19.12992
G1 X69.554 Y136.983 E19.14194
G1 X69.246 Y135.75 E19.18421
G1 X68.88 Y134.057 E19.24182
G1 X68.809 Y133.692 E19.25419
G1 X68.522 Y132.027 E19.31039
G1 X68.337 Y130.714 E19.35449
G1 X68.291 Y130.339 E19.36705
G1 X68.119 Y128.64 E19.42385
G1 X68.013 Y127.019 E19.47788
