;FLAVOR:Marlin
M73 P0
M73 R264
;TIME:15844
;Filament used: 10.8809m
;Layer height: 0.2
;MINX:57.95
;MINY:67.252
;MINZ:0.2
;MAXX:170.949
;MAXY:163.225
;MAXZ:27
;POSTPROCESSED
;Generated with Cura_SteamEngine 4.9.1
M140 S50
M105
M190 S50
M104 S215
M105
M109 S215
M82 ;absolute extrusion mode
; Ender 3 Custom Start G-code
G92 E0 ; Reset Extruder
G28 ; Home all axes
G1 Z2.0 F3000 ; Move Z Axis up little to prevent scratching of Heat Bed
G1 X0.1 Y20 Z0.3 F5000.0 ; Move to start position
G1 X0.1 Y200.0 Z0.3 F1500.0 E15 ; Draw the first line
G1 X0.4 Y200.0 Z0.3 F5000.0 ; Move to side a little
G1 X0.4 Y20 Z0.3 F1500.0 E30 ; Draw the second line
G92 E0 ; Reset Extruder
G1 Z2.0 F3000 ; Move Z Axis up little to prevent scratching of Heat Bed
G1 X5 Y20 Z0.3 F5000.0 ; Move over to prevent blob squish
G92 E0
G92 E0
G1 F2700 E-5
;LAYER_COUNT:135
;LAYER:0
M107
G0 F6000 X62.164 Y70.705 Z0.2
;TYPE:SKIRT
G1 F2700 E0
G1 F1200 X63.119 Y69.903 E0.04148
G1 X63.282 Y69.781 E0.04825
G1 X64.056 Y69.251 E0.07945
G1 X64.464 Y69.009 E0.09523
G1 X64.719 Y68.865 E0.10497
G1 X65.555 Y68.439 E0.13618
G1 X66.153 Y68.186 E0.15777
G1 X66.411 Y68.086 E0.16698
G1 X67.718 Y67.671 E0.21258
G1 X67.802 Y67.65 E0.21546
G1 X68.927 Y67.431 E0.25358
G1 X69.301 Y67.378 E0.26615
G1 X70.082 Y67.295 E0.29227
G1 X70.702 Y67.268 E0.31291
G1 X71.725 Y67.252 E0.34694
G1 X157.285 Y67.252 E3.19268
G1 X158.171 Y67.263 E3.22215
G1 X159.213 Y67.327 E3.25687
G1 X159.461 Y67.354 E3.26517
G1 X160.462 Y67.51 E3.29886
G1 X160.521 Y67.522 E3.30087
G1 X161.599 Y67.798 E3.33788
G1 X161.872 Y67.883 E3.34739
G1 X162.755 Y68.2 E3.37859
G1 X163.228 Y68.406 E3.39575
G1 X163.502 Y68.533 E3.40579
G1 X164.32 Y68.955 E3.43641
G1 X164.478 Y69.045 E3.44246
G1 X165.273 Y69.543 E3.47366
G1 X165.702 Y69.854 E3.49128
G1 X165.929 Y70.027 E3.50077
G1 X166.65 Y70.627 E3.53197
G1 X167.17 Y71.131 E3.55606
G1 X167.373 Y71.341 E3.56577
G1 X167.995 Y72.042 E3.59694
G1 X168.671 Y72.966 E3.63502
G1 X168.824 Y73.2 E3.64432
G1 X169.073 Y73.599 E3.65996
G1 X169.158 Y73.742 E3.6655
G1 X169.781 Y74.956 E3.71088
G1 X169.903 Y75.235 E3.72101
G1 X170.241 Y76.108 E3.75215
G1 X170.279 Y76.22 E3.75608
G1 X170.542 Y77.12 E3.78727
G1 X170.722 Y78.003 E3.81724
G1 X170.796 Y78.462 E3.8327
G1 X170.926 Y79.747 E3.87566
G1 X170.933 Y79.912 E3.88115
G1 X170.941 Y80.193 E3.8905
G1 X170.949 Y80.735 E3.90853
G1 X170.947 Y149.717 E6.20288
G1 X170.941 Y150.167 E6.21785
G1 X170.93 Y150.536 E6.23013
G1 X170.91 Y150.962 E6.24431
G1 X170.825 Y151.904 E6.27577
G1 X170.802 Y152.076 E6.28154
G1 X170.638 Y152.999 E6.31272
G1 X170.526 Y153.458 E6.32844
G1 X170.464 Y153.69 E6.33642
G1 X170.184 Y154.585 E6.36761
G1 X169.995 Y155.071 E6.38496
G1 X169.904 Y155.29 E6.39285
G1 X169.341 Y156.449 E6.4357
G1 X169.207 Y156.688 E6.44482
G1 X168.714 Y157.485 E6.47598
G1 X168.319 Y158.031 E6.4984
G1 X168.136 Y158.268 E6.50836
G1 X167.531 Y158.985 E6.53956
G1 X167.186 Y159.345 E6.55615
G1 X167.004 Y159.526 E6.56468
G1 X166.311 Y160.158 E6.59588
G1 X165.758 Y160.592 E6.61926
G1 X165.566 Y160.733 E6.62718
G1 X164.901 Y161.185 E6.65392
G1 X164.74 Y161.286 E6.66025
G1 X163.753 Y161.837 E6.69784
G1 X163.556 Y161.934 E6.70515
G1 X162.698 Y162.312 E6.73633
G1 X162.004 Y162.556 E6.7608
G1 X161.728 Y162.643 E6.77042
G1 X160.413 Y162.97 E6.81549
G1 X160.174 Y163.014 E6.82357
G1 X159.126 Y163.155 E6.85875
G1 X158.859 Y163.178 E6.86766
G1 X158.047 Y163.218 E6.8947
G1 X157.416 Y163.225 E6.91569
G1 X71.41 Y163.223 E9.77626
G1 X70.724 Y163.213 E9.79908
G1 X70.071 Y163.184 E9.82082
G1 X69.963 Y163.176 E9.82442
G1 X69.122 Y163.081 E9.85257
G1 X68.905 Y163.048 E9.85987
G1 X67.985 Y162.868 E9.89105
G1 X67.306 Y162.681 E9.91447
G1 X66.983 Y162.581 E9.92572
G1 X66.099 Y162.266 E9.95693
G1 X65.475 Y161.989 E9.97964
G1 X65.148 Y161.832 E9.9917
G1 X64.321 Y161.391 E10.02288
G1 X63.623 Y160.943 E10.05046
G1 X63.488 Y160.849 E10.05593
G1 X62.645 Y160.199 E10.09134
G1 X62.484 Y160.062 E10.09837
G1 X61.711 Y159.337 E10.13362
G1 X61.527 Y159.147 E10.14242
G1 X60.851 Y158.381 E10.1764
G1 X60.737 Y158.239 E10.18245
G1 X60.182 Y157.484 E10.21362
G1 X59.78 Y156.839 E10.2389
G1 X59.654 Y156.62 E10.2473
G1 X59.187 Y155.711 E10.28129
G1 X59.079 Y155.475 E10.28992
G1 X58.725 Y154.607 E10.3211
G1 X58.572 Y154.149 E10.33716
G1 X58.529 Y154.01 E10.342
G1 X58.286 Y153.083 E10.37388
G1 X58.227 Y152.81 E10.38316
G1 X58.028 Y151.519 E10.42661
G1 X58.023 Y151.466 E10.42838
G1 X57.976 Y150.649 E10.4556
G1 X57.953 Y149.48 E10.49449
G1 X57.951 Y149.264 E10.50167
G1 X57.95 Y80.79 E12.77913
G1 X57.955 Y80.318 E12.79483
G1 X57.975 Y79.762 E12.81333
G1 X57.998 Y79.387 E12.82583
G1 X58.127 Y78.252 E12.86382
G1 X58.221 Y77.745 E12.88097
G1 X58.274 Y77.494 E12.8895
G1 X58.509 Y76.581 E12.92086
G1 X58.555 Y76.429 E12.92614
G1 X59.038 Y75.131 E12.97221
G1 X59.167 Y74.842 E12.98273
G1 X59.742 Y73.73 E13.02437
G1 X59.872 Y73.51 E13.03287
G1 X60.383 Y72.724 E13.06405
G1 X60.814 Y72.158 E13.08771
G1 X60.99 Y71.942 E13.09698
G1 X61.613 Y71.24 E13.1282
G1 X61.972 Y70.886 E13.14497
G1 X62.164 Y70.705 E13.15374
G0 F6000 X62.439 Y70.996
G1 F1200 X63.358 Y70.223 E13.19368
G1 X63.521 Y70.101 E13.20045
G1 X64.661 Y69.357 E13.24573
G1 X64.916 Y69.213 E13.25547
G1 X65.736 Y68.796 E13.28607
G1 X66.297 Y68.559 E13.30632
G1 X66.555 Y68.459 E13.31553
G1 X67.815 Y68.059 E13.3595
G1 X67.899 Y68.038 E13.36238
G1 X68.983 Y67.827 E13.39911
G1 X69.357 Y67.774 E13.41167
G1 X70.111 Y67.694 E13.43689
G1 X70.708 Y67.667 E13.45677
G1 X71.548 Y67.653 E13.48471
G1 X157.285 Y67.652 E16.33633
G1 X158.166 Y67.663 E16.36564
G1 X159.169 Y67.724 E16.39906
G1 X159.417 Y67.751 E16.40736
G1 X160.383 Y67.902 E16.43988
G1 X160.442 Y67.914 E16.44188
G1 X161.48 Y68.18 E16.47752
G1 X161.753 Y68.265 E16.48703
G1 X162.619 Y68.577 E16.51764
G1 X163.06 Y68.769 E16.53364
G1 X163.334 Y68.896 E16.54369
G1 X164.123 Y69.302 E16.5732
G1 X164.281 Y69.392 E16.57925
G1 X165.06 Y69.882 E16.60986
G1 X165.459 Y70.172 E16.62626
G1 X165.686 Y70.345 E16.63575
G1 X166.393 Y70.935 E16.66638
G1 X166.882 Y71.409 E16.68903
G1 X167.085 Y71.619 E16.69875
G1 X167.696 Y72.308 E16.72938
G1 X168.336 Y73.185 E16.76549
G1 X168.489 Y73.419 E16.77478
G1 X168.729 Y73.804 E16.78987
G1 X168.814 Y73.947 E16.79541
G1 X169.414 Y75.116 E16.83911
G1 X169.536 Y75.395 E16.84924
G1 X169.862 Y76.236 E16.87924
G1 X169.9 Y76.348 E16.88317
G1 X170.158 Y77.232 E16.9138
G1 X170.327 Y78.067 E16.94214
G1 X170.401 Y78.526 E16.9576
G1 X170.526 Y79.764 E16.99898
G1 X170.542 Y80.2 E17.0135
G1 X170.549 Y80.735 E17.03129
G1 X170.547 Y149.711 E19.32544
G1 X170.541 Y150.161 E19.34041
G1 X170.53 Y150.517 E19.35226
G1 X170.51 Y150.943 E19.36644
G1 X170.428 Y151.851 E19.39676
G1 X170.405 Y152.023 E19.40254
G1 X170.14 Y153.355 E19.44771
G1 X170.078 Y153.587 E19.45569
G1 X169.802 Y154.465 E19.48631
G1 X169.626 Y154.917 E19.50244
G1 X169.535 Y155.136 E19.51033
G1 X168.992 Y156.253 E19.55164
G1 X168.858 Y156.492 E19.56075
G1 X168.373 Y157.275 E19.59138
G1 X168.002 Y157.786 E19.61239
G1 X167.819 Y158.023 E19.62234
G1 X167.225 Y158.727 E19.65298
G1 X166.904 Y159.061 E19.66839
G1 X166.722 Y159.242 E19.67693
G1 X166.041 Y159.862 E19.70756
G1 X165.521 Y160.27 E19.72954
G1 X165.329 Y160.411 E19.73746
G1 X164.688 Y160.846 E19.76323
G1 X164.527 Y160.947 E19.76955
G1 X163.576 Y161.478 E19.80578
G1 X163.379 Y161.575 E19.81308
G1 X162.537 Y161.945 E19.84367
G1 X161.884 Y162.175 E19.8667
G1 X161.608 Y162.262 E19.87632
G1 X160.34 Y162.577 E19.91978
G1 X160.101 Y162.621 E19.92786
G1 X159.092 Y162.757 E19.96172
G1 X158.825 Y162.78 E19.97064
G1 X158.042 Y162.818 E19.99671
G1 X157.416 Y162.825 E20.01753
G1 X71.415 Y162.823 E22.87794
G1 X70.729 Y162.813 E22.90076
G1 X70.101 Y162.785 E22.92166
G1 X69.993 Y162.777 E22.92527
G1 X69.182 Y162.686 E22.95241
G1 X68.965 Y162.653 E22.95971
G1 X68.062 Y162.475 E22.99032
G1 X67.424 Y162.299 E23.01233
G1 X67.101 Y162.199 E23.02358
G1 X66.234 Y161.889 E23.0542
G1 X65.648 Y161.629 E23.07553
G1 X65.321 Y161.472 E23.08759
G1 X64.509 Y161.038 E23.11821
G1 X63.852 Y160.615 E23.1442
G1 X63.717 Y160.521 E23.14968
G1 X62.905 Y159.895 E23.18378
G1 X62.744 Y159.758 E23.19081
G1 X61.998 Y159.059 E23.22481
G1 X61.814 Y158.869 E23.23361
G1 X61.163 Y158.131 E23.26634
G1 X61.049 Y157.989 E23.2724
G1 X60.505 Y157.247 E23.303
G1 X60.127 Y156.639 E23.32681
G1 X60.001 Y156.42 E23.33521
G1 X59.55 Y155.545 E23.36795
G1 X59.442 Y155.309 E23.37658
G1 X58.954 Y154.031 E23.42208
G1 X58.911 Y153.892 E23.42692
G1 X58.677 Y152.998 E23.45766
G1 X58.618 Y152.725 E23.46695
G1 X58.426 Y151.482 E23.50878
G1 X58.421 Y151.429 E23.51055
G1 X58.376 Y150.642 E23.53677
G1 X58.353 Y149.473 E23.57566
G1 X58.351 Y149.264 E23.58261
G1 X58.35 Y80.795 E25.8599
G1 X58.355 Y80.323 E25.8756
G1 X58.374 Y79.786 E25.89347
G1 X58.397 Y79.411 E25.90597
G1 X58.521 Y78.317 E25.94259
G1 X58.613 Y77.828 E25.95914
G1 X58.666 Y77.577 E25.96767
G1 X58.891 Y76.697 E25.99788
G1 X58.937 Y76.545 E26.00316
G1 X59.404 Y75.294 E26.04757
G1 X59.533 Y75.005 E26.0581
G1 X60.086 Y73.933 E26.09822
G1 X60.216 Y73.713 E26.10672
G1 X60.719 Y72.942 E26.13734
G1 X61.125 Y72.41 E26.1596
G1 X61.301 Y72.194 E26.16886
G1 X61.913 Y71.506 E26.19949
G1 X62.247 Y71.177 E26.21508
G1 X62.439 Y70.996 E26.22386
G0 F6000 X62.713 Y71.287
G1 F1200 X63.598 Y70.543 E26.26231
G1 X63.761 Y70.421 E26.26909
G1 X64.857 Y69.705 E26.31263
G1 X65.112 Y69.561 E26.32237
G1 X65.918 Y69.152 E26.35243
G1 X66.442 Y68.932 E26.37133
G1 X66.7 Y68.832 E26.38054
G1 X67.912 Y68.448 E26.42282
G1 X67.996 Y68.427 E26.4257
G1 X69.039 Y68.223 E26.46105
G1 X69.413 Y68.17 E26.47361
G1 X70.141 Y68.093 E26.49796
G1 X70.715 Y68.067 E26.51707
G1 X71.555 Y68.053 E26.54501
G1 X157.285 Y68.052 E29.39641
G1 X158.16 Y68.063 E29.42551
G1 X159.126 Y68.122 E29.4577
G1 X159.374 Y68.149 E29.466
G1 X160.303 Y68.294 E29.49727
G1 X160.362 Y68.306 E29.49927
G1 X161.361 Y68.562 E29.53357
G1 X161.634 Y68.647 E29.54308
G1 X162.891 Y69.132 E29.58789
G1 X163.165 Y69.259 E29.59794
G1 X163.925 Y69.65 E29.62637
G1 X164.083 Y69.74 E29.63241
G1 X164.847 Y70.221 E29.66244
G1 X165.217 Y70.49 E29.67766
G1 X165.444 Y70.663 E29.68715
G1 X166.137 Y71.242 E29.71718
G1 X166.595 Y71.687 E29.73842
G1 X166.798 Y71.897 E29.74814
G1 X167.396 Y72.573 E29.77816
G1 X168.001 Y73.404 E29.81235
G1 X168.154 Y73.638 E29.82164
G1 X168.385 Y74.008 E29.83615
G1 X168.47 Y74.151 E29.84168
G1 X169.048 Y75.276 E29.88375
G1 X169.17 Y75.555 E29.89388
G1 X169.483 Y76.365 E29.92276
G1 X169.521 Y76.477 E29.9267
G1 X169.773 Y77.344 E29.95673
G1 X169.932 Y78.131 E29.98343
G1 X170.006 Y78.59 E29.99889
G1 X170.127 Y79.781 E30.03871
G1 X170.142 Y80.207 E30.05289
G1 X170.149 Y80.735 E30.07045
G1 X170.147 Y149.706 E32.36444
G1 X170.141 Y150.156 E32.3794
G1 X170.131 Y150.498 E32.39078
G1 X170.111 Y150.924 E32.40497
G1 X170.032 Y151.798 E32.43416
G1 X170.009 Y151.97 E32.43993
G1 X169.753 Y153.251 E32.48338
G1 X169.691 Y153.483 E32.49136
G1 X169.256 Y154.764 E32.53636
G1 X169.165 Y154.983 E32.54425
G1 X168.643 Y156.057 E32.58396
G1 X168.509 Y156.296 E32.59308
G1 X168.033 Y157.064 E32.62313
G1 X167.685 Y157.542 E32.6428
G1 X167.502 Y157.779 E32.65275
G1 X166.622 Y158.777 E32.69701
G1 X166.44 Y158.958 E32.70555
G1 X165.772 Y159.566 E32.73559
G1 X165.284 Y159.947 E32.75618
G1 X165.092 Y160.088 E32.7641
G1 X164.475 Y160.508 E32.78893
G1 X164.314 Y160.609 E32.79525
G1 X163.4 Y161.119 E32.83006
G1 X163.203 Y161.216 E32.83737
G1 X162.376 Y161.579 E32.86741
G1 X161.763 Y161.793 E32.889
G1 X161.487 Y161.88 E32.89863
G1 X160.268 Y162.183 E32.9404
G1 X160.029 Y162.227 E32.94849
G1 X159.057 Y162.358 E32.98111
G1 X158.79 Y162.381 E32.99002
G1 X158.038 Y162.418 E33.01506
G1 X157.416 Y162.425 E33.03575
G1 X71.421 Y162.423 E35.89596
G1 X70.735 Y162.413 E35.91878
G1 X70.131 Y162.386 E35.93888
G1 X70.023 Y162.378 E35.94249
G1 X69.242 Y162.29 E35.96863
G1 X69.025 Y162.257 E35.97593
G1 X68.14 Y162.082 E36.00593
G1 X67.542 Y161.917 E36.02657
G1 X67.219 Y161.817 E36.03781
G1 X66.369 Y161.512 E36.06785
G1 X65.821 Y161.268 E36.0878
G1 X65.494 Y161.111 E36.09986
G1 X64.698 Y160.685 E36.12989
G1 X64.081 Y160.287 E36.15431
G1 X63.946 Y160.193 E36.15978
G1 X63.164 Y159.59 E36.19263
G1 X63.003 Y159.453 E36.19966
G1 X62.286 Y158.781 E36.23234
G1 X62.102 Y158.591 E36.24114
G1 X61.475 Y157.881 E36.27265
G1 X61.361 Y157.739 E36.2787
G1 X60.827 Y157.01 E36.30876
G1 X60.474 Y156.44 E36.33106
G1 X60.348 Y156.221 E36.33946
G1 X59.914 Y155.378 E36.371
G1 X59.806 Y155.142 E36.37963
G1 X59.337 Y153.912 E36.42341
G1 X59.294 Y153.773 E36.42825
G1 X59.068 Y152.914 E36.45779
G1 X59.009 Y152.641 E36.46708
G1 X58.824 Y151.444 E36.50737
G1 X58.819 Y151.391 E36.50914
G1 X58.776 Y150.634 E36.53436
G1 X58.753 Y149.465 E36.57325
G1 X58.751 Y149.264 E36.57993
G1 X58.75 Y80.799 E38.85709
G1 X58.755 Y80.327 E38.87279
G1 X58.773 Y79.811 E38.88996
G1 X58.796 Y79.436 E38.90246
G1 X58.916 Y78.383 E38.9377
G1 X59.004 Y77.911 E38.95367
G1 X59.057 Y77.66 E38.96221
G1 X59.274 Y76.812 E38.99132
G1 X59.32 Y76.66 E38.9966
G1 X59.769 Y75.457 E39.03931
G1 X59.898 Y75.168 E39.04984
G1 X60.431 Y74.137 E39.08844
G1 X60.561 Y73.917 E39.09694
G1 X61.054 Y73.161 E39.12696
G1 X61.435 Y72.663 E39.14781
G1 X61.611 Y72.447 E39.15708
G1 X62.521 Y71.468 E39.20154
G1 X62.713 Y71.287 E39.21031
G1 F2700 E34.21031
;MESH:case.stl
G0 F6000 X76.156 Y112.912
G0 X75.033 Y111.979
G0 X74.709 Y113.729
G0 X74.78 Y114.251
G0 X75.257 Y115.428
;TYPE:WALL-INNER
G1 F2700 E39.21031
G1 F1200 X75.492 Y115.632 E39.22066
G1 X75.754 Y115.808 E39.23116
G1 X76.036 Y115.946 E39.2416
G1 X76.339 Y116.048 E39.25224
G1 X76.739 Y116.116 E39.26573
G1 X77.058 Y116.123 E39.27634
G1 X77.367 Y116.09 E39.28668
G1 X77.56 Y116.042 E39.29329
G1 X77.683 Y116.012 E39.2975
G1 X77.783 Y115.97 E39.30111
G1 X78.053 Y115.856 E39.31086
G1 X78.251 Y115.736 E39.31856
G1 X78.329 Y115.689 E39.32159
G1 X78.575 Y115.491 E39.33209
G1 X78.793 Y115.262 E39.34261
G1 X79.03 Y114.925 E39.35631
G1 X79.205 Y114.551 E39.37004
G1 X79.297 Y114.233 E39.38105
G1 X79.349 Y113.824 E39.39477
G1 X79.33 Y113.41 E39.40855
G1 X79.266 Y113.094 E39.41928
G1 X79.126 Y112.709 E39.4329
G1 X78.918 Y112.349 E39.44673
G1 X78.714 Y112.098 E39.45749
G1 X78.486 Y111.881 E39.46796
G1 X78.149 Y111.644 E39.48166
G1 X77.769 Y111.467 E39.4956
G1 X77.371 Y111.36 E39.50931
G1 X77.059 Y111.327 E39.51974
G1 X76.937 Y111.325 E39.5238
G1 X76.63 Y111.345 E39.53404
G1 X76.324 Y111.406 E39.54441
G1 X76.023 Y111.509 E39.55499
G1 X75.739 Y111.651 E39.56556
G1 X75.407 Y111.883 E39.57903
G1 X75.175 Y112.107 E39.58975
G1 X74.978 Y112.355 E39.60029
G1 X74.775 Y112.705 E39.61374
G1 X74.657 Y113.012 E39.62468
G1 X74.57 Y113.405 E39.63807
G1 X74.548 Y113.729 E39.64887
G1 X74.57 Y114.047 E39.65947
G1 X74.632 Y114.352 E39.66983
G1 X74.733 Y114.649 E39.68026
G1 X74.872 Y114.929 E39.69066
G1 X75.045 Y115.189 E39.70104
G1 X75.257 Y115.428 E39.71167
G0 F6000 X75.539 Y115.143
;TYPE:WALL-OUTER
G1 F1200 X75.736 Y115.314 E39.72035
G1 X75.954 Y115.461 E39.72909
G1 X76.188 Y115.575 E39.73775
G1 X76.437 Y115.659 E39.74649
G1 X76.777 Y115.717 E39.75796
G1 X77.041 Y115.723 E39.76674
G1 X77.297 Y115.695 E39.77531
G1 X77.557 Y115.631 E39.78421
G1 X77.871 Y115.499 E39.79554
G1 X78.099 Y115.361 E39.80441
G1 X78.304 Y115.196 E39.81316
G1 X78.483 Y115.008 E39.82179
G1 X78.682 Y114.724 E39.83333
G1 X78.829 Y114.41 E39.84486
G1 X78.904 Y114.151 E39.85383
G1 X78.948 Y113.808 E39.86533
G1 X78.932 Y113.459 E39.87695
G1 X78.88 Y113.203 E39.88564
G1 X78.762 Y112.879 E39.89711
G1 X78.587 Y112.576 E39.90875
G1 X78.42 Y112.37 E39.91757
G1 X78.232 Y112.191 E39.9262
G1 X77.948 Y111.992 E39.93773
G1 X77.632 Y111.844 E39.94934
