;FLAVOR:Marlin
M73 P0
M73 R25
;TIME:1503
;Filament used: 1.13203m
;Layer height: 0.2
;MINX:92.069
;MINY:92.068
;MINZ:0.2
;MAXX:142.931
;MAXY:142.931
;MAXZ:6
;POSTPROCESSED
;Generated with Cura_SteamEngine 4.9.1
M140 S50
M105
M190 S50
M104 S215
M105
M109 S215
M82 ;absolute extrusion mode
; Ender 3 Custom Start G-code
G92 E0 ; Reset Extruder
G28 ; Home all axes
G1 Z2.0 F3000 ; Move Z Axis up little to prevent scratching of Heat Bed
G1 X0.1 Y20 Z0.3 F5000.0 ; Move to start position
G1 X0.1 Y200.0 Z0.3 F1500.0 E15 ; Draw the first line
G1 X0.4 Y200.0 Z0.3 F5000.0 ; Move to side a little
G1 X0.4 Y20 Z0.3 F1500.0 E30 ; Draw the second line
G92 E0 ; Reset Extruder
G1 Z2.0 F3000 ; Move Z Axis up little to prevent scratching of Heat Bed
G1 X5 Y20 Z0.3 F5000.0 ; Move over to prevent blob squish
G92 E0
G92 E0
G1 F2700 E-5
;LAYER_COUNT:30
;LAYER:0
M107
G0 F6000 X95.539 Y95.909 Z0.2
;TYPE:SKIRT
G1 F2700 E0
G1 F1200 X96.367 Y95.123 E0.03797
G1 X96.554 Y94.963 E0.04616
G1 X97.292 Y94.384 E0.07736
G1 X98.15 Y93.827 E0.11138
G1 X98.244 Y93.772 E0.115
G1 X99.182 Y93.282 E0.1502
G1 X99.435 Y93.165 E0.15947
G1 X100.302 Y92.808 E0.19066
G1 X101.384 Y92.477 E0.22829
G1 X101.56 Y92.433 E0.23432
G1 X102.479 Y92.245 E0.26552
G1 X103.513 Y92.128 E0.30013
G1 X104.035 Y92.094 E0.31753
G1 X104.601 Y92.072 E0.33637
G1 X104.972 Y92.068 E0.34871
G1 X129.563 Y92.069 E1.16661
G1 X129.769 Y92.071 E1.17346
G1 X130.889 Y92.092 E1.21072
G1 X131.825 Y92.149 E1.24191
G1 X132.763 Y92.289 E1.27345
G1 X132.898 Y92.315 E1.27803
G1 X134.104 Y92.618 E1.31939
G1 X134.334 Y92.69 E1.3274
G1 X135.217 Y93.008 E1.35862
G1 X135.988 Y93.36 E1.38681
G1 X136.175 Y93.454 E1.39377
G1 X136.995 Y93.91 E1.42497
G1 X137.772 Y94.435 E1.45616
G1 X138.265 Y94.822 E1.47701
G1 X138.549 Y95.058 E1.48929
G1 X139.244 Y95.687 E1.52047
G1 X139.877 Y96.367 E1.55137
G1 X140.037 Y96.554 E1.55955
G1 X140.616 Y97.292 E1.59075
G1 X141.173 Y98.15 E1.62478
G1 X141.228 Y98.244 E1.6284
G1 X141.722 Y99.189 E1.66386
G1 X141.836 Y99.436 E1.67291
G1 X142.192 Y100.304 E1.70412
G1 X142.584 Y101.652 E1.75081
G1 X142.646 Y101.93 E1.76028
G1 X142.811 Y102.853 E1.79147
G1 X142.908 Y104.114 E1.83353
G1 X142.929 Y105.214 E1.87012
G1 X142.931 Y105.424 E1.87711
G1 X142.931 Y129.548 E2.67948
G1 X142.929 Y129.751 E2.68623
G1 X142.908 Y130.886 E2.72399
G1 X142.851 Y131.823 E2.75521
G1 X142.709 Y132.778 E2.78732
G1 X142.683 Y132.912 E2.79186
G1 X142.391 Y134.075 E2.83174
G1 X142.32 Y134.304 E2.83972
G1 X142.004 Y135.187 E2.87091
G1 X141.641 Y135.986 E2.9001
G1 X141.546 Y136.175 E2.90713
G1 X141.09 Y136.994 E2.93831
G1 X140.748 Y137.517 E2.9591
G1 X140.652 Y137.655 E2.96469
G1 X140.084 Y138.401 E2.99587
G1 X139.562 Y138.986 E3.02195
G1 X139.422 Y139.132 E3.02868
G1 X138.63 Y139.88 E3.06491
G1 X138.444 Y140.039 E3.07305
G1 X137.705 Y140.618 E3.10427
G1 X136.882 Y141.154 E3.13694
G1 X136.787 Y141.21 E3.14061
G1 X135.818 Y141.718 E3.177
G1 X135.565 Y141.835 E3.18627
G1 X134.698 Y142.192 E3.21745
M73 P1
G1 X133.803 Y142.474 E3.24867
G1 X133.288 Y142.599 E3.26629
G1 X133.017 Y142.658 E3.27552
G1 X132.093 Y142.818 E3.30671
G1 X130.884 Y142.908 E3.34703
G1 X129.77 Y142.929 E3.38409
G1 X129.563 Y142.931 E3.39097
G1 X105.437 Y142.931 E4.19341
G1 X105.231 Y142.929 E4.20026
G1 X104.111 Y142.908 E4.23752
G1 X103.175 Y142.851 E4.26871
G1 X102.237 Y142.711 E4.30025
G1 X102.102 Y142.685 E4.30482
G1 X100.909 Y142.386 E4.34573
G1 X100.678 Y142.314 E4.35378
G1 X99.795 Y141.997 E4.38498
G1 X98.989 Y141.629 E4.41445
G1 X98.803 Y141.535 E4.42138
G1 X97.985 Y141.077 E4.45256
G1 X97.457 Y140.73 E4.47358
G1 X97.317 Y140.632 E4.47926
G1 X96.572 Y140.061 E4.51048
G1 X96.013 Y139.561 E4.53542
G1 X95.868 Y139.422 E4.5421
G1 X95.119 Y138.629 E4.57839
G1 X94.96 Y138.443 E4.58652
G1 X94.381 Y137.704 E4.61775
G1 X93.819 Y136.838 E4.65209
G1 X93.763 Y136.742 E4.65578
G1 X93.273 Y135.799 E4.69113
G1 X93.157 Y135.547 E4.70035
G1 X92.801 Y134.679 E4.73156
G1 X92.521 Y133.784 E4.76275
G1 X92.408 Y133.32 E4.77863
G1 X92.349 Y133.053 E4.78773
G1 X92.186 Y132.13 E4.8189
G1 X92.092 Y130.884 E4.86046
G1 X92.071 Y129.752 E4.89812
G1 X92.069 Y129.548 E4.9049
G1 X92.069 Y105.424 E5.70727
G1 X92.071 Y105.207 E5.71449
G1 X92.093 Y104.093 E5.75155
G1 X92.152 Y103.157 E5.78274
G1 X92.295 Y102.201 E5.81489
G1 X92.32 Y102.073 E5.81923
G1 X92.623 Y100.88 E5.86017
G1 X92.696 Y100.648 E5.86826
G1 X93.016 Y99.767 E5.89943
G1 X93.361 Y99.009 E5.92713
G1 X93.454 Y98.824 E5.93402
G1 X93.911 Y98.005 E5.96521
G1 X94.207 Y97.548 E5.98332
G1 X94.294 Y97.421 E5.98844
G1 X94.857 Y96.671 E6.01963
G1 X95.39 Y96.066 E6.04645
G1 X95.539 Y95.909 E6.05365
G0 F6000 X95.829 Y96.184
G1 F1200 X96.627 Y95.427 E6.09024
G1 X96.814 Y95.267 E6.09842
G1 X97.539 Y94.699 E6.12905
G1 X98.352 Y94.172 E6.16128
G1 X98.446 Y94.117 E6.1649
G1 X99.35 Y93.645 E6.19882
G1 X99.603 Y93.528 E6.20809
G1 X100.454 Y93.178 E6.2387
G1 X101.481 Y92.865 E6.2744
G1 X101.657 Y92.821 E6.28044
G1 X102.559 Y92.637 E6.31106
G1 X103.539 Y92.527 E6.34386
G1 X104.061 Y92.493 E6.36126
G1 X104.607 Y92.472 E6.37943
G1 X104.972 Y92.468 E6.39157
G1 X129.563 Y92.469 E7.20947
G1 X129.762 Y92.471 E7.21609
G1 X130.882 Y92.492 E7.25335
M73 P2
G1 X131.801 Y92.549 E7.28397
G1 X132.688 Y92.681 E7.3138
G1 X132.823 Y92.707 E7.31837
G1 X133.985 Y93 E7.35823
G1 X134.215 Y93.072 E7.36624
G1 X135.081 Y93.385 E7.39687
G1 X135.809 Y93.717 E7.42348
G1 X135.996 Y93.811 E7.43044
G1 X136.8 Y94.26 E7.46107
G1 X137.561 Y94.777 E7.49167
G1 X138.01 Y95.129 E7.51065
G1 X138.294 Y95.365 E7.52293
G1 X138.976 Y95.984 E7.55356
G1 X139.573 Y96.627 E7.58275
G1 X139.733 Y96.814 E7.59093
G1 X140.301 Y97.539 E7.62157
G1 X140.828 Y98.352 E7.65379
G1 X140.883 Y98.446 E7.65741
G1 X141.358 Y99.357 E7.69158
G1 X141.472 Y99.604 E7.70063
G1 X141.822 Y100.456 E7.73127
G1 X142.194 Y101.739 E7.7757
G1 X142.256 Y102.017 E7.78517
G1 X142.417 Y102.923 E7.81578
G1 X142.508 Y104.122 E7.85577
G1 X142.529 Y105.222 E7.89236
G1 X142.531 Y105.424 E7.89908
G1 X142.531 Y129.548 E8.70145
G1 X142.508 Y130.879 E8.74573
G1 X142.451 Y131.798 E8.77635
G1 X142.316 Y132.702 E8.80675
G1 X142.29 Y132.836 E8.81129
G1 X142.009 Y133.956 E8.8497
G1 X141.938 Y134.185 E8.85767
G1 X141.627 Y135.052 E8.88831
G1 X141.284 Y135.806 E8.91586
G1 X141.189 Y135.995 E8.92289
G1 X140.74 Y136.799 E8.95352
G1 X140.42 Y137.288 E8.97296
G1 X140.324 Y137.426 E8.97855
G1 X139.766 Y138.159 E9.00919
G1 X139.273 Y138.709 E9.03376
G1 X139.133 Y138.855 E9.04048
G1 X138.37 Y139.576 E9.0754
G1 X138.184 Y139.735 E9.08354
G1 X137.459 Y140.303 E9.11417
G1 X136.679 Y140.81 E9.14511
G1 X136.584 Y140.866 E9.14878
G1 X135.65 Y141.355 E9.18385
G1 X135.397 Y141.472 E9.19312
G1 X134.546 Y141.822 E9.22372
G1 X133.667 Y142.096 E9.25434
G1 X133.203 Y142.208 E9.27022
G1 X132.932 Y142.267 E9.27944
G1 X132.025 Y142.424 E9.31006
G1 X130.877 Y142.508 E9.34835
G1 X129.763 Y142.529 E9.3854
G1 X129.563 Y142.531 E9.39206
G1 X105.437 Y142.531 E10.19449
G1 X105.238 Y142.529 E10.20111
G1 X104.118 Y142.508 E10.23837
G1 X103.199 Y142.451 E10.26899
G1 X102.312 Y142.319 E10.29882
G1 X102.177 Y142.293 E10.30339
G1 X101.028 Y142.004 E10.3428
G1 X100.797 Y141.932 E10.35084
G1 X99.931 Y141.62 E10.38146
G1 X99.17 Y141.272 E10.40929
G1 X98.984 Y141.178 E10.41622
G1 X98.181 Y140.728 E10.44684
G1 X97.686 Y140.402 E10.46655
G1 X97.546 Y140.304 E10.47224
G1 X96.816 Y139.744 E10.50284
G1 X96.29 Y139.272 E10.52634
M73 P3
G1 X96.145 Y139.133 E10.53302
G1 X95.423 Y138.369 E10.56799
G1 X95.264 Y138.183 E10.57613
G1 X94.696 Y137.458 E10.60676
G1 X94.165 Y136.636 E10.63931
G1 X94.109 Y136.54 E10.643
G1 X93.636 Y135.631 E10.67708
G1 X93.52 Y135.379 E10.68631
G1 X93.172 Y134.527 E10.71692
G1 X92.799 Y133.234 E10.76168
G1 X92.74 Y132.967 E10.77078
G1 X92.58 Y132.06 E10.80141
G1 X92.492 Y130.877 E10.84086
G1 X92.469 Y129.548 E10.88507
G1 X92.469 Y105.424 E11.68744
G1 X92.471 Y105.215 E11.69439
G1 X92.493 Y104.101 E11.73145
G1 X92.551 Y103.182 E11.76208
G1 X92.688 Y102.278 E11.79249
G1 X92.713 Y102.15 E11.79683
G1 X93.005 Y101 E11.83629
G1 X93.078 Y100.768 E11.84438
G1 X93.392 Y99.903 E11.87499
G1 X93.718 Y99.189 E11.90109
G1 X93.811 Y99.004 E11.90798
G1 X94.26 Y98.2 E11.93861
G1 X94.537 Y97.774 E11.95551
G1 X94.624 Y97.647 E11.96063
G1 X95.177 Y96.911 E11.99125
G1 X95.68 Y96.341 E12.01653
G1 X95.829 Y96.184 E12.02373
G0 F6000 X96.119 Y96.459
G1 F1200 X96.887 Y95.731 E12.05893
G1 X97.074 Y95.571 E12.06711
G1 X97.785 Y95.015 E12.09713
G1 X98.554 Y94.517 E12.1276
G1 X98.648 Y94.462 E12.13123
G1 X99.518 Y94.008 E12.16387
G1 X99.771 Y93.891 E12.17314
G1 X100.606 Y93.549 E12.20315
G1 X101.578 Y93.254 E12.23693
G1 X101.754 Y93.21 E12.24297
G1 X102.639 Y93.03 E12.27301
G1 X103.565 Y92.927 E12.30399
G1 X104.087 Y92.893 E12.32139
G1 X104.612 Y92.872 E12.33887
G1 X104.972 Y92.868 E12.35084
G1 X129.563 Y92.869 E13.16874
G1 X130.874 Y92.892 E13.21235
G1 X131.776 Y92.949 E13.24241
G1 X132.612 Y93.074 E13.27053
G1 X132.747 Y93.1 E13.2751
G1 X133.865 Y93.382 E13.31345
G1 X134.095 Y93.454 E13.32147
G1 X134.944 Y93.762 E13.35151
G1 X135.629 Y94.075 E13.37655
G1 X135.816 Y94.169 E13.38352
G1 X136.604 Y94.61 E13.41355
G1 X137.35 Y95.118 E13.44357
G1 X137.754 Y95.437 E13.46069
G1 X138.038 Y95.673 E13.47297
G1 X138.706 Y96.28 E13.50299
G1 X139.269 Y96.887 E13.53053
G1 X139.429 Y97.074 E13.53871
G1 X139.985 Y97.785 E13.56873
G1 X140.483 Y98.554 E13.5992
G1 X140.538 Y98.648 E13.60283
G1 X140.995 Y99.525 E13.63572
G1 X141.109 Y99.772 E13.64477
G1 X141.451 Y100.608 E13.67481
G1 X141.803 Y101.826 E13.71698
G1 X141.865 Y102.104 E13.72645
G1 X142.023 Y102.993 E13.75648
G1 X142.108 Y104.129 E13.79437
G1 X142.129 Y105.229 E13.83096
M73 P4
G1 X142.131 Y105.424 E13.83745
G1 X142.131 Y129.548 E14.63982
G1 X142.108 Y130.872 E14.68386
G1 X142.052 Y131.773 E14.71389
G1 X141.923 Y132.626 E14.74258
G1 X141.897 Y132.76 E14.74712
G1 X141.626 Y133.838 E14.78409
G1 X141.555 Y134.067 E14.79206
G1 X141.25 Y134.917 E14.8221
G1 X140.926 Y135.627 E14.84806
G1 X140.831 Y135.816 E14.85509
G1 X140.391 Y136.604 E14.88511
G1 X140.091 Y137.06 E14.90327
G1 X139.995 Y137.198 E14.90886
G1 X139.447 Y137.916 E14.9389
G1 X138.984 Y138.433 E14.96198
G1 X138.844 Y138.579 E14.96871
G1 X138.11 Y139.272 E15.00228
G1 X137.924 Y139.431 E15.01042
G1 X137.212 Y139.987 E15.04047
G1 X136.476 Y140.465 E15.06966
G1 X136.381 Y140.521 E15.07333
G1 X135.482 Y140.992 E15.10708
G1 X135.229 Y141.109 E15.11635
G1 X134.394 Y141.451 E15.14636
G1 X133.118 Y141.818 E15.19052
G1 X132.847 Y141.877 E15.19975
G1 X131.957 Y142.029 E15.22978
G1 X130.869 Y142.108 E15.26606
G1 X129.563 Y142.131 E15.30951
G1 X105.437 Y142.131 E16.11194
G1 X104.126 Y142.108 E16.15555
G1 X103.224 Y142.051 E16.18561
G1 X102.388 Y141.926 E16.21373
G1 X102.253 Y141.9 E16.2183
G1 X101.147 Y141.622 E16.25623
G1 X100.916 Y141.55 E16.26428
G1 X100.066 Y141.243 E16.29434
G1 X99.35 Y140.915 E16.32053
G1 X99.164 Y140.821 E16.32746
G1 X98.377 Y140.379 E16.35748
G1 X97.916 Y140.074 E16.37587
G1 X97.776 Y139.976 E16.38155
G1 X97.059 Y139.426 E16.41161
G1 X96.566 Y138.983 E16.43365
G1 X96.421 Y138.844 E16.44033
G1 X95.727 Y138.109 E16.47395
G1 X95.568 Y137.923 E16.48209
G1 X95.012 Y137.211 E16.51214
G1 X94.51 Y136.434 E16.54291
G1 X94.454 Y136.338 E16.5466
G1 X94 Y135.464 E16.57936
G1 X93.884 Y135.212 E16.58859
G1 X93.543 Y134.376 E16.61862
G1 X93.189 Y133.148 E16.66112
G1 X93.13 Y132.881 E16.67022
G1 X92.975 Y131.991 E16.70027
G1 X92.892 Y130.869 E16.73768
G1 X92.869 Y129.548 E16.78163
G1 X92.869 Y105.424 E17.584
G1 X92.871 Y105.223 E17.59068
G1 X92.893 Y104.109 E17.62774
G1 X92.951 Y103.207 E17.6578
G1 X93.08 Y102.355 E17.68646
G1 X93.105 Y102.227 E17.6908
G1 X93.386 Y101.12 E17.72879
G1 X93.459 Y100.888 E17.73688
G1 X93.768 Y100.04 E17.7669
G1 X94.076 Y99.369 E17.79145
G1 X94.169 Y99.184 E17.79834
G1 X94.61 Y98.396 E17.82837
G1 X94.867 Y98 E17.84408
G1 X94.954 Y97.873 E17.8492
G1 X95.497 Y97.152 E17.87922
M73 P5
G1 X95.97 Y96.616 E17.90299
G1 X96.119 Y96.459 E17.91019
G1 F2700 E12.91019
;MESH:3030_endcap.stl
G0 F6000 X104.235 Y102.421
G0 X104.519 Y103.487
G0 X127.863 Y103.804
G0 X131.064 Y103.892
;TYPE:WALL-INNER
G1 F2700 E17.91019
G1 F1200 X131.268 Y104.189 E17.92218
G1 X131.328 Y104.438 E17.93069
G1 X131.331 Y104.517 E17.93332
G1 X131.331 Y130.468 E18.79646
G1 X131.295 Y130.733 E18.80535
G1 X131.108 Y131.064 E18.818
G1 X130.803 Y131.271 E18.83026
G1 X130.476 Y131.331 E18.84131
G1 X104.532 Y131.331 E19.70422
G1 X104.267 Y131.295 E19.71311
G1 X103.936 Y131.108 E19.72575
G1 X103.729 Y130.803 E19.73801
G1 X103.669 Y130.483 E19.74884
G1 X103.669 Y104.532 E20.61198
G1 X103.705 Y104.267 E20.62087
G1 X103.896 Y103.932 E20.6337
G1 X104.197 Y103.729 E20.64577
G1 X104.528 Y103.668 E20.65697
G1 X130.468 Y103.669 E21.51974
G1 X130.733 Y103.705 E21.52863
G1 X131.064 Y103.892 E21.54128
G0 F6000 X131.337 Y103.595
;TYPE:WALL-OUTER
G1 F1200 X131.509 Y103.798 E21.55012
G1 X131.645 Y104.045 E21.5595
G1 X131.726 Y104.385 E21.57113
G1 X131.731 Y104.5 E21.57496
G1 X131.731 Y130.492 E22.43945
G1 X131.684 Y130.839 E22.4511
G1 X131.579 Y131.09 E22.46015
G1 X131.405 Y131.337 E22.4702
G1 X131.202 Y131.509 E22.47905
G1 X130.949 Y131.647 E22.48863
G1 X130.615 Y131.726 E22.50005
G1 X130.492 Y131.731 E22.50414
G1 X104.508 Y131.731 E23.36837
G1 X104.161 Y131.684 E23.38002
G1 X103.91 Y131.579 E23.38907
G1 X103.663 Y131.405 E23.39912
G1 X103.491 Y131.202 E23.40797
G1 X103.353 Y130.949 E23.41755
G1 X103.274 Y130.615 E23.42897
G1 X103.269 Y130.5 E23.4328
G1 X103.269 Y104.508 E24.2973
G1 X103.316 Y104.161 E24.30894
G1 X103.421 Y103.91 E24.31799
G1 X103.596 Y103.662 E24.32809
G1 X103.798 Y103.491 E24.33689
G1 X104.051 Y103.353 E24.34648
G1 X104.385 Y103.274 E24.35789
G1 X104.509 Y103.268 E24.36202
G1 X130.492 Y103.269 E25.22622
G1 X130.839 Y103.316 E25.23786
G1 X131.09 Y103.421 E25.24691
G1 X131.337 Y103.595 E25.25696
G0 F6000 X131.041 Y103.919
G0 X130.791 Y104.185
;TYPE:SKIN
G1 F1200 X130.906 Y104.352 E25.26371
G1 X130.941 Y104.517 E25.26932
G1 X130.941 Y130.445 E26.13169
G1 X130.919 Y130.605 E26.13706
G1 X130.813 Y130.793 E26.14424
G1 X130.653 Y130.901 E26.15066
G1 X130.438 Y130.941 E26.15793
M73 P6
G1 X104.555 Y130.941 E27.0188
G1 X104.395 Y130.919 E27.02417
G1 X104.206 Y130.813 E27.03138
G1 X104.099 Y130.655 E27.03773
G1 X104.059 Y130.443 E27.0449
G1 X104.059 Y104.555 E27.90594
G1 X104.081 Y104.395 E27.91131
G1 X104.19 Y104.205 E27.9186
G1 X104.347 Y104.098 E27.92492
G1 X104.566 Y104.058 E27.93232
G1 X130.445 Y104.059 E28.79306
G1 X130.607 Y104.081 E28.7985
G1 X130.791 Y104.185 E28.80553
G0 F6000 X130.24 Y104.219
G1 F1200 X130.78 Y104.759 E28.83093
G0 F6000 X130.78 Y105.324
G1 F1200 X129.674 Y104.219 E28.88293
G0 F6000 X129.109 Y104.219
G1 F1200 X130.78 Y105.89 E28.96153
G0 F6000 X130.78 Y106.456
G1 F1200 X128.543 Y104.219 E29.06675
G0 F6000 X127.977 Y104.219
G1 F1200 X130.78 Y107.022 E29.19859
G0 F6000 X130.78 Y107.587
G1 F1200 X127.412 Y104.219 E29.35701
G0 F6000 X126.846 Y104.219
G1 F1200 X130.78 Y108.153 E29.54206
G0 F6000 X130.78 Y108.719
G1 F1200 X126.28 Y104.219 E29.75372
G0 F6000 X125.715 Y104.219
G1 F1200 X130.78 Y109.284 E29.99196
G0 F6000 X130.78 Y109.85
G1 F1200 X125.149 Y104.219 E30.25683
G0 F6000 X124.583 Y104.219
G1 F1200 X130.78 Y110.416 E30.54832
G0 F6000 X130.78 Y110.981
G1 F1200 X124.018 Y104.219 E30.86638
G0 F6000 X123.452 Y104.219
G1 F1200 X130.78 Y111.547 E31.21107
G0 F6000 X130.78 Y112.113
G1 F1200 X122.886 Y104.219 E31.58238
G0 F6000 X122.32 Y104.219
G1 F1200 X130.78 Y112.678 E31.98029
G0 F6000 X130.78 Y113.244
G1 F1200 X121.755 Y104.219 E32.40479
G0 F6000 X121.189 Y104.219
G1 F1200 X130.78 Y113.81 E32.85593
G0 F6000 X130.78 Y114.375
