;FLAVOR:Marlin
M73 P0
M73 R12
;TIME:743
;Filament used: 0.377061m
;Layer height: 0.2
;MINX:96.945
;MINY:98.272
;MINZ:0.2
;MAXX:138.056
;MAXY:141.454
;MAXZ:7.8
;POSTPROCESSED
;Generated with Cura_SteamEngine 4.9.1
M140 S50
M105
M190 S50
M104 S215
M105
M109 S215
M82 ;absolute extrusion mode
; Ender 3 Custom Start G-code
G92 E0 ; Reset Extruder
G28 ; Home all axes
G1 Z2.0 F3000 ; Move Z Axis up little to prevent scratching of Heat Bed
G1 X0.1 Y20 Z0.3 F5000.0 ; Move to start position
G1 X0.1 Y200.0 Z0.3 F1500.0 E15 ; Draw the first line
G1 X0.4 Y200.0 Z0.3 F5000.0 ; Move to side a little
G1 X0.4 Y20 Z0.3 F1500.0 E30 ; Draw the second line
G92 E0 ; Reset Extruder
G1 Z2.0 F3000 ; Move Z Axis up little to prevent scratching of Heat Bed
G1 X5 Y20 Z0.3 F5000.0 ; Move over to prevent blob squish
G92 E0
G92 E0
G1 F2700 E-5
;LAYER_COUNT:39
;LAYER:0
M107
G0 F6000 X100.421 Y105.571 Z0.2
;TYPE:SKIRT
G1 F2700 E0
G1 F1200 X101.103 Y104.927 E0.0312
G1 X101.838 Y104.344 E0.0624
G1 X102.441 Y103.936 E0.08662
G1 X102.703 Y103.771 E0.09691
G1 X103.163 Y103.496 E0.11474
G1 X103.435 Y103.346 E0.12507
G1 X103.68 Y103.215 E0.13431
G1 X105.91 Y101.983 E0.21905
G1 X109.067 Y100.096 E0.34138
G1 X109.181 Y100.025 E0.34584
G1 X109.999 Y99.565 E0.37706
G1 X111.039 Y99.103 E0.41491
G1 X111.271 Y99.014 E0.42317
G1 X112.16 Y98.715 E0.45437
G1 X113.446 Y98.427 E0.4982
G1 X113.569 Y98.407 E0.50235
G1 X114.5 Y98.296 E0.53353
G1 X115.748 Y98.272 E0.57505
G1 X115.987 Y98.281 E0.583
G1 X116.922 Y98.356 E0.6142
G1 X117.847 Y98.511 E0.64539
G1 X118.879 Y98.781 E0.68087
G1 X119.171 Y98.873 E0.69106
G1 X120.052 Y99.193 E0.72223
G1 X121.125 Y99.704 E0.76176
G1 X121.395 Y99.851 E0.77198
G1 X121.822 Y100.096 E0.78836
G1 X122.529 Y100.523 E0.81583
G1 X122.717 Y100.639 E0.82318
G1 X124.447 Y101.732 E0.89124
G1 X126.585 Y102.998 E0.97388
G1 X129.894 Y104.812 E1.09939
G1 X130.665 Y105.214 E1.12831
G1 X131.04 Y105.418 E1.14251
G1 X131.374 Y105.609 E1.15531
G1 X132.207 Y106.136 E1.18809
G1 X132.67 Y106.459 E1.20687
G1 X133.365 Y106.987 E1.2359
G1 X133.523 Y107.117 E1.2427
G1 X133.881 Y107.424 E1.25839
G1 X134.037 Y107.564 E1.26536
G1 X134.708 Y108.22 E1.29657
G1 X135.133 Y108.7 E1.3179
G1 X135.366 Y108.979 E1.32999
G1 X135.936 Y109.724 E1.36118
G1 X136.44 Y110.515 E1.39238
G1 X136.876 Y111.345 E1.42356
G1 X137.269 Y112.294 E1.45773
G1 X137.373 Y112.582 E1.46791
G1 X137.654 Y113.477 E1.49911
G1 X137.863 Y114.424 E1.53137
G1 X137.881 Y114.527 E1.53484
G1 X138.027 Y115.792 E1.5772
G1 X138.04 Y116.019 E1.58476
G1 X138.056 Y116.85 E1.6124
G1 X138.01 Y119.37 E1.69623
G1 X138.034 Y121.89 E1.78005
G1 X138.052 Y122.644 E1.80514
G1 X138.047 Y123.337 E1.82819
G1 X138.038 Y123.567 E1.83584
G1 X137.94 Y124.662 E1.87241
G1 X137.919 Y124.812 E1.87745
G1 X137.749 Y125.735 E1.90866
G1 X137.502 Y126.639 E1.93983
G1 X137.15 Y127.587 E1.97347
G1 X137.071 Y127.773 E1.98019
G1 X136.668 Y128.62 E2.01138
G1 X136.05 Y129.648 E2.05128
G1 X135.894 Y129.878 E2.06052
G1 X135.334 Y130.631 E2.09173
G1 X134.423 Y131.623 E2.13653
G1 X134.23 Y131.809 E2.14545
G1 X133.65 Y132.33 E2.17138
G1 X133.431 Y132.513 E2.18087
G1 X132.678 Y133.089 E2.2124
G1 X132.21 Y133.416 E2.23139
G1 X131.39 Y133.937 E2.2637
G1 X131.075 Y134.118 E2.27579
G1 X130.683 Y134.333 E2.29066
G1 X129.789 Y134.799 E2.32419
G1 X127.56 Y136.003 E2.40845
G1 X125.4 Y137.25 E2.4914
G1 X122.43 Y139.103 E2.60783
G1 X122.13 Y139.283 E2.61947
G1 X121.486 Y139.657 E2.64424
G1 X120.639 Y140.101 E2.67605
G1 X120.226 Y140.295 E2.69122
G1 X119.165 Y140.728 E2.72934
G1 X118.849 Y140.838 E2.74047
G1 X117.951 Y141.108 E2.77166
G1 X117.201 Y141.272 E2.79719
G1 X117.146 Y141.282 E2.79905
G1 X116.217 Y141.41 E2.83024
G1 X114.863 Y141.454 E2.8753
G1 X114.619 Y141.447 E2.88342
G1 X113.683 Y141.381 E2.91463
G1 X112.757 Y141.234 E2.94581
G1 X112.193 Y141.105 E2.96505
G1 X111.886 Y141.026 E2.9756
G1 X110.988 Y140.754 E3.0068
G1 X110.117 Y140.406 E3.038
G1 X109.602 Y140.158 E3.05701
G1 X109.528 Y140.12 E3.05978
G1 X108.795 Y139.708 E3.08775
G1 X108.048 Y139.249 E3.11691
G1 X105.888 Y137.964 E3.2005
G1 X103.185 Y136.47 E3.30322
G1 X102.385 Y135.982 E3.33439
G1 X101.587 Y135.394 E3.36736
G1 X101.32 Y135.178 E3.37878
G1 X100.616 Y134.558 E3.40998
G1 X99.968 Y133.879 E3.4412
G1 X99.381 Y133.149 E3.47236
G1 X99.003 Y132.602 E3.49447
G1 X98.871 Y132.398 E3.50255
G1 X98.395 Y131.589 E3.53377
G1 X97.99 Y130.743 E3.56497
G1 X97.688 Y129.953 E3.5931
G1 X97.588 Y129.658 E3.60346
G1 X97.325 Y128.758 E3.63464
G1 X97.111 Y127.644 E3.67237
G1 X97.1 Y127.565 E3.67503
G1 X97.034 Y126.973 E3.69484
G1 X96.988 Y126.428 E3.71303
G1 X96.949 Y125.467 E3.74502
G1 X96.951 Y124.856 E3.76534
G1 X96.957 Y124.517 E3.77662
G1 X97.005 Y123.145 E3.82228
G1 X97.034 Y122.488 E3.84415
G1 X97.076 Y119.927 E3.92934
G1 X97.045 Y117.406 E4.0132
G1 X96.961 Y115.122 E4.08921
G1 X96.945 Y114.276 E4.11736
G1 X96.967 Y113.338 E4.14856
G1 X97.026 Y112.72 E4.16921
G1 X97.066 Y112.396 E4.18007
G1 X97.22 Y111.471 E4.21126
G1 X97.453 Y110.563 E4.24244
G1 X97.783 Y109.627 E4.27545
G1 X97.85 Y109.461 E4.2814
G1 X98.237 Y108.607 E4.31259
G1 X98.531 Y108.065 E4.33309
G1 X98.637 Y107.882 E4.34013
G1 X99.142 Y107.091 E4.37134
G1 X99.712 Y106.346 E4.40254
G1 X100.274 Y105.722 E4.43047
G1 X100.421 Y105.571 E4.43748
G0 F6000 X100.708 Y105.85
G1 F1200 X101.378 Y105.219 E4.46809
G1 X102.1 Y104.648 E4.49871
G1 X102.654 Y104.275 E4.52092
G1 X102.916 Y104.11 E4.53122
G1 X103.362 Y103.844 E4.54849
G1 X103.623 Y103.699 E4.55842
G1 X103.886 Y103.559 E4.56833
G1 X106.117 Y102.326 E4.65311
G1 X109.252 Y100.452 E4.77459
G1 X109.392 Y100.365 E4.78008
G1 X110.195 Y99.914 E4.81071
G1 X111.182 Y99.476 E4.84662
G1 X111.414 Y99.387 E4.85489
G1 X112.287 Y99.095 E4.8855
G1 X113.51 Y98.821 E4.92719
G1 X113.633 Y98.801 E4.93134
G1 X114.547 Y98.693 E4.96195
G1 X115.733 Y98.672 E5.0014
G1 X115.972 Y98.681 E5.00935
G1 X116.89 Y98.755 E5.03999
G1 X117.797 Y98.909 E5.07058
G1 X118.758 Y99.163 E5.10364
G1 X119.05 Y99.255 E5.11383
G1 X119.916 Y99.569 E5.14447
G1 X120.934 Y100.055 E5.18199
G1 X121.204 Y100.202 E5.19221
G1 X121.615 Y100.438 E5.20797
G1 X122.322 Y100.865 E5.23544
G1 X122.504 Y100.978 E5.24257
G1 X124.251 Y102.082 E5.3113
G1 X126.368 Y103.336 E5.39314
G1 X129.677 Y105.149 E5.51864
G1 X130.48 Y105.568 E5.54876
G1 X130.841 Y105.765 E5.56244
G1 X131.175 Y105.956 E5.57524
G1 X131.978 Y106.464 E5.60684
G1 X132.441 Y106.787 E5.62562
G1 X133.111 Y107.296 E5.6536
G1 X133.269 Y107.426 E5.66041
G1 X133.614 Y107.722 E5.67553
G1 X133.77 Y107.862 E5.6825
G1 X134.428 Y108.506 E5.71312
G1 X134.826 Y108.956 E5.7331
G1 X135.059 Y109.235 E5.74519
G1 X135.618 Y109.967 E5.77583
G1 X136.111 Y110.744 E5.80643
G1 X136.535 Y111.562 E5.83708
G1 X136.893 Y112.43 E5.86831
G1 X136.997 Y112.718 E5.87849
G1 X137.272 Y113.596 E5.90909
G1 X137.469 Y114.493 E5.93964
G1 X137.487 Y114.596 E5.94312
G1 X137.628 Y115.815 E5.98393
G1 X137.641 Y116.042 E5.99149
G1 X137.656 Y116.843 E6.01814
G1 X137.61 Y119.367 E6.1021
G1 X137.635 Y121.938 E6.18762
G1 X137.652 Y122.654 E6.21144
G1 X137.647 Y123.321 E6.23362
G1 X137.638 Y123.551 E6.24128
G1 X137.544 Y124.607 E6.27654
G1 X137.523 Y124.757 E6.28158
G1 X137.356 Y125.662 E6.31219
G1 X137.11 Y126.549 E6.3428
G1 X136.781 Y127.431 E6.37411
G1 X136.702 Y127.617 E6.38083
G1 X136.306 Y128.448 E6.41145
G1 X135.719 Y129.423 E6.4493
G1 X135.563 Y129.653 E6.45855
G1 X135.013 Y130.392 E6.48918
G1 X134.146 Y131.335 E6.53179
G1 X133.953 Y131.521 E6.54071
G1 X133.394 Y132.023 E6.56569
G1 X133.175 Y132.206 E6.57519
G1 X132.449 Y132.761 E6.60558
G1 X131.981 Y133.088 E6.62457
G1 X131.191 Y133.59 E6.6557
G1 X130.876 Y133.771 E6.66779
G1 X130.498 Y133.978 E6.68212
G1 X129.621 Y134.436 E6.71503
G1 X127.376 Y135.648 E6.79988
G1 X125.189 Y136.91 E6.88386
G1 X122.218 Y138.764 E7.00034
G1 X121.929 Y138.937 E7.01154
G1 X121.285 Y139.311 E7.03631
M73 P1
G1 X120.469 Y139.739 E7.06696
G1 X120.056 Y139.933 E7.08214
G1 X119.034 Y140.35 E7.11885
G1 X118.718 Y140.46 E7.12998
G1 X117.836 Y140.724 E7.1606
G1 X117.129 Y140.878 E7.18467
G1 X117.074 Y140.888 E7.18653
G1 X116.162 Y141.013 E7.21714
G1 X114.874 Y141.055 E7.26
G1 X114.63 Y141.048 E7.26812
G1 X113.712 Y140.981 E7.29874
G1 X112.803 Y140.836 E7.32935
G1 X112.292 Y140.718 E7.3468
G1 X111.985 Y140.639 E7.35734
G1 X111.105 Y140.371 E7.38794
G1 X110.25 Y140.027 E7.41859
G1 X109.785 Y139.802 E7.43577
G1 X109.711 Y139.764 E7.43854
G1 X109.005 Y139.367 E7.46548
G1 X108.34 Y138.959 E7.49143
G1 X106.058 Y137.6 E7.57976
G1 X103.379 Y136.12 E7.68156
G1 X102.593 Y135.64 E7.71219
G1 X101.838 Y135.083 E7.7434
G1 X101.571 Y134.867 E7.75482
G1 X100.881 Y134.257 E7.78545
G1 X100.247 Y133.59 E7.81606
G1 X99.673 Y132.871 E7.84666
G1 X99.339 Y132.384 E7.8663
G1 X99.207 Y132.18 E7.87438
G1 X98.74 Y131.387 E7.90499
G1 X98.345 Y130.555 E7.93563
G1 X98.067 Y129.825 E7.96161
G1 X97.967 Y129.53 E7.97197
G1 X97.71 Y128.646 E8.00259
G1 X97.507 Y127.589 E8.03838
G1 X97.496 Y127.51 E8.04104
G1 X97.433 Y126.94 E8.06011
G1 X97.387 Y126.395 E8.0783
G1 X97.349 Y125.468 E8.10916
G1 X97.351 Y124.857 E8.12948
G1 X97.357 Y124.53 E8.14036
G1 X97.404 Y123.163 E8.18585
G1 X97.434 Y122.477 E8.20869
G1 X97.476 Y119.929 E8.29345
G1 X97.445 Y117.427 E8.37667
G1 X97.366 Y115.308 E8.4472
G1 X97.345 Y114.268 E8.4818
G1 X97.367 Y113.348 E8.51241
G1 X97.423 Y112.769 E8.53175
G1 X97.463 Y112.445 E8.54261
G1 X97.615 Y111.537 E8.57323
G1 X97.846 Y110.646 E8.60385
G1 X98.153 Y109.777 E8.6345
G1 X98.22 Y109.611 E8.64045
G1 X98.602 Y108.773 E8.67109
G1 X98.878 Y108.265 E8.69031
G1 X98.984 Y108.082 E8.69735
G1 X99.479 Y107.306 E8.72796
G1 X100.04 Y106.576 E8.75858
G1 X100.561 Y106.001 E8.78439
G1 X100.708 Y105.85 E8.7914
G0 F6000 X100.994 Y106.129
G1 F1200 X101.652 Y105.51 E8.82145
G1 X102.362 Y104.952 E8.85148
G1 X102.867 Y104.613 E8.87171
G1 X103.129 Y104.448 E8.88201
G1 X103.56 Y104.191 E8.8987
G1 X103.812 Y104.052 E8.90827
G1 X104.03 Y103.935 E8.9165
G1 X106.327 Y102.666 E9.00378
G1 X109.463 Y100.792 E9.12529
G1 X109.603 Y100.705 E9.13077
G1 X110.391 Y100.263 E9.16082
G1 X111.326 Y99.85 E9.19482
G1 X111.558 Y99.761 E9.20309
G1 X112.414 Y99.475 E9.2331
G1 X113.574 Y99.216 E9.27264
G1 X113.697 Y99.196 E9.27678
G1 X114.594 Y99.091 E9.30682
G1 X115.718 Y99.071 E9.34421
G1 X115.957 Y99.08 E9.35216
G1 X116.857 Y99.154 E9.3822
G1 X117.747 Y99.307 E9.41223
G1 X118.638 Y99.544 E9.4429
G1 X118.93 Y99.636 E9.45308
G1 X119.779 Y99.946 E9.48314
G1 X120.742 Y100.407 E9.51865
G1 X121.012 Y100.554 E9.52888
G1 X121.408 Y100.781 E9.54406
G1 X122.115 Y101.208 E9.57153
G1 X122.29 Y101.316 E9.57837
G1 X124.039 Y102.421 E9.64718
G1 X126.185 Y103.693 E9.73015
G1 X129.478 Y105.497 E9.85504
G1 X130.295 Y105.923 E9.88568
G1 X130.642 Y106.113 E9.89884
G1 X130.976 Y106.304 E9.91164
G1 X131.749 Y106.793 E9.94206
G1 X132.212 Y107.116 E9.96084
G1 X132.857 Y107.604 E9.98774
G1 X133.015 Y107.734 E9.99454
G1 X133.347 Y108.02 E10.00912
G1 X133.503 Y108.16 E10.01609
G1 X134.147 Y108.792 E10.0461
G1 X134.519 Y109.213 E10.06479
G1 X134.752 Y109.492 E10.07688
G1 X135.3 Y110.21 E10.10692
G1 X135.782 Y110.974 E10.13696
G1 X136.194 Y111.777 E10.16698
G1 X136.517 Y112.566 E10.19534
G1 X136.621 Y112.854 E10.20552
G1 X136.889 Y113.716 E10.23554
G1 X137.075 Y114.562 E10.26436
G1 X137.093 Y114.665 E10.26783
G1 X137.228 Y115.838 E10.3071
G1 X137.241 Y116.065 E10.31467
G1 X137.256 Y116.836 E10.34032
G1 X137.21 Y119.312 E10.42268
G1 X137.237 Y122.024 E10.51289
G1 X137.252 Y122.664 E10.53418
G1 X137.247 Y123.306 E10.55553
G1 X137.238 Y123.536 E10.56319
G1 X137.147 Y124.551 E10.59708
G1 X137.126 Y124.701 E10.60212
G1 X136.962 Y125.589 E10.63216
G1 X136.719 Y126.459 E10.6622
G1 X136.413 Y127.274 E10.69115
G1 X136.334 Y127.46 E10.69788
G1 X135.945 Y128.275 E10.72791
G1 X135.387 Y129.199 E10.76381
G1 X135.231 Y129.429 E10.77306
G1 X134.692 Y130.153 E10.80308
G1 X133.868 Y131.047 E10.84352
G1 X133.675 Y131.233 E10.85243
G1 X133.137 Y131.716 E10.87648
G1 X132.918 Y131.899 E10.88597
G1 X132.22 Y132.433 E10.9152
G1 X131.752 Y132.76 E10.93419
G1 X130.992 Y133.243 E10.96414
G1 X130.677 Y133.424 E10.97622
G1 X130.313 Y133.623 E10.99002
G1 X129.452 Y134.072 E11.02232
G1 X127.165 Y135.307 E11.10877
G1 X124.979 Y136.569 E11.19272
G1 X122.006 Y138.424 E11.30927
G1 X121.728 Y138.591 E11.32006
G1 X121.084 Y138.965 E11.34483
G1 X120.299 Y139.377 E11.37431
G1 X119.886 Y139.571 E11.38949
G1 X118.902 Y139.972 E11.42483
G1 X118.586 Y140.082 E11.43596
G1 X117.721 Y140.341 E11.46599
G1 X117.058 Y140.484 E11.48855
G1 X117.003 Y140.494 E11.49041
G1 X116.108 Y140.617 E11.52046
G1 X114.885 Y140.655 E11.56115
G1 X114.641 Y140.648 E11.56927
G1 X113.741 Y140.582 E11.59929
G1 X112.849 Y140.437 E11.62935
G1 X112.392 Y140.33 E11.64496
G1 X112.085 Y140.251 E11.6555
G1 X111.221 Y139.988 E11.68554
G1 X110.384 Y139.649 E11.71557
G1 X109.968 Y139.447 E11.73096
G1 X109.894 Y139.409 E11.73372
G1 X109.214 Y139.026 E11.75968
G1 X108.506 Y138.591 E11.78732
G1 X106.277 Y137.265 E11.87358
G1 X103.572 Y135.77 E11.97638
G1 X102.802 Y135.299 E12.0064
G1 X102.09 Y134.772 E12.03586
G1 X101.823 Y134.556 E12.04728
G1 X101.146 Y133.957 E12.07735
G1 X100.526 Y133.301 E12.10737
G1 X99.966 Y132.593 E12.13739
G1 X99.674 Y132.167 E12.15457
G1 X99.542 Y131.963 E12.16265
G1 X99.086 Y131.184 E12.19267
G1 X98.7 Y130.367 E12.22273
G1 X98.446 Y129.697 E12.24656
G1 X98.346 Y129.402 E12.25692
G1 X98.094 Y128.534 E12.28698
G1 X97.903 Y127.534 E12.32084
G1 X97.892 Y127.455 E12.3235
G1 X97.831 Y126.906 E12.34187
G1 X97.785 Y126.361 E12.36006
G1 X97.749 Y125.47 E12.38972
G1 X97.751 Y124.859 E12.41004
G1 X97.757 Y124.544 E12.42052
G1 X97.804 Y123.181 E12.46588
G1 X97.834 Y122.502 E12.48849
G1 X97.876 Y119.93 E12.57404
G1 X97.845 Y117.408 E12.65793
G1 X97.766 Y115.294 E12.72829
G1 X97.745 Y114.261 E12.76266
G1 X97.768 Y113.358 E12.7927
G1 X97.82 Y112.818 E12.81074
G1 X97.86 Y112.494 E12.8216
G1 X98.01 Y111.604 E12.85162
G1 X98.238 Y110.73 E12.88166
G1 X98.524 Y109.926 E12.91005
G1 X98.591 Y109.76 E12.916
G1 X98.966 Y108.939 E12.94602
G1 X99.224 Y108.466 E12.96394
G1 X99.33 Y108.283 E12.97097
G1 X99.817 Y107.522 E13.00102
G1 X100.369 Y106.807 E13.03107
G1 X100.847 Y106.28 E13.05473
G1 X100.994 Y106.129 E13.06174
G1 F2700 E8.06174
;MESH:test1.stl
G0 F6000 X109.764 Y120.321
G0 X110.45 Y121.16
G0 X109.209 Y123.148
G0 X108.81 Y124.271
G0 X108.706 Y125.47
G0 X108.819 Y126.117
G0 X109.107 Y126.149
G0 X109.206 Y125.894
G0 X109.96 Y122.788
G0 X111.793 Y121.695
G0 X112.769 Y121.395
G0 X113.785 Y121.355
G0 X114.781 Y121.578
G0 X115.687 Y122.048
G0 X116.441 Y122.736
G0 X116.993 Y123.593
G0 X117.306 Y124.565
G0 X117.358 Y125.584
G0 X117.148 Y126.581
G0 X116.69 Y127.493
G0 X116.011 Y128.255
G0 X114.88 Y129.379
G0 X115.14 Y129.861
;TYPE:WALL-INNER
G1 F2700 E13.06174
G1 F1200 X114.949 Y129.858 E13.06809
M73 P2
G1 X114.733 Y129.714 E13.07673
G1 X114.654 Y129.452 E13.08583
G1 X114.763 Y129.207 E13.09475
G1 X114.924 Y129.097 E13.10123
G1 X115.232 Y128.961 E13.11243
G1 X115.542 Y128.792 E13.12418
G1 X115.838 Y128.597 E13.13597
G1 X116.116 Y128.377 E13.14776
G1 X116.373 Y128.134 E13.15952
G1 X116.61 Y127.867 E13.1714
G1 X116.822 Y127.583 E13.18318
G1 X117.009 Y127.28 E13.19503
G1 X117.17 Y126.963 E13.20685
G1 X117.3 Y126.634 E13.21862
G1 X117.403 Y126.294 E13.23043
G1 X117.476 Y125.947 E13.24223
G1 X117.518 Y125.596 E13.25398
G1 X117.531 Y125.241 E13.2658
G1 X117.513 Y124.887 E13.27759
G1 X117.464 Y124.536 E13.28938
G1 X117.385 Y124.189 E13.30121
G1 X117.275 Y123.85 E13.31307
G1 X117.138 Y123.524 E13.32483
G1 X116.972 Y123.211 E13.33661
G1 X116.781 Y122.913 E13.34838
G1 X116.563 Y122.632 E13.36021
G1 X116.322 Y122.372 E13.372
