;FLAVOR:Marlin
M73 P0
M73 R38
;TIME:2282
;Filament used: 1.52565m
;Layer height: 0.2
;MINX:83.5
;MINY:87.5
;MINZ:0.2
;MAXX:145.5
;MAXY:149.5
;MAXZ:2.8
;POSTPROCESSED
;Generated with Cura_SteamEngine 5.0.0
M140 S50
M105
M190 S50
M104 S215
M105
M109 S215
M82 ;absolute extrusion mode
; Ender 3 Custom Start G-code
G92 E0 ; Reset Extruder
G28 ; Home all axes
G1 Z2.0 F3000 ; Move Z Axis up little to prevent scratching of Heat Bed
G1 X0.1 Y20 Z0.3 F5000.0 ; Move to start position
G1 X0.1 Y200.0 Z0.3 F1500.0 E15 ; Draw the first line
G1 X0.4 Y200.0 Z0.3 F5000.0 ; Move to side a little
G1 X0.4 Y20 Z0.3 F1500.0 E30 ; Draw the second line
G92 E0 ; Reset Extruder
G1 Z2.0 F3000 ; Move Z Axis up little to prevent scratching of Heat Bed
G1 X5 Y20 Z0.3 F5000.0 ; Move over to prevent blob squish
G92 E0
G92 E0
G1 F2700 E-5
;LAYER_COUNT:14
;LAYER:0
M107
G0 F6000 X86.698 Y90.764 Z0.2
G0 X83.501 Y99.025
;TYPE:SKIRT
G1 F2700 E0
G1 F1200 X83.51 Y98.36 E0.02212
G1 X83.563 Y97.424 E0.0533
G1 X83.695 Y96.495 E0.08451
G1 X83.906 Y95.581 E0.11571
G1 X84.194 Y94.689 E0.14689
G1 X84.557 Y93.824 E0.17809
G1 X84.992 Y92.993 E0.20928
G1 X85.496 Y92.203 E0.24045
G1 X86.066 Y91.458 E0.27165
G1 X86.698 Y90.764 E0.30287
G1 X87.386 Y90.127 E0.33405
G1 X88.126 Y89.551 E0.36524
G1 X88.912 Y89.039 E0.39644
G1 X89.739 Y88.597 E0.42763
G1 X90.601 Y88.227 E0.45883
G1 X91.491 Y87.931 E0.49003
G1 X92.403 Y87.713 E0.52122
G1 X93.33 Y87.572 E0.5524
G1 X94.201 Y87.513 E0.58144
G1 X94.83 Y87.5 E0.60236
G1 X133.793 Y87.5 E1.89828
G1 X134.649 Y87.511 E1.92675
G1 X135.585 Y87.565 E1.95793
G1 X136.513 Y87.697 E1.98911
G1 X137.427 Y87.909 E2.02032
G1 X138.319 Y88.198 E2.0515
G1 X139.184 Y88.561 E2.0827
G1 X140.014 Y88.997 E2.11389
G1 X140.805 Y89.502 E2.1451
G1 X141.549 Y90.073 E2.17629
G1 X142.242 Y90.705 E2.20749
G1 X142.879 Y91.393 E2.23867
G1 X143.454 Y92.134 E2.26987
G1 X143.965 Y92.92 E2.30105
G1 X144.407 Y93.748 E2.33227
G1 X144.776 Y94.61 E2.36346
G1 X145.071 Y95.5 E2.39464
G1 X145.289 Y96.412 E2.42583
G1 X145.429 Y97.34 E2.45704
G1 X145.487 Y98.201 E2.48574
G1 X145.5 Y98.83 E2.50667
G1 X145.499 Y137.9 E3.80614
G1 X145.49 Y138.627 E3.83033
G1 X145.439 Y139.564 E3.86154
G1 X145.307 Y140.492 E3.89271
G1 X145.098 Y141.406 E3.9239
M73 P1
G1 X144.811 Y142.299 E3.95509
G1 X144.449 Y143.165 E3.98631
G1 X144.015 Y143.996 E4.01749
G1 X143.511 Y144.787 E4.04869
G1 X142.942 Y145.532 E4.07987
G1 X142.311 Y146.227 E4.11109
G1 X141.624 Y146.865 E4.14227
G1 X140.885 Y147.442 E4.17346
G1 X140.099 Y147.954 E4.20466
G1 X139.273 Y148.397 E4.23583
G1 X138.411 Y148.769 E4.26706
G1 X137.522 Y149.065 E4.29822
G1 X136.61 Y149.285 E4.32943
G1 X135.683 Y149.426 E4.36061
G1 X134.799 Y149.487 E4.39008
G1 X134.17 Y149.5 E4.41101
G1 X95.065 Y149.499 E5.71165
G1 X94.367 Y149.49 E5.73486
G1 X93.431 Y149.438 E5.76604
G1 X92.502 Y149.306 E5.79725
G1 X91.588 Y149.096 E5.82845
G1 X90.695 Y148.809 E5.85964
G1 X89.83 Y148.446 E5.89084
G1 X88.999 Y148.012 E5.92202
G1 X88.208 Y147.508 E5.95322
G1 X87.463 Y146.938 E5.98442
G1 X86.769 Y146.307 E6.01562
G1 X86.132 Y145.62 E6.04678
G1 X85.555 Y144.88 E6.07799
G1 X85.043 Y144.094 E6.10919
G1 X84.6 Y143.267 E6.14039
G1 X84.229 Y142.406 E6.17157
G1 X83.933 Y141.516 E6.20277
G1 X83.714 Y140.604 E6.23396
G1 X83.573 Y139.677 E6.26515
G1 X83.513 Y138.788 E6.29479
G1 X83.5 Y138.158 E6.31575
G1 X83.501 Y99.025 E7.61731
G0 F6000 X83.901 Y99.031
G1 F1200 X83.91 Y98.366 E7.63943
G1 X83.962 Y97.446 E7.67008
G1 X84.094 Y96.535 E7.7007
G1 X84.305 Y95.639 E7.73132
G1 X84.592 Y94.764 E7.76194
G1 X84.955 Y93.918 E7.79256
G1 X85.389 Y93.106 E7.82319
G1 X85.892 Y92.335 E7.8538
G1 X86.461 Y91.611 E7.88443
G1 X87.089 Y90.939 E7.91502
G1 X87.774 Y90.323 E7.94566
G1 X88.51 Y89.77 E7.97628
M73 P2
G1 X89.291 Y89.282 E8.00691
G1 X90.111 Y88.864 E8.03752
G1 X90.965 Y88.519 E8.06816
G1 X91.845 Y88.249 E8.09877
G1 X92.745 Y88.057 E8.12938
G1 X93.659 Y87.943 E8.16002
G1 X94.212 Y87.913 E8.17844
G1 X94.83 Y87.9 E8.199
G1 X133.793 Y87.9 E9.49491
G1 X134.643 Y87.911 E9.52318
G1 X135.562 Y87.964 E9.5538
G1 X136.473 Y88.097 E9.58442
G1 X137.369 Y88.308 E9.61504
G1 X138.243 Y88.596 E9.64565
G1 X139.09 Y88.959 E9.6763
G1 X139.901 Y89.394 E9.7069
G1 X140.671 Y89.898 E9.73751
G1 X141.395 Y90.467 E9.76814
G1 X142.067 Y91.097 E9.79878
G1 X142.682 Y91.782 E9.8294
G1 X143.235 Y92.518 E9.86002
G1 X143.722 Y93.299 E9.89063
G1 X144.139 Y94.12 E9.92125
G1 X144.484 Y94.974 E9.95189
G1 X144.753 Y95.854 E9.98249
G1 X144.945 Y96.755 E10.01313
G1 X145.058 Y97.668 E10.04373
G1 X145.096 Y98.532 E10.0725
G1 X145.099 Y137.895 E11.38172
G1 X145.09 Y138.622 E11.4059
G1 X145.039 Y139.541 E11.43651
G1 X144.908 Y140.453 E11.46716
G1 X144.698 Y141.349 E11.49776
G1 X144.412 Y142.224 E11.52838
G1 X144.051 Y143.071 E11.55901
G1 X143.617 Y143.883 E11.58963
G1 X143.115 Y144.655 E11.62026
G1 X142.547 Y145.38 E11.65089
G1 X141.919 Y146.053 E11.68151
G1 X141.235 Y146.669 E11.71212
G1 X140.5 Y147.223 E11.74273
G1 X139.72 Y147.712 E11.77335
G1 X138.9 Y148.131 E11.80398
G1 X138.047 Y148.477 E11.8346
G1 X137.167 Y148.748 E11.86522
G1 X136.267 Y148.941 E11.89584
G1 X135.353 Y149.056 E11.92648
G1 X134.788 Y149.087 E11.9453
G1 X134.17 Y149.1 E11.96586
G1 X95.07 Y149.099 E13.26633
G1 X94.372 Y149.09 E13.28954
M73 P3
G1 X93.453 Y149.038 E13.32016
G1 X92.542 Y148.907 E13.35077
G1 X91.646 Y148.697 E13.38138
G1 X90.771 Y148.41 E13.41201
G1 X89.924 Y148.048 E13.44264
G1 X89.112 Y147.614 E13.47327
G1 X88.341 Y147.112 E13.50387
G1 X87.616 Y146.544 E13.5345
G1 X86.943 Y145.915 E13.56514
G1 X86.328 Y145.231 E13.59573
G1 X85.774 Y144.496 E13.62634
G1 X85.286 Y143.715 E13.65698
G1 X84.867 Y142.895 E13.6876
G1 X84.521 Y142.042 E13.71822
G1 X84.251 Y141.162 E13.74883
G1 X84.058 Y140.261 E13.77948
G1 X83.944 Y139.348 E13.81008
G1 X83.913 Y138.777 E13.8291
G1 X83.9 Y138.158 E13.8497
G1 X83.901 Y99.031 E15.15107
G0 F6000 X84.301 Y99.036
G1 F1200 X84.31 Y98.371 E15.17319
G1 X84.362 Y97.469 E15.20324
G1 X84.494 Y96.576 E15.23326
G1 X84.704 Y95.698 E15.26329
G1 X84.991 Y94.841 E15.29335
G1 X85.353 Y94.014 E15.32337
G1 X85.786 Y93.222 E15.35339
G1 X86.288 Y92.471 E15.38344
G1 X86.855 Y91.767 E15.4135
G1 X87.481 Y91.117 E15.44352
G1 X88.162 Y90.524 E15.47355
G1 X88.894 Y89.994 E15.50361
G1 X89.669 Y89.531 E15.53364
G1 X90.482 Y89.138 E15.56367
G1 X91.327 Y88.818 E15.59372
G1 X92.196 Y88.575 E15.62373
G1 X93.084 Y88.409 E15.65378
G1 X94.223 Y88.313 E15.6918
G1 X94.83 Y88.3 E15.71199
G1 X133.793 Y88.3 E17.00791
G1 X134.637 Y88.311 E17.03598
G1 X135.539 Y88.364 E17.06603
G1 X136.432 Y88.496 E17.09606
G1 X137.31 Y88.707 E17.12609
G1 X138.166 Y88.995 E17.15613
G1 X138.993 Y89.357 E17.18616
G1 X139.785 Y89.792 E17.21621
G1 X140.536 Y90.294 E17.24625
G1 X141.239 Y90.861 E17.27629
G1 X141.889 Y91.488 E17.30633
G1 X142.481 Y92.17 E17.33637
M73 P4
G1 X143.011 Y92.901 E17.3664
G1 X143.473 Y93.677 E17.39644
G1 X143.866 Y94.49 E17.42647
G1 X144.184 Y95.335 E17.4565
G1 X144.427 Y96.205 E17.48655
G1 X144.592 Y97.093 E17.51659
G1 X144.687 Y98.223 E17.5543
G1 X144.7 Y98.83 E17.5745
G1 X144.699 Y137.89 E18.87364
G1 X144.69 Y138.617 E18.89782
G1 X144.639 Y139.519 E18.92787
G1 X144.508 Y140.413 E18.95792
G1 X144.299 Y141.291 E18.98794
G1 X144.013 Y142.148 E19.01799
G1 X143.652 Y142.976 E19.04803
G1 X143.22 Y143.768 E19.07804
G1 X142.719 Y144.52 E19.10809
G1 X142.153 Y145.224 E19.13813
G1 X141.528 Y145.875 E19.16815
G1 X140.847 Y146.469 E19.19821
G1 X140.116 Y147 E19.22826
G1 X139.342 Y147.464 E19.25827
G1 X138.529 Y147.858 E19.28832
G1 X137.685 Y148.178 E19.31834
G1 X136.815 Y148.423 E19.3484
G1 X135.928 Y148.589 E19.37842
G1 X134.777 Y148.687 E19.41684
G1 X134.17 Y148.7 E19.43703
G1 X95.075 Y148.699 E20.73734
G1 X94.377 Y148.69 E20.76055
G1 X93.476 Y148.639 E20.79057
G1 X92.582 Y148.507 E20.82063
G1 X91.704 Y148.298 E20.85064
G1 X90.847 Y148.011 E20.8807
G1 X90.02 Y147.65 E20.91072
G1 X89.227 Y147.217 E20.94077
G1 X88.476 Y146.716 E20.97079
G1 X87.772 Y146.15 E21.00084
G1 X87.121 Y145.524 E21.03088
G1 X86.528 Y144.843 E21.06091
G1 X85.998 Y144.112 E21.09094
G1 X85.534 Y143.337 E21.12099
G1 X85.14 Y142.524 E21.15103
G1 X84.82 Y141.68 E21.18106
G1 X84.576 Y140.81 E21.21111
G1 X84.41 Y139.922 E21.24116
G1 X84.313 Y138.767 E21.27971
G1 X84.3 Y138.158 E21.29997
G1 X84.301 Y99.036 E22.60117
G1 F2700 E17.60117
;MESH:bny.png
M73 P5
G0 F6000 X93.835 Y99.036
G0 X94.93 Y99.036
G0 X95.18 Y99.18
G1 F2700 E22.60117
G0 F6000 X94.7 Y98.7
;TYPE:WALL-OUTER
G1 F1200 X94.7 Y138.3 E23.91827
G1 X134.3 Y138.3 E25.23537
G1 X134.3 Y98.7 E26.55247
G1 X94.7 Y98.7 E27.86957
G1 F2700 E22.86957
G0 F6000 X95.18 Y99.18
G0 X133.328 Y99.672
G0 X133.82 Y137.82
G1 F2700 E27.86957
G0 F6000 X133.9 Y137.9
;TYPE:WALL-INNER
G1 F1200 X133.9 Y99.1 E29.16007
G1 X95.1 Y99.1 E30.45056
G1 X95.1 Y137.9 E31.74105
G1 X133.9 Y137.9 E33.03155
G0 F6000 X133.5 Y137.5
G1 F1200 X133.5 Y99.5 E34.29543
G1 X95.5 Y99.5 E35.55932
G1 X95.5 Y137.5 E36.8232
G1 X133.5 Y137.5 E38.08709
G0 F6000 X133.4 Y118.5
G0 X133.14 Y118.5
;TYPE:SKIN
G1 F1200 X133.14 Y99.86 E38.70706
G1 X95.86 Y99.86 E39.94699
G1 X95.86 Y137.14 E41.18693
G1 X133.14 Y137.14 E42.42687
G1 X133.14 Y118.5 E43.04684
G0 F6000 X133.4 Y118.5
G0 X133.4 Y100.129
G0 X132.939 Y100.129
G1 F1200 X132.869 Y100.059 E43.05013
G0 F6000 X132.303 Y100.059
G1 F1200 X132.939 Y100.695 E43.08005
G0 F6000 X132.939 Y101.261
G1 F1200 X131.738 Y100.059 E43.13656
G0 F6000 X131.172 Y100.059
G1 F1200 X132.939 Y101.826 E43.21968
G0 F6000 X132.939 Y102.392
G1 F1200 X130.606 Y100.059 E43.32941
G0 F6000 X130.041 Y100.059
G1 F1200 X132.939 Y102.958 E43.46575
G0 F6000 X132.939 Y103.523
G1 F1200 X129.475 Y100.059 E43.62869
G0 F6000 X128.909 Y100.059
M73 P6
G1 F1200 X132.939 Y104.089 E43.81825
G0 F6000 X132.939 Y104.655
G1 F1200 X128.344 Y100.059 E44.0344
G0 F6000 X127.778 Y100.059
G1 F1200 X132.939 Y105.221 E44.27718
G0 F6000 X132.939 Y105.786
G1 F1200 X127.212 Y100.059 E44.54657
G0 F6000 X126.647 Y100.059
G1 F1200 X132.939 Y106.352 E44.84255
G0 F6000 X132.939 Y106.918
G1 F1200 X126.081 Y100.059 E45.16515
G0 F6000 X125.515 Y100.059
G1 F1200 X132.939 Y107.483 E45.51435
G0 F6000 X132.939 Y108.049
G1 F1200 X124.95 Y100.059 E45.89015
G0 F6000 X124.384 Y100.059
G1 F1200 X132.939 Y108.615 E46.29258
G0 F6000 X132.939 Y109.18
G1 F1200 X123.818 Y100.059 E46.7216
G0 F6000 X123.252 Y100.059
G1 F1200 X132.939 Y109.746 E47.17725
G0 F6000 X132.939 Y110.312
G1 F1200 X122.687 Y100.059 E47.65949
G0 F6000 X122.121 Y100.059
G1 F1200 X132.939 Y110.877 E48.16834
G0 F6000 X132.939 Y111.443
G1 F1200 X121.555 Y100.059 E48.70381
G0 F6000 X120.99 Y100.059
G1 F1200 X132.939 Y112.009 E49.26587
G0 F6000 X132.939 Y112.574
G1 F1200 X120.424 Y100.059 E49.85454
G0 F6000 X119.858 Y100.059
G1 F1200 X132.939 Y113.14 E50.46983
G0 F6000 X132.939 Y113.706
G1 F1200 X119.293 Y100.059 E51.11172
G0 F6000 X118.727 Y100.059
G1 F1200 X132.939 Y114.271 E51.78021
G0 F6000 X132.939 Y114.837
G1 F1200 X118.161 Y100.059 E52.47532
G0 F6000 X117.596 Y100.059
G1 F1200 X132.939 Y115.403 E53.19703
G0 F6000 X132.939 Y115.969
G1 F1200 X117.03 Y100.059 E53.94537
G0 F6000 X116.464 Y100.059
G1 F1200 X132.939 Y116.534 E54.7203
G0 F6000 X132.939 Y117.1
G1 F1200 X115.899 Y100.059 E55.52183
G0 F6000 X115.333 Y100.059
G1 F1200 X132.939 Y117.666 E56.34999
G0 F6000 X132.939 Y118.231
G1 F1200 X114.767 Y100.059 E57.20474
M73 P7
G0 F6000 X114.201 Y100.059
G1 F1200 X132.939 Y118.797 E58.08612
G0 F6000 X132.939 Y119.363
G1 F1200 X113.636 Y100.059 E58.9941
G0 F6000 X113.07 Y100.059
G1 F1200 X132.939 Y119.928 E59.92868
G0 F6000 X132.939 Y120.494
G1 F1200 X112.504 Y100.059 E60.88988
G0 F6000 X111.939 Y100.059
G1 F1200 X132.939 Y121.06 E61.87768
G0 F6000 X132.939 Y121.625
G1 F1200 X111.373 Y100.059 E62.89207
G0 F6000 X110.807 Y100.059
G1 F1200 X132.939 Y122.191 E63.9331
G0 F6000 X132.939 Y122.757
G1 F1200 X110.242 Y100.059 E65.00072
G0 F6000 X109.676 Y100.059
G1 F1200 X132.939 Y123.322 E66.09494
G0 F6000 X132.939 Y123.888
G1 F1200 X109.11 Y100.059 E67.21578
G0 F6000 X108.545 Y100.059
G1 F1200 X132.939 Y124.454 E68.36322
G0 F6000 X132.939 Y125.02
G1 F1200 X107.979 Y100.059 E69.53729
G0 F6000 X107.413 Y100.059
G1 F1200 X132.939 Y125.585 E70.73795
G0 F6000 X132.939 Y126.151
G1 F1200 X106.848 Y100.059 E71.96522
G0 F6000 X106.282 Y100.059
G1 F1200 X132.939 Y126.717 E73.2191
G0 F6000 X132.939 Y127.282
G1 F1200 X105.716 Y100.059 E74.49959
G0 F6000 X105.151 Y100.059
G1 F1200 X132.939 Y127.848 E75.80668
G0 F6000 X132.939 Y128.414
G1 F1200 X104.585 Y100.059 E77.14039
G0 F6000 X104.019 Y100.059
G1 F1200 X132.939 Y128.979 E78.50069
G0 F6000 X132.939 Y129.545
G1 F1200 X103.453 Y100.059 E79.88762
G0 F6000 X102.888 Y100.059
G1 F1200 X132.939 Y130.111 E81.30115
G0 F6000 X132.939 Y130.676
G1 F1200 X102.322 Y100.059 E82.74128
G0 F6000 X101.756 Y100.059
G1 F1200 X132.939 Y131.242 E84.20804
G0 F6000 X132.939 Y131.808
G1 F1200 X101.191 Y100.059 E85.70139
G0 F6000 X100.625 Y100.059
G1 F1200 X132.939 Y132.373 E87.22134
G0 F6000 X132.939 Y132.939
G1 F1200 X100.059 Y100.059 E88.76792
M73 P8
G0 F6000 X99.494 Y100.059
G1 F1200 X132.939 Y133.505 E90.34109
G0 F6000 X132.939 Y134.07
G1 F1200 X98.928 Y100.059 E91.94086
G0 F6000 X98.362 Y100.059
G1 F1200 X132.939 Y134.636 E93.56726
G0 F6000 X132.939 Y135.202
G1 F1200 X97.797 Y100.059 E95.22025
G0 F6000 X97.231 Y100.059
G1 F1200 X132.939 Y135.768 E96.89987
G0 F6000 X132.939 Y136.333
G1 F1200 X96.665 Y100.059 E98.60609
G0 F6000 X96.1 Y100.059
G1 F1200 X132.939 Y136.899 E100.33891
G0 F6000 X132.413 Y136.939
G1 F1200 X96.059 Y100.585 E102.04889
G0 F6000 X96.059 Y101.15
G1 F1200 X131.847 Y136.939 E103.73227
G0 F6000 X131.282 Y136.939
G1 F1200 X96.059 Y101.716 E105.38905
G0 F6000 X96.059 Y102.282
G1 F1200 X130.716 Y136.939 E107.01921
G0 F6000 X130.15 Y136.939
G1 F1200 X96.059 Y102.847 E108.62277
G0 F6000 X96.059 Y103.413
G1 F1200 X129.585 Y136.939 E110.19973
G0 F6000 X129.019 Y136.939
G1 F1200 X96.059 Y103.979 E111.75007
G0 F6000 X96.059 Y104.545
G1 F1200 X128.453 Y136.939 E113.27378
G0 F6000 X127.888 Y136.939
G1 F1200 X96.059 Y105.11 E114.77092
G0 F6000 X96.059 Y105.676
G1 F1200 X127.322 Y136.939 E116.24144
G0 F6000 X126.756 Y136.939
G1 F1200 X96.059 Y106.242 E117.68533
G0 F6000 X96.059 Y106.807
G1 F1200 X126.19 Y136.939 E119.10262
G0 F6000 X125.625 Y136.939
G1 F1200 X96.059 Y107.373 E120.49332
G0 F6000 X96.059 Y107.939
G1 F1200 X125.059 Y136.939 E121.85739
G0 F6000 X124.493 Y136.939
G1 F1200 X96.059 Y108.504 E123.19486
G0 F6000 X96.059 Y109.07
G1 F1200 X123.928 Y136.939 E124.50573
G0 F6000 X123.362 Y136.939
G1 F1200 X96.059 Y109.636 E125.78998
G0 F6000 X96.059 Y110.201
G1 F1200 X122.796 Y136.939 E127.04763
G0 F6000 X122.231 Y136.939
M73 P9
G1 F1200 X96.059 Y110.767 E128.27868
G0 F6000 X96.059 Y111.333
G1 F1200 X121.665 Y136.939 E129.48311
G0 F6000 X121.099 Y136.939
G1 F1200 X96.059 Y111.898 E130.66094
G0 F6000 X96.059 Y112.464
G1 F1200 X120.534 Y136.939 E131.81217
G0 F6000 X119.968 Y136.939
G1 F1200 X96.059 Y113.03 E132.93677
G0 F6000 X96.059 Y113.595
G1 F1200 X119.402 Y136.939 E134.03478
G0 F6000 X118.837 Y136.939
G1 F1200 X96.059 Y114.161 E135.10619
G0 F6000 X96.059 Y114.727
G1 F1200 X118.271 Y136.939 E136.15097
G0 F6000 X117.705 Y136.939
G1 F1200 X96.059 Y115.293 E137.16913
G0 F6000 X96.059 Y115.858
G1 F1200 X117.14 Y136.939 E138.16072
G0 F6000 X116.574 Y136.939
G1 F1200 X96.059 Y116.424 E139.12568
G0 F6000 X96.059 Y116.99
G1 F1200 X116.008 Y136.939 E140.06402
G0 F6000 X115.442 Y136.939
G1 F1200 X96.059 Y117.555 E140.97576
G0 F6000 X96.059 Y118.121
G1 F1200 X114.877 Y136.939 E141.8609
G0 F6000 X114.311 Y136.939
G1 F1200 X96.059 Y118.687 E142.71942
G0 F6000 X96.059 Y119.252
G1 F1200 X113.745 Y136.939 E143.55134
