;FLAVOR:Marlin
M73 P0
M73 R40
;TIME:2425
;Filament used: 1.03515m
;Layer height: 0.16
;MINX:86.19
;MINY:92.5
;MINZ:0.2
;MAXX:142.81
;MAXY:144.5
;MAXZ:7.88
;POSTPROCESSED
;Generated with Cura_SteamEngine 4.11.0
M140 S50
M105
M190 S50
M104 S215
M105
M109 S215
M82 ;absolute extrusion mode
; Ender 3 Custom Start G-code
G92 E0 ; Reset Extruder
G28 ; Home all axes
G1 Z2.0 F3000 ; Move Z Axis up little to prevent scratching of Heat Bed
G1 X0.1 Y20 Z0.3 F5000.0 ; Move to start position
G1 X0.1 Y200.0 Z0.3 F1500.0 E15 ; Draw the first line
G1 X0.4 Y200.0 Z0.3 F5000.0 ; Move to side a little
G1 X0.4 Y20 Z0.3 F1500.0 E30 ; Draw the second line
G92 E0 ; Reset Extruder
G1 Z2.0 F3000 ; Move Z Axis up little to prevent scratching of Heat Bed
G1 X5 Y20 Z0.3 F5000.0 ; Move over to prevent blob squish
G92 E0
G92 E0
G1 F2700 E-5
;LAYER_COUNT:67
;LAYER:0
M107
G0 F6000 X98.13 Y95.671 Z0.2
;TYPE:SKIRT
G1 F2700 E0
G1 F1200 X98.825 Y95.042 E0.03118
G1 X99.572 Y94.475 E0.06237
G1 X100.365 Y93.973 E0.09358
G1 X101.197 Y93.541 E0.12477
G1 X102.063 Y93.181 E0.15596
G1 X102.957 Y92.896 E0.18717
G1 X103.871 Y92.689 E0.21834
G1 X104.8 Y92.56 E0.24953
G1 X105.687 Y92.511 E0.27908
G1 X106.536 Y92.5 E0.30732
G1 X122.453 Y92.5 E0.83672
G1 X123.311 Y92.511 E0.86526
G1 X124.247 Y92.564 E0.89644
G1 X125.176 Y92.697 E0.92765
G1 X126.089 Y92.909 E0.95883
G1 X126.982 Y93.197 E0.99004
G1 X127.846 Y93.561 E1.02122
G1 X128.677 Y93.997 E1.05243
G1 X129.467 Y94.502 E1.08362
G1 X130.211 Y95.072 E1.11479
G1 X130.904 Y95.704 E1.14599
G1 X131.541 Y96.393 E1.1772
G1 X132.117 Y97.133 E1.20838
G1 X132.598 Y97.869 E1.23763
G1 X132.954 Y98.465 E1.26072
G1 X141.09 Y112.556 E1.8019
G1 X141.412 Y113.132 E1.82385
G1 X141.834 Y113.97 E1.85505
G1 X142.183 Y114.84 E1.88623
G1 X142.457 Y115.737 E1.91743
G1 X142.654 Y116.654 E1.94862
G1 X142.772 Y117.585 E1.97984
G1 X142.81 Y118.522 E2.01103
G1 X142.768 Y119.459 E2.04222
G1 X142.647 Y120.389 E2.07341
G1 X142.446 Y121.305 E2.10461
G1 X142.169 Y122.201 E2.1358
G1 X141.816 Y123.07 E2.167
G1 X141.411 Y123.869 E2.19679
G1 X140.996 Y124.608 E2.22498
G1 X132.981 Y138.488 E2.75807
G1 X132.601 Y139.125 E2.78274
G1 X132.086 Y139.91 E2.81397
G1 X131.507 Y140.647 E2.84514
G1 X130.867 Y141.333 E2.87634
G1 X130.171 Y141.961 E2.90752
G1 X129.424 Y142.528 E2.93871
G1 X128.631 Y143.029 E2.96991
G1 X127.799 Y143.461 E3.00109
G1 X126.932 Y143.821 E3.03232
G1 X126.039 Y144.105 E3.06348
G1 X125.124 Y144.312 E3.09469
G1 X124.195 Y144.441 E3.12588
G1 X123.313 Y144.489 E3.15526
G1 X122.464 Y144.5 E3.1835
G1 X106.39 Y144.499 E3.71812
G1 X105.689 Y144.489 E3.74144
G1 X104.753 Y144.436 E3.77262
G1 X103.824 Y144.303 E3.80384
G1 X102.911 Y144.091 E3.83501
G1 X102.018 Y143.803 E3.86622
G1 X101.154 Y143.439 E3.8974
G1 X100.323 Y143.003 E3.92861
G1 X99.533 Y142.498 E3.9598
G1 X98.789 Y141.928 E3.99097
G1 X98.096 Y141.296 E4.02217
G1 X97.459 Y140.607 E4.05338
G1 X96.883 Y139.867 E4.08457
G1 X96.398 Y139.124 E4.11408
G1 X95.936 Y138.346 E4.14417
G1 X87.914 Y124.451 E4.67781
G1 X87.592 Y123.876 E4.69973
G1 X87.169 Y123.039 E4.73092
G1 X86.819 Y122.168 E4.76214
G1 X86.545 Y121.272 E4.79331
G1 X86.347 Y120.355 E4.82451
G1 X86.229 Y119.425 E4.85569
G1 X86.19 Y118.487 E4.88691
G1 X86.231 Y117.55 E4.91811
G1 X86.352 Y116.62 E4.9493
G1 X86.552 Y115.704 E4.98049
G1 X86.828 Y114.808 E5.01167
G1 X87.181 Y113.939 E5.04287
G1 X87.585 Y113.139 E5.07267
G1 X88.004 Y112.391 E5.10119
G1 X95.966 Y98.603 E5.63075
G1 X96.397 Y97.879 E5.65877
G1 X96.911 Y97.094 E5.68998
G1 X97.49 Y96.356 E5.72118
G1 X98.13 Y95.671 E5.75236
G0 F6000 X98.446 Y95.92
G1 F1200 X99.133 Y95.307 E5.78298
G1 X99.87 Y94.755 E5.81361
G1 X100.652 Y94.27 E5.84422
G1 X101.474 Y93.854 E5.87486
G1 X102.328 Y93.511 E5.90547
G1 X103.209 Y93.243 E5.9361
G1 X104.11 Y93.053 E5.96672
G1 X105.024 Y92.942 E5.99734
G1 X105.692 Y92.911 E6.01959
G1 X106.536 Y92.9 E6.04766
G1 X122.453 Y92.9 E6.57706
G1 X123.305 Y92.911 E6.6054
G1 X124.224 Y92.964 E6.63602
G1 X125.135 Y93.097 E6.66664
G1 X126.031 Y93.308 E6.69726
G1 X126.906 Y93.596 E6.72789
G1 X127.752 Y93.959 E6.75851
G1 X128.563 Y94.394 E6.78912
G1 X129.334 Y94.898 E6.81976
G1 X130.058 Y95.467 E6.85039
G1 X130.73 Y96.096 E6.881
G1 X131.345 Y96.781 E6.91162
G1 X131.898 Y97.517 E6.94224
G1 X132.254 Y98.074 E6.96422
G1 X132.69 Y98.806 E6.99256
G1 X140.668 Y112.624 E7.52325
G1 X141.062 Y113.328 E7.55009
G1 X141.476 Y114.15 E7.5807
G1 X141.817 Y115.005 E7.61131
G1 X142.083 Y115.887 E7.64195
G1 X142.271 Y116.788 E7.67257
G1 X142.38 Y117.702 E7.70318
G1 X142.409 Y118.622 E7.7338
G1 X142.359 Y119.542 E7.76444
G1 X142.229 Y120.453 E7.79505
G1 X142.02 Y121.35 E7.82568
G1 X141.734 Y122.225 E7.8563
G1 X141.373 Y123.072 E7.88692
G1 X141.062 Y123.674 E7.90946
G1 X140.65 Y124.408 E7.93745
G1 X132.637 Y138.284 E8.4704
G1 X132.257 Y138.921 E8.49507
G1 X131.752 Y139.69 E8.52567
G1 X131.181 Y140.413 E8.55631
G1 X130.55 Y141.083 E8.58692
G1 X129.864 Y141.696 E8.61752
G1 X129.126 Y142.247 E8.64815
G1 X128.344 Y142.733 E8.67877
G1 X127.522 Y143.148 E8.7094
G1 X126.668 Y143.491 E8.74001
G1 X125.787 Y143.758 E8.77063
G1 X124.886 Y143.948 E8.80126
G1 X123.972 Y144.058 E8.83187
G1 X123.308 Y144.089 E8.85398
G1 X122.464 Y144.1 E8.88206
G1 X106.396 Y144.099 E9.41648
G1 X105.695 Y144.089 E9.4398
G1 X104.776 Y144.036 E9.47042
G1 X103.865 Y143.903 E9.50104
G1 X102.969 Y143.692 E9.53165
G1 X102.094 Y143.404 E9.56229
G1 X101.248 Y143.041 E9.59291
G1 X100.437 Y142.606 E9.62352
G1 X99.666 Y142.102 E9.65416
G1 X98.942 Y141.533 E9.68478
G1 X98.27 Y140.904 E9.7154
G1 X97.655 Y140.219 E9.74602
G1 X97.102 Y139.483 E9.77663
G1 X96.742 Y138.919 E9.79889
G1 X96.282 Y138.146 E9.82881
G1 X88.263 Y124.255 E10.36228
G1 X87.941 Y123.68 E10.3842
G1 X87.527 Y122.858 E10.41481
G1 X87.185 Y122.003 E10.44544
G1 X86.919 Y121.122 E10.47605
G1 X86.73 Y120.221 E10.50667
G1 X86.621 Y119.307 E10.53728
G1 X86.591 Y118.387 E10.5679
G1 X86.641 Y117.467 E10.59854
G1 X86.77 Y116.556 E10.62915
G1 X86.978 Y115.659 E10.65977
G1 X87.263 Y114.784 E10.69038
G1 X87.623 Y113.936 E10.72102
G1 X87.935 Y113.334 E10.74357
G1 X88.351 Y112.591 E10.77189
G1 X96.386 Y98.677 E11.3063
G1 X96.74 Y98.083 E11.3293
G1 X97.246 Y97.314 E11.35991
G1 X97.816 Y96.591 E11.39054
G1 X98.446 Y95.92 E11.42115
G0 F6000 X98.763 Y96.171
G1 F1200 X99.44 Y95.573 E11.45119
G1 X100.167 Y95.037 E11.48123
G1 X100.938 Y94.568 E11.51125
G1 X101.749 Y94.169 E11.54131
G1 X102.591 Y93.843 E11.57134
G1 X103.459 Y93.593 E11.60138
G1 X104.345 Y93.421 E11.6314
G1 X105.244 Y93.328 E11.66146
G1 X105.698 Y93.311 E11.67657
G1 X106.536 Y93.3 E11.70445
G1 X122.453 Y93.3 E12.23385
G1 X123.299 Y93.311 E12.26199
G1 X124.201 Y93.364 E12.29204
G1 X125.094 Y93.496 E12.32207
G1 X125.973 Y93.707 E12.35213
G1 X126.829 Y93.995 E12.38217
G1 X127.656 Y94.357 E12.4122
G1 X128.448 Y94.791 E12.44224
G1 X129.198 Y95.294 E12.47227
G1 X129.901 Y95.861 E12.50231
G1 X130.551 Y96.487 E12.53233
G1 X131.144 Y97.169 E12.56239
G1 X131.911 Y98.279 E12.60726
G1 X132.267 Y98.875 E12.63035
G1 X140.391 Y112.947 E13.17078
G1 X140.713 Y113.523 E13.19273
G1 X141.119 Y114.33 E13.22278
G1 X141.451 Y115.17 E13.25282
G1 X141.708 Y116.035 E13.28283
G1 X141.887 Y116.921 E13.3129
G1 X141.987 Y117.818 E13.34292
G1 X142.008 Y118.721 E13.37296
G1 X141.948 Y119.622 E13.40299
G1 X141.809 Y120.514 E13.43302
G1 X141.592 Y121.391 E13.46307
G1 X141.298 Y122.245 E13.49311
G1 X140.929 Y123.069 E13.52314
G1 X140.713 Y123.478 E13.53852
G1 X140.303 Y124.208 E13.56637
G1 X132.294 Y138.079 E14.0991
G1 X131.914 Y138.716 E14.12377
G1 X131.417 Y139.47 E14.15381
G1 X130.856 Y140.177 E14.18382
G1 X130.234 Y140.832 E14.21387
G1 X129.557 Y141.43 E14.24391
G1 X128.83 Y141.965 E14.27393
G1 X128.058 Y142.434 E14.30398
G1 X127.247 Y142.833 E14.33404
G1 X126.405 Y143.158 E14.36406
G1 X125.537 Y143.408 E14.3941
G1 X124.65 Y143.58 E14.42415
G1 X123.302 Y143.689 E14.46913
G1 X122.464 Y143.7 E14.49701
G1 X106.402 Y143.699 E15.03123
G1 X105.701 Y143.689 E15.05455
G1 X104.799 Y143.636 E15.0846
G1 X103.906 Y143.504 E15.11463
G1 X103.027 Y143.293 E15.14469
G1 X102.171 Y143.005 E15.17473
G1 X101.344 Y142.643 E15.20476
G1 X100.552 Y142.209 E15.23479
G1 X99.802 Y141.706 E15.26483
G1 X99.099 Y141.139 E15.29487
G1 X98.449 Y140.513 E15.32488
G1 X97.856 Y139.831 E15.35494
G1 X97.327 Y139.099 E15.38498
G1 X97.085 Y138.714 E15.40011
G1 X96.629 Y137.946 E15.42981
G1 X88.612 Y124.06 E15.96311
G1 X88.29 Y123.485 E15.98503
G1 X87.884 Y122.678 E16.01508
G1 X87.551 Y121.839 E16.0451
G1 X87.294 Y120.973 E16.07514
G1 X87.114 Y120.088 E16.10518
G1 X87.013 Y119.19 E16.13524
G1 X86.992 Y118.288 E16.16525
G1 X87.051 Y117.386 E16.19531
G1 X87.189 Y116.494 E16.22533
G1 X87.406 Y115.617 E16.25538
G1 X87.7 Y114.763 E16.28542
G1 X88.067 Y113.938 E16.31545
G1 X88.284 Y113.529 E16.33085
G1 X88.697 Y112.791 E16.35898
G1 X96.73 Y98.882 E16.89321
G1 X97.084 Y98.288 E16.91621
G1 X97.58 Y97.534 E16.94622
G1 X98.141 Y96.826 E16.97627
G1 X98.763 Y96.171 E17.00631
G1 F2700 E12.00631
;MESH:bolt.stl
G0 F6000 X114.539 Y110.406
G0 X114.536 Y108.551
G0 X118.898 Y110.131
G0 X120.297 Y110.889
G0 X123.499 Y113.282
;TYPE:WALL-INNER
G1 F2700 E17.00631
G1 F1200 X123.278 Y112.964 E17.01919
G1 X122.88 Y112.45 E17.04081
G1 X122.633 Y112.167 E17.05331
G1 X122.435 Y111.95 E17.06308
G1 X122.18 Y111.689 E17.07521
G1 X121.949 Y111.47 E17.0858
G1 X121.695 Y111.239 E17.09722
G1 X121.429 Y111.021 E17.10866
G1 X121.171 Y110.814 E17.11966
G1 X120.899 Y110.62 E17.13077
G1 X120.606 Y110.421 E17.14255
M73 P1
G1 X120.34 Y110.251 E17.15305
G1 X119.756 Y109.919 E17.1754
G1 X119.494 Y109.792 E17.18508
G1 X119.125 Y109.618 E17.19865
G1 X118.881 Y109.516 E17.20744
G1 X118.455 Y109.355 E17.22259
G1 X118.231 Y109.277 E17.23048
G1 X117.556 Y109.083 E17.25384
G1 X117.366 Y109.044 E17.26029
G1 X116.832 Y108.931 E17.27845
G1 X116.686 Y108.909 E17.28336
G1 X116.044 Y108.831 E17.30487
G1 X115.913 Y108.822 E17.30923
G1 X115.555 Y108.805 E17.32115
G1 X115.303 Y108.773 E17.3296
G1 X114.535 Y108.741 E17.35517
G1 X113.764 Y108.767 E17.38083
G1 X112.998 Y108.854 E17.40647
G1 X112.243 Y109.005 E17.43208
G1 X111.503 Y109.211 E17.45763
G1 X110.779 Y109.476 E17.48327
G1 X110.056 Y109.81 E17.50976
G1 X109.366 Y110.2 E17.53612
G1 X108.71 Y110.643 E17.56245
G1 X108.092 Y111.137 E17.58876
G1 X107.521 Y111.677 E17.6149
G1 X107.307 Y111.911 E17.62545
G1 X106.993 Y112.263 E17.64114
G1 X106.789 Y112.523 E17.65213
G1 X106.514 Y112.889 E17.66735
G1 X106.323 Y113.182 E17.67899
G1 X106.094 Y113.544 E17.69323
G1 X105.913 Y113.869 E17.70561
G1 X105.725 Y114.229 E17.71912
G1 X105.558 Y114.594 E17.73247
G1 X105.413 Y114.941 E17.74497
G1 X105.268 Y115.343 E17.75919
G1 X105.162 Y115.669 E17.77059
G1 X105.038 Y116.114 E17.78595
G1 X104.97 Y116.406 E17.79593
G1 X104.874 Y116.903 E17.81276
G1 X104.837 Y117.147 E17.82097
G1 X104.775 Y117.698 E17.83941
G1 X104.761 Y117.881 E17.84552
G1 X104.741 Y118.495 E17.86595
G1 X104.741 Y118.595 E17.86927
G1 X104.757 Y118.975 E17.88192
G1 X104.75 Y119.238 E17.89068
G1 X104.779 Y119.981 E17.91541
G1 X104.871 Y120.742 E17.9409
G1 X105.022 Y121.49 E17.96628
G1 X105.229 Y122.224 E17.99165
G1 X105.492 Y122.942 E18.01708
G1 X105.808 Y123.634 E18.04238
G1 X105.922 Y123.848 E18.05045
G1 X106.128 Y124.225 E18.06474
G1 X106.485 Y124.787 E18.08688
G1 X106.877 Y125.321 E18.10891
G1 X107.141 Y125.645 E18.12281
G1 X107.313 Y125.843 E18.13154
G1 X107.59 Y126.141 E18.14507
G1 X107.786 Y126.336 E18.15426
G1 X108.074 Y126.611 E18.16751
G1 X108.585 Y127.046 E18.18983
G1 X108.896 Y127.279 E18.20275
G1 X109.137 Y127.454 E18.21266
G1 X109.45 Y127.661 E18.22514
G1 X109.716 Y127.826 E18.23555
G1 X110.031 Y128.008 E18.24765
G1 X110.329 Y128.165 E18.25886
G1 X110.644 Y128.323 E18.27058
G1 X111.276 Y128.594 E18.29345
G1 X111.593 Y128.708 E18.30465
G1 X111.94 Y128.829 E18.31687
G1 X112.247 Y128.921 E18.32753
G1 X112.636 Y129.023 E18.34091
G1 X112.929 Y129.093 E18.35093
G1 X113.623 Y129.219 E18.37439
G1 X114.342 Y129.298 E18.39845
G1 X114.592 Y129.313 E18.40678
G1 X115.094 Y129.328 E18.42348
G1 X115.309 Y129.329 E18.43063
G1 X116.044 Y129.298 E18.4551
G1 X116.819 Y129.21 E18.48104
G1 X117.65 Y129.051 E18.50918
G1 X118.177 Y128.905 E18.52737
G1 X118.509 Y128.799 E18.53896
G1 X119.144 Y128.559 E18.56154
G1 X119.932 Y128.18 E18.59062
G1 X120.062 Y128.106 E18.5956
G1 X120.69 Y127.728 E18.61998
G1 X121.063 Y127.476 E18.63495
G1 X121.423 Y127.205 E18.64994
G1 X122.085 Y126.641 E18.67886
G1 X122.704 Y126.01 E18.70826
G1 X123.267 Y125.332 E18.73757
G1 X123.771 Y124.607 E18.76694
G1 X124.21 Y123.845 E18.79619
G1 X124.379 Y123.477 E18.80966
G1 X124.577 Y123.038 E18.82568
G1 X124.744 Y122.555 E18.84268
G1 X124.863 Y122.194 E18.85532
G1 X125.07 Y121.348 E18.88429
G1 X125.193 Y120.591 E18.90979
G1 X125.212 Y120.476 E18.91367
G1 X125.271 Y119.749 E18.93793
G1 X125.28 Y119.612 E18.9425
G1 X125.282 Y118.908 E18.96591
G1 X125.278 Y118.741 E18.97147
G1 X125.228 Y118.083 E18.99342
G1 X125.208 Y117.886 E19
G1 X125.112 Y117.266 E19.02087
G1 X125.072 Y117.049 E19.02821
G1 X124.977 Y116.627 E19.0426
G1 X124.806 Y116.01 E19.06389
G1 X124.672 Y115.613 E19.07783
G1 X124.593 Y115.393 E19.0856
G1 X124.437 Y115.009 E19.09939
G1 X124.336 Y114.786 E19.10753
G1 X124.164 Y114.419 E19.12101
G1 X123.856 Y113.848 E19.14259
G1 X123.646 Y113.507 E19.15591
G1 X123.499 Y113.282 E19.16485
G0 F6000 X123.167 Y113.506
G1 F1200 X122.955 Y113.201 E19.1772
G1 X122.571 Y112.704 E19.19809
G1 X122.334 Y112.433 E19.21006
G1 X122.144 Y112.224 E19.21946
G1 X121.9 Y111.974 E19.23108
G1 X121.677 Y111.764 E19.24127
G1 X121.433 Y111.542 E19.25224
G1 X121.177 Y111.332 E19.26325
G1 X120.929 Y111.133 E19.27383
G1 X120.67 Y110.948 E19.28441
G1 X120.386 Y110.755 E19.29583
G1 X120.133 Y110.594 E19.30581
G1 X119.57 Y110.273 E19.32736
G1 X119.322 Y110.153 E19.33653
G1 X118.963 Y109.984 E19.34972
G1 X118.733 Y109.888 E19.35801
G1 X118.318 Y109.731 E19.37277
G1 X118.11 Y109.658 E19.3801
G1 X117.458 Y109.471 E19.40266
G1 X117.284 Y109.433 E19.40859
G1 X116.761 Y109.325 E19.42635
G1 X116.631 Y109.305 E19.43072
G1 X116.006 Y109.229 E19.45166
G1 X115.89 Y109.221 E19.45553
G1 X115.524 Y109.204 E19.46772
G1 X115.27 Y109.172 E19.47623
G1 X114.533 Y109.141 E19.50077
G1 X113.794 Y109.166 E19.52536
G1 X113.06 Y109.25 E19.54993
G1 X112.336 Y109.394 E19.57448
G1 X111.626 Y109.592 E19.599
G1 X110.932 Y109.846 E19.62358
G1 X110.239 Y110.166 E19.64897
G1 X109.577 Y110.54 E19.67426
G1 X108.947 Y110.965 E19.69953
G1 X108.355 Y111.439 E19.72476
G1 X107.806 Y111.958 E19.74988
G1 X107.604 Y112.179 E19.75984
G1 X107.3 Y112.52 E19.77504
G1 X107.106 Y112.767 E19.78548
G1 X106.842 Y113.119 E19.80012
G1 X106.659 Y113.398 E19.81122
G1 X106.438 Y113.748 E19.82498
G1 X106.265 Y114.059 E19.83682
G1 X106.084 Y114.405 E19.84981
G1 X105.925 Y114.754 E19.86256
G1 X105.786 Y115.086 E19.87453
G1 X105.646 Y115.473 E19.88822
G1 X105.545 Y115.784 E19.8991
G1 X105.426 Y116.213 E19.9139
G1 X105.361 Y116.49 E19.92337
G1 X105.268 Y116.97 E19.93963
G1 X105.234 Y117.199 E19.94733
G1 X105.173 Y117.735 E19.96527
G1 X105.161 Y117.902 E19.97084
G1 X105.141 Y118.502 E19.99081
G1 X105.141 Y118.587 E19.99364
G1 X105.157 Y118.969 E20.00635
G1 X105.15 Y119.235 E20.0152
G1 X105.178 Y119.949 E20.03897
G1 X105.266 Y120.678 E20.06339
G1 X105.411 Y121.396 E20.08775
G1 X105.61 Y122.101 E20.11212
G1 X105.862 Y122.79 E20.13652
G1 X106.167 Y123.457 E20.16091
G1 X106.274 Y123.658 E20.16849
G1 X106.473 Y124.022 E20.18228
G1 X106.815 Y124.561 E20.20352
G1 X107.193 Y125.076 E20.22476
G1 X107.447 Y125.387 E20.23812
G1 X107.611 Y125.576 E20.24644
G1 X107.877 Y125.863 E20.25946
G1 X108.065 Y126.049 E20.26825
G1 X108.342 Y126.314 E20.281
