;FLAVOR:Marlin
M73 P0
M73 R97
;TIME:5840
;Filament used: 2.43054m
;Layer height: 0.16
;MINX:79.22
;MINY:84.926
;MINZ:0.2
;MAXX:142.22
;MAXY:151.926
;MAXZ:25.92
;POSTPROCESSED
;Generated with Cura_SteamEngine 4.11.0
M140 S50
M105
M190 S50
M104 S215
M105
M109 S215
M82 ;absolute extrusion mode
; Ender 3 Custom Start G-code
G92 E0 ; Reset Extruder
G28 ; Home all axes
G1 Z2.0 F3000 ; Move Z Axis up little to prevent scratching of Heat Bed
G1 X0.1 Y20 Z0.3 F5000.0 ; Move to start position
G1 X0.1 Y200.0 Z0.3 F1500.0 E15 ; Draw the first line
G1 X0.4 Y200.0 Z0.3 F5000.0 ; Move to side a little
G1 X0.4 Y20 Z0.3 F1500.0 E30 ; Draw the second line
G92 E0 ; Reset Extruder
G1 Z2.0 F3000 ; Move Z Axis up little to prevent scratching of Heat Bed
G1 X5 Y20 Z0.3 F5000.0 ; Move over to prevent blob squish
G92 E0
G92 E0
G1 F2700 E-5
;LAYER_COUNT:211
;LAYER:0
M107
G0 F6000 X82.418 Y88.19 Z0.2
;TYPE:SKIRT
G1 F2700 E0
G1 F1200 X83.106 Y87.553 E0.03119
G1 X83.846 Y86.977 E0.06237
G1 X84.632 Y86.465 E0.09357
G1 X85.459 Y86.023 E0.12476
G1 X86.321 Y85.653 E0.15596
G1 X87.211 Y85.357 E0.18716
G1 X88.123 Y85.139 E0.21835
G1 X89.05 Y84.998 E0.24953
G1 X89.921 Y84.939 E0.27857
G1 X90.242 Y84.93 E0.28925
G1 X90.55 Y84.926 E0.29949
G1 X130.513 Y84.926 E1.62867
G1 X131.369 Y84.937 E1.65714
G1 X132.305 Y84.991 E1.68833
G1 X133.233 Y85.123 E1.7195
G1 X134.147 Y85.335 E1.75071
G1 X135.039 Y85.624 E1.78189
G1 X135.904 Y85.987 E1.8131
G1 X136.734 Y86.423 E1.84428
G1 X137.525 Y86.928 E1.87549
G1 X138.269 Y87.499 E1.90668
G1 X138.962 Y88.131 E1.93788
G1 X139.599 Y88.819 E1.96906
G1 X140.174 Y89.56 E2.00026
G1 X140.685 Y90.346 E2.03144
G1 X141.127 Y91.174 E2.06266
G1 X141.496 Y92.036 E2.09385
G1 X141.791 Y92.926 E2.12503
G1 X142.009 Y93.838 E2.15622
G1 X142.149 Y94.766 E2.18743
G1 X142.207 Y95.627 E2.21614
G1 X142.216 Y95.947 E2.22678
G1 X142.22 Y96.256 E2.23706
G1 X142.219 Y140.326 E3.70284
G1 X142.21 Y141.053 E3.72702
G1 X142.159 Y141.99 E3.75823
G1 X142.027 Y142.918 E3.7894
G1 X141.818 Y143.832 E3.82059
G1 X141.531 Y144.725 E3.85179
G1 X141.169 Y145.591 E3.88301
G1 X140.735 Y146.422 E3.91419
G1 X140.231 Y147.213 E3.94538
G1 X139.662 Y147.958 E3.97656
G1 X139.031 Y148.653 E4.00778
G1 X138.344 Y149.291 E4.03897
G1 X137.605 Y149.868 E4.07015
G1 X136.819 Y150.38 E4.10135
G1 X135.993 Y150.823 E4.13252
G1 X135.131 Y151.195 E4.16375
G1 X134.242 Y151.491 E4.19491
G1 X133.33 Y151.711 E4.22612
G1 X132.403 Y151.852 E4.2573
G1 X131.519 Y151.913 E4.28678
G1 X131.198 Y151.922 E4.29746
G1 X130.89 Y151.926 E4.3077
G1 X90.785 Y151.925 E5.6416
G1 X90.087 Y151.916 E5.66482
G1 X89.151 Y151.864 E5.696
G1 X88.222 Y151.732 E5.72721
G1 X87.308 Y151.522 E5.7584
G1 X86.415 Y151.235 E5.7896
G1 X85.55 Y150.872 E5.8208
G1 X84.719 Y150.438 E5.85198
G1 X83.928 Y149.934 E5.88317
G1 X83.183 Y149.364 E5.91437
G1 X82.489 Y148.733 E5.94557
G1 X81.852 Y148.046 E5.97673
G1 X81.275 Y147.306 E6.00794
G1 X80.763 Y146.52 E6.03914
G1 X80.32 Y145.693 E6.07034
G1 X79.949 Y144.832 E6.10153
G1 X79.653 Y143.942 E6.13272
G1 X79.434 Y143.03 E6.16392
G1 X79.293 Y142.103 E6.1951
G1 X79.233 Y141.214 E6.22474
G1 X79.224 Y140.881 E6.23582
G1 X79.22 Y140.584 E6.2457
G1 X79.221 Y96.451 E7.71357
G1 X79.23 Y95.786 E7.73569
G1 X79.283 Y94.85 E7.76687
G1 X79.415 Y93.921 E7.79808
G1 X79.626 Y93.007 E7.82928
G1 X79.914 Y92.115 E7.86045
G1 X80.277 Y91.25 E7.89166
G1 X80.712 Y90.419 E7.92285
G1 X81.216 Y89.629 E7.95402
G1 X81.786 Y88.884 E7.98522
G1 X82.418 Y88.19 E8.01644
G0 F6000 X82.809 Y88.365
G1 F1200 X83.494 Y87.749 E8.04708
G1 X84.23 Y87.196 E8.0777
G1 X85.011 Y86.708 E8.10833
G1 X85.831 Y86.29 E8.13894
G1 X86.685 Y85.945 E8.16958
G1 X87.565 Y85.675 E8.20019
G1 X88.465 Y85.483 E8.2308
G1 X89.379 Y85.369 E8.26143
G1 X89.932 Y85.339 E8.27985
G1 X90.253 Y85.33 E8.29053
G1 X90.55 Y85.326 E8.30041
G1 X130.513 Y85.326 E9.62959
G1 X131.363 Y85.337 E9.65786
G1 X132.282 Y85.39 E9.68848
G1 X133.193 Y85.523 E9.7191
G1 X134.089 Y85.734 E9.74972
G1 X134.963 Y86.022 E9.78032
G1 X135.81 Y86.385 E9.81097
G1 X136.621 Y86.82 E9.84158
G1 X137.391 Y87.324 E9.87219
G1 X138.115 Y87.893 E9.90282
G1 X138.787 Y88.523 E9.93345
G1 X139.402 Y89.208 E9.96407
G1 X139.955 Y89.944 E9.99469
G1 X140.442 Y90.725 E10.0253
G1 X140.859 Y91.546 E10.05593
G1 X141.204 Y92.4 E10.08657
G1 X141.473 Y93.28 E10.11717
G1 X141.665 Y94.181 E10.14781
G1 X141.778 Y95.094 E10.17841
G1 X141.807 Y95.638 E10.19653
G1 X141.816 Y95.958 E10.20718
G1 X141.82 Y96.256 E10.21709
G1 X141.819 Y140.321 E11.6827
G1 X141.81 Y141.048 E11.70688
G1 X141.759 Y141.967 E11.73749
G1 X141.628 Y142.879 E11.76814
G1 X141.418 Y143.775 E11.79875
G1 X141.132 Y144.65 E11.82936
G1 X140.771 Y145.497 E11.85999
G1 X140.337 Y146.309 E11.89061
G1 X139.835 Y147.081 E11.92124
G1 X139.267 Y147.806 E11.95187
G1 X138.639 Y148.479 E11.98249
G1 X137.955 Y149.095 E12.0131
G1 X137.22 Y149.649 E12.04371
G1 X136.44 Y150.138 E12.07433
G1 X135.62 Y150.557 E12.10496
G1 X134.767 Y150.903 E12.13558
G1 X133.887 Y151.174 E12.1662
G1 X132.987 Y151.367 E12.19682
G1 X132.073 Y151.482 E12.22746
G1 X131.508 Y151.513 E12.24628
G1 X131.187 Y151.522 E12.25696
G1 X130.89 Y151.526 E12.26684
G1 X90.79 Y151.525 E13.60057
G1 X90.092 Y151.516 E13.62379
G1 X89.173 Y151.464 E13.6544
G1 X88.262 Y151.333 E13.68501
G1 X87.366 Y151.123 E13.71562
G1 X86.491 Y150.836 E13.74625
G1 X85.644 Y150.474 E13.77689
G1 X84.832 Y150.04 E13.80751
G1 X84.061 Y149.538 E13.83811
G1 X83.336 Y148.97 E13.86874
G1 X82.663 Y148.341 E13.89938
G1 X82.048 Y147.657 E13.92997
G1 X81.494 Y146.922 E13.96059
G1 X81.006 Y146.141 E13.99122
G1 X80.587 Y145.321 E14.02184
G1 X80.241 Y144.468 E14.05246
G1 X79.971 Y143.588 E14.08308
G1 X79.778 Y142.687 E14.11372
G1 X79.664 Y141.774 E14.14433
G1 X79.633 Y141.203 E14.16334
G1 X79.624 Y140.87 E14.17442
G1 X79.62 Y140.584 E14.18394
G1 X79.621 Y96.457 E15.65161
G1 X79.63 Y95.792 E15.67373
G1 X79.682 Y94.872 E15.70438
G1 X79.814 Y93.961 E15.73499
G1 X80.025 Y93.065 E15.76561
G1 X80.312 Y92.19 E15.79624
G1 X80.675 Y91.344 E15.82686
G1 X81.109 Y90.532 E15.85748
G1 X81.612 Y89.761 E15.8881
G1 X82.181 Y89.037 E15.91872
G1 X82.809 Y88.365 E15.94932
G0 F6000 X83.201 Y88.543
G1 F1200 X83.882 Y87.95 E15.97935
G1 X84.614 Y87.42 E16.00941
G1 X85.389 Y86.957 E16.03943
G1 X86.202 Y86.564 E16.06947
G1 X87.047 Y86.244 E16.09952
G1 X87.916 Y86.001 E16.12953
G1 X88.804 Y85.835 E16.15958
G1 X89.943 Y85.739 E16.1976
G1 X90.264 Y85.73 E16.20828
G1 X90.55 Y85.726 E16.21779
G1 X130.513 Y85.726 E17.54696
G1 X131.357 Y85.737 E17.57504
G1 X132.259 Y85.79 E17.60509
G1 X133.152 Y85.922 E17.63512
G1 X134.03 Y86.133 E17.66515
G1 X134.886 Y86.421 E17.69519
G1 X135.713 Y86.783 E17.72521
G1 X136.505 Y87.218 E17.75527
G1 X137.256 Y87.72 E17.78531
G1 X137.959 Y88.287 E17.81535
G1 X138.609 Y88.914 E17.84539
G1 X139.201 Y89.596 E17.87543
G1 X139.731 Y90.327 E17.90546
G1 X140.193 Y91.103 E17.9355
G1 X140.586 Y91.916 E17.96553
G1 X140.904 Y92.761 E17.99556
G1 X141.147 Y93.631 E18.0256
G1 X141.312 Y94.519 E18.05564
G1 X141.407 Y95.649 E18.09336
G1 X141.416 Y95.969 E18.10401
G1 X141.42 Y96.256 E18.11355
G1 X141.419 Y140.316 E19.579
G1 X141.41 Y141.043 E19.60318
G1 X141.359 Y141.945 E19.63323
G1 X141.228 Y142.839 E19.66328
G1 X141.019 Y143.717 E19.6933
G1 X140.733 Y144.574 E19.72335
G1 X140.372 Y145.402 E19.75339
M73 P1
G1 X139.94 Y146.194 E19.78339
G1 X139.439 Y146.946 E19.81345
G1 X138.873 Y147.65 E19.84349
G1 X138.248 Y148.301 E19.87351
G1 X137.567 Y148.895 E19.90356
G1 X136.836 Y149.426 E19.93362
G1 X136.062 Y149.89 E19.96363
G1 X135.249 Y150.284 E19.99368
G1 X134.405 Y150.604 E20.0237
G1 X133.535 Y150.849 E20.05376
G1 X132.648 Y151.015 E20.08378
G1 X131.497 Y151.113 E20.1222
G1 X131.176 Y151.122 E20.13288
G1 X130.89 Y151.126 E20.14239
G1 X90.795 Y151.125 E21.47596
G1 X90.097 Y151.116 E21.49917
G1 X89.196 Y151.065 E21.52919
G1 X88.302 Y150.933 E21.55925
G1 X87.424 Y150.724 E21.58926
G1 X86.567 Y150.437 E21.61932
G1 X85.74 Y150.076 E21.64934
G1 X84.947 Y149.643 E21.67939
G1 X84.196 Y149.142 E21.70941
G1 X83.492 Y148.576 E21.73946
G1 X82.841 Y147.95 E21.7695
G1 X82.248 Y147.269 E21.79953
G1 X81.718 Y146.538 E21.82956
G1 X81.254 Y145.763 E21.85961
G1 X80.86 Y144.95 E21.88965
G1 X80.54 Y144.106 E21.91968
G1 X80.296 Y143.236 E21.94973
G1 X80.13 Y142.348 E21.97978
G1 X80.033 Y141.193 E22.01833
G1 X80.024 Y140.86 E22.02941
G1 X80.02 Y140.584 E22.03859
G1 X80.021 Y96.462 E23.50609
G1 X80.03 Y95.797 E23.52821
G1 X80.082 Y94.895 E23.55826
G1 X80.214 Y94.002 E23.58828
G1 X80.424 Y93.124 E23.61831
G1 X80.711 Y92.267 E23.64837
G1 X81.073 Y91.44 E23.6784
G1 X81.506 Y90.648 E23.70842
G1 X82.008 Y89.897 E23.73846
G1 X82.575 Y89.193 E23.76853
G1 X83.201 Y88.543 E23.79854
G1 F2700 E18.79854
;MESH:pen_attachment_v4.stl
G0 F6000 X94.755 Y118.59
G0 X94.654 Y116.735
G0 X118.152 Y117.533
G0 X118.562 Y117.676
G0 X118.93 Y117.908
G0 X119.238 Y118.216
G0 X119.47 Y118.584
G0 X119.613 Y118.994
G0 X119.659 Y119.402
G0 X119.659 Y134.45
G0 X119.613 Y134.858
G0 X119.47 Y135.268
G0 X118.279 Y136.868
;TYPE:WALL-INNER
G1 F2700 E23.79854
G1 F1200 X118.808 Y136.684 E23.81717
G1 X119.283 Y136.385 E23.83584
G1 X119.678 Y135.989 E23.85444
G1 X119.978 Y135.514 E23.87313
G1 X119.992 Y135.472 E23.8746
G1 X120.165 Y134.984 E23.89182
G1 X120.22 Y134.481 E23.90865
G1 X120.22 Y119.371 E24.41121
G1 X120.165 Y118.868 E24.42804
G1 X119.978 Y118.338 E24.44673
G1 X119.68 Y117.863 E24.46538
G1 X119.283 Y117.466 E24.48406
G1 X118.808 Y117.168 E24.50271
G1 X118.766 Y117.154 E24.50418
G1 X118.278 Y116.981 E24.5214
G1 X117.775 Y116.926 E24.53823
G1 X94.665 Y116.926 E25.30687
G1 X94.163 Y116.983 E25.32368
G1 X93.633 Y117.167 E25.34234
G1 X93.158 Y117.466 E25.361
G1 X92.761 Y117.863 E25.37968
G1 X92.462 Y118.338 E25.39835
G1 X92.278 Y118.867 E25.41697
G1 X92.22 Y119.369 E25.43378
G1 X92.22 Y134.483 E25.93648
G1 X92.278 Y134.985 E25.95328
G1 X92.462 Y135.514 E25.97191
G1 X92.763 Y135.989 E25.99062
G1 X93.158 Y136.385 E26.00922
G1 X93.633 Y136.684 E26.02789
G1 X94.162 Y136.868 E26.04652
G1 X94.663 Y136.926 E26.06329
G1 X117.777 Y136.926 E26.83206
G1 X118.279 Y136.868 E26.84887
G0 F6000 X118.189 Y136.476
G1 F1200 X118.633 Y136.321 E26.86451
G1 X119.032 Y136.07 E26.88019
G1 X119.364 Y135.738 E26.89581
G1 X119.616 Y135.339 E26.9115
G1 X119.772 Y134.895 E26.92716
G1 X119.82 Y134.459 E26.94175
G1 X119.82 Y119.393 E27.44284
G1 X119.772 Y118.957 E27.45743
G1 X119.616 Y118.513 E27.47308
G1 X119.365 Y118.114 E27.48876
G1 X119.032 Y117.781 E27.50443
G1 X118.633 Y117.53 E27.5201
G1 X118.189 Y117.374 E27.53576
G1 X117.753 Y117.326 E27.55035
G1 X94.687 Y117.326 E28.31752
G1 X94.252 Y117.375 E28.33208
G1 X93.808 Y117.53 E28.34773
G1 X93.409 Y117.781 E28.3634
G1 X93.076 Y118.114 E28.37907
G1 X92.825 Y118.513 E28.39475
G1 X92.67 Y118.957 E28.41039
G1 X92.62 Y119.392 E28.42495
G1 X92.62 Y134.46 E28.92611
G1 X92.67 Y134.895 E28.94068
G1 X92.825 Y135.339 E28.95632
G1 X93.077 Y135.738 E28.97201
G1 X93.409 Y136.07 E28.98763
G1 X93.808 Y136.321 E29.00331
G1 X94.252 Y136.476 E29.01895
G1 X94.686 Y136.526 E29.03348
G1 X117.754 Y136.526 E29.80073
G1 X118.189 Y136.476 E29.81529
G0 F6000 X118.099 Y136.084
;TYPE:WALL-OUTER
G1 F1200 X118.458 Y135.958 E29.82794
G1 X118.781 Y135.755 E29.84063
G1 X119.05 Y135.487 E29.85326
G1 X119.253 Y135.164 E29.86595
G1 X119.379 Y134.805 E29.87861
G1 X119.42 Y134.437 E29.89092
G1 X119.42 Y119.415 E30.39055
G1 X119.379 Y119.047 E30.40287
G1 X119.253 Y118.688 E30.41552
G1 X119.05 Y118.365 E30.42821
G1 X118.781 Y118.096 E30.44087
G1 X118.458 Y117.893 E30.45355
G1 X118.099 Y117.767 E30.46621
G1 X117.731 Y117.726 E30.47852
G1 X94.709 Y117.726 E31.24424
G1 X94.342 Y117.767 E31.25652
G1 X93.983 Y117.893 E31.26918
G1 X93.66 Y118.096 E31.28186
G1 X93.391 Y118.365 E31.29452
G1 X93.188 Y118.688 E31.30721
G1 X93.062 Y119.047 E31.31986
G1 X93.02 Y119.415 E31.33218
G1 X93.02 Y134.437 E31.83181
G1 X93.062 Y134.805 E31.84413
G1 X93.188 Y135.164 E31.85679
G1 X93.391 Y135.487 E31.86948
G1 X93.66 Y135.755 E31.8821
G1 X93.983 Y135.958 E31.89479
G1 X94.342 Y136.084 E31.90745
G1 X94.709 Y136.126 E31.91973
G1 X117.731 Y136.126 E32.68545
G1 X118.099 Y136.084 E32.69777
G0 F6000 X118.197 Y136.512
G1 F2700 E27.69777
G0 F6000 X120.151 Y135.598
G0 X118.469 Y134.787
G0 X120.151 Y141.591
G0 X120.151 Y139.716
G0 X130.22 Y139.926
;TYPE:WALL-INNER
G1 F2700 E32.69777
G1 F1200 X91.22 Y139.926 E33.99491
G1 X91.22 Y96.926 E35.4251
G1 X130.22 Y96.926 E36.72224
G1 X130.22 Y139.926 E38.15243
G0 F6000 X130.62 Y140.326
G1 F1200 X90.82 Y140.326 E39.47618
G1 X90.82 Y96.526 E40.93298
G1 X130.62 Y96.526 E42.25673
G1 X130.62 Y140.326 E43.71352
G0 F6000 X131.02 Y140.726
;TYPE:WALL-OUTER
G1 F1200 X90.42 Y140.726 E45.06389
G1 X90.42 Y96.126 E46.54729
G1 X131.02 Y96.126 E47.89765
G1 X131.02 Y140.726 E49.38105
G0 F6000 X130.75 Y140.456
G0 X130.11 Y139.536
G0 X129.83 Y139.536
;TYPE:SKIN
G1 F1200 X91.61 Y139.536 E50.65225
G1 X91.61 Y97.316 E52.0565
G1 X129.83 Y97.316 E53.3277
G1 X129.83 Y139.536 E54.73194
G1 F2700 E49.73194
G0 F6000 X130.11 Y139.536
G0 X121.044 Y139.718
G0 X120.078 Y139.716
G0 X119.828 Y136.109
G0 X120.078 Y135.562
G1 F2700 E54.73194
G0 F6000 X120.331 Y135.685
G1 F1200 X120.547 Y135.072 E54.75356
G1 X120.61 Y134.502 E54.77263
G1 X120.61 Y119.35 E55.27659
G1 X120.547 Y118.78 E55.29566
G1 X120.331 Y118.168 E55.31725
G1 X119.987 Y117.619 E55.3388
G1 X119.527 Y117.159 E55.36044
G1 X118.978 Y116.815 E55.38198
G1 X118.366 Y116.599 E55.40357
G1 X117.796 Y116.536 E55.42264
G1 X94.643 Y116.536 E56.19272
G1 X94.076 Y116.601 E56.2117
G1 X93.463 Y116.814 E56.23328
G1 X92.913 Y117.16 E56.25489
G1 X92.455 Y117.618 E56.27644
G1 X92.109 Y118.168 E56.29805
G1 X91.896 Y118.779 E56.31957
M73 P2
G1 X91.83 Y119.346 E56.33856
G1 X91.83 Y134.506 E56.84278
G1 X91.896 Y135.073 E56.86176
G1 X92.109 Y135.685 E56.88332
G1 X92.457 Y136.234 E56.90494
G1 X92.913 Y136.691 E56.92641
G1 X93.463 Y137.037 E56.94802
G1 X94.074 Y137.25 E56.96954
G1 X94.64 Y137.316 E56.9885
G1 X117.8 Y137.316 E57.7588
G1 X118.367 Y137.25 E57.77779
G1 X118.978 Y137.037 E57.79931
G1 X119.528 Y136.691 E57.82092
G1 X119.984 Y136.234 E57.84239
G1 X120.331 Y135.685 E57.86399
G1 F2700 E52.86399
G0 F6000 X120.078 Y135.562
G0 X118.152 Y136.318
G0 X94.652 Y137.117
G0 X94.652 Y139.716
G0 X91.857 Y139.816
G1 F2700 E57.86399
G0 F6000 X91.857 Y139.374
G1 F1200 X91.769 Y139.287 E57.86811
G0 F6000 X91.769 Y138.721
G1 F1200 X92.423 Y139.374 E57.89885
G0 F6000 X92.988 Y139.374
G1 F1200 X91.769 Y138.155 E57.95619
G0 F6000 X91.769 Y137.59
G1 F1200 X93.554 Y139.374 E58.04012
G0 F6000 X94.12 Y139.374
G1 F1200 X91.769 Y137.024 E58.15068
G0 F6000 X91.769 Y136.458
G1 F1200 X94.685 Y139.374 E58.28784
G0 F6000 X95.251 Y139.374
G1 F1200 X91.769 Y135.893 E58.4516
G1 F2700 E53.4516
G0 F6000 X91.33 Y135.893
G0 X91.43 Y136.891
G0 X93.038 Y136.535
G0 X93.89 Y136.891
G1 F2700 E58.4516
G0 F6000 X93.746 Y137.303
G1 F1200 X95.817 Y139.374 E58.54902
G0 F6000 X96.382 Y139.374
G1 F1200 X94.463 Y137.455 E58.63928
G0 F6000 X95.049 Y137.475
G1 F1200 X96.948 Y139.374 E58.7286
G0 F6000 X97.514 Y139.374
G1 F1200 X95.614 Y137.475 E58.81795
G0 F6000 X96.18 Y137.475
G1 F1200 X98.079 Y139.374 E58.90727
G0 F6000 X98.645 Y139.374
G1 F1200 X96.746 Y137.475 E58.9966
G0 F6000 X97.312 Y137.475
G1 F1200 X99.211 Y139.374 E59.08592
G0 F6000 X99.777 Y139.374
G1 F1200 X97.877 Y137.475 E59.17527
G0 F6000 X98.443 Y137.475
G1 F1200 X100.342 Y139.374 E59.26459
G0 F6000 X100.908 Y139.374
G1 F1200 X99.009 Y137.475 E59.35391
G0 F6000 X99.574 Y137.475
G1 F1200 X101.474 Y139.374 E59.44326
G0 F6000 X102.039 Y139.374
G1 F1200 X100.14 Y137.475 E59.53258
G0 F6000 X100.706 Y137.475
