;FLAVOR:Marlin
M73 P0
M73 R124
;TIME:7417
;Filament used: 3.95977m
;Layer height: 0.2
;MINX:75.659
;MINY:94.75
;MINZ:0.2
;MAXX:159.341
;MAXY:134.975
;MAXZ:76.2
;POSTPROCESSED
;Generated with Cura_SteamEngine 5.0.0
M140 S50
M105
M190 S50
M104 S215
M105
M109 S215
M82 ;absolute extrusion mode
; Ender 3 Custom Start G-code
G92 E0 ; Reset Extruder
G28 ; Home all axes
G1 Z2.0 F3000 ; Move Z Axis up little to prevent scratching of Heat Bed
G1 X0.1 Y20 Z0.3 F5000.0 ; Move to start position
G1 X0.1 Y200.0 Z0.3 F1500.0 E15 ; Draw the first line
G1 X0.4 Y200.0 Z0.3 F5000.0 ; Move to side a little
G1 X0.4 Y20 Z0.3 F1500.0 E30 ; Draw the second line
G92 E0 ; Reset Extruder
G1 Z2.0 F3000 ; Move Z Axis up little to prevent scratching of Heat Bed
G1 X5 Y20 Z0.3 F5000.0 ; Move over to prevent blob squish
G92 E0
G92 E0
G1 F2700 E-5
;LAYER_COUNT:382
;LAYER:0
M107
G0 F6000 X80.293 Y108.973 Z0.2
G0 X75.661 Y118.408
;TYPE:SKIRT
G1 F2700 E0
G1 F1200 X75.67 Y117.779 E0.02092
G1 X75.724 Y116.842 E0.05214
G1 X75.856 Y115.914 E0.08332
G1 X76.068 Y115 E0.11452
G1 X76.357 Y114.108 E0.14571
G1 X76.72 Y113.243 E0.17691
G1 X77.156 Y112.413 E0.20809
G1 X77.661 Y111.623 E0.23928
G1 X78.232 Y110.878 E0.2705
G1 X78.864 Y110.185 E0.30169
G1 X79.552 Y109.548 E0.33288
G1 X80.293 Y108.973 E0.36407
G1 X81.079 Y108.462 E0.39525
G1 X82.135 Y107.914 E0.43482
G1 X82.701 Y107.658 E0.45549
G1 X85.075 Y106.543 E0.54272
G1 X87.346 Y105.396 E0.62734
G1 X89.524 Y104.218 E0.7097
G1 X91.69 Y102.966 E0.79291
G1 X93.876 Y101.62 E0.87829
G1 X95.937 Y100.268 E0.96028
G1 X98.658 Y98.355 E1.0709
G1 X99.57 Y97.69 E1.10845
G1 X100.351 Y97.17 E1.13965
G1 X101.173 Y96.718 E1.17085
G1 X102.03 Y96.338 E1.20203
G1 X102.899 Y96.038 E1.23261
G1 X103.517 Y95.858 E1.25402
G1 X105.866 Y95.23 E1.33489
G1 X106.525 Y95.068 E1.35746
G1 X107.445 Y94.883 E1.38867
G1 X108.376 Y94.777 E1.41984
G1 X109.314 Y94.751 E1.45105
G1 X109.852 Y94.772 E1.46896
G1 X110.778 Y94.832 E1.49982
G1 X111.892 Y94.918 E1.53698
G1 X114.402 Y95.041 E1.62057
G1 X116.924 Y95.094 E1.70447
G1 X119.442 Y95.075 E1.78822
G1 X121.971 Y94.984 E1.87239
G1 X125.026 Y94.782 E1.97422
G1 X125.963 Y94.75 E2.0054
G1 X126.9 Y94.799 E2.03661
G1 X127.829 Y94.927 E2.0678
G1 X128.392 Y95.045 E2.08693
G1 X129.034 Y95.201 E2.10891
G1 X131.306 Y95.812 E2.18716
G1 X131.997 Y96.011 E2.21107
G1 X132.887 Y96.308 E2.24228
G1 X133.747 Y96.681 E2.27346
G1 X134.573 Y97.125 E2.30465
G1 X135.424 Y97.685 E2.33853
G1 X137.51 Y99.202 E2.42432
G1 X139.552 Y100.603 E2.50669
G1 X141.679 Y101.976 E2.59089
G1 X143.803 Y103.263 E2.67349
G1 X146.018 Y104.52 E2.7582
G1 X148.248 Y105.705 E2.84219
G1 X150.487 Y106.815 E2.92531
G1 X151.885 Y107.453 E2.97642
G1 X152.999 Y107.975 E3.01734
G1 X153.831 Y108.409 E3.04855
G1 X154.622 Y108.912 E3.07972
G1 X155.368 Y109.481 E3.11093
G1 X156.063 Y110.111 E3.14213
G1 X156.701 Y110.798 E3.17331
G1 X157.279 Y111.537 E3.20452
G1 X157.792 Y112.322 E3.23571
G1 X158.235 Y113.148 E3.26688
G1 X158.607 Y114.009 E3.29808
G1 X158.904 Y114.899 E3.32928
G1 X159.125 Y115.811 E3.3605
G1 X159.267 Y116.738 E3.39169
G1 X159.328 Y117.63 E3.42142
G1 X159.341 Y118.259 E3.44235
G1 X159.34 Y120.522 E3.51762
G1 X159.331 Y121.255 E3.542
G1 X159.28 Y122.192 E3.57321
G1 X159.149 Y123.12 E3.60438
G1 X158.939 Y124.034 E3.63557
G1 X158.652 Y124.927 E3.66677
G1 X158.29 Y125.793 E3.69799
G1 X157.856 Y126.624 E3.72917
G1 X157.353 Y127.415 E3.76035
G1 X156.784 Y128.161 E3.79155
G1 X156.153 Y128.855 E3.82275
G1 X155.466 Y129.493 E3.85393
G1 X154.727 Y130.07 E3.88512
G1 X153.941 Y130.583 E3.91634
G1 X153.115 Y131.026 E3.94751
G1 X152.253 Y131.397 E3.97872
G1 X151.364 Y131.694 E4.0099
G1 X150.452 Y131.914 E4.0411
G1 X149.525 Y132.055 E4.07229
G1 X148.963 Y132.102 E4.09105
G1 X147.822 Y132.166 E4.12905
G1 X147.247 Y132.19 E4.1482
G1 X144.748 Y132.368 E4.23152
G1 X142.224 Y132.619 E4.31589
G1 X139.743 Y132.937 E4.39908
G1 X137.38 Y133.304 E4.47862
G1 X136.635 Y133.393 E4.50357
G1 X135.48 Y133.492 E4.54213
G1 X134.766 Y133.543 E4.56594
G1 X132.317 Y133.79 E4.6478
G1 X129.794 Y134.116 E4.73242
G1 X126.113 Y134.716 E4.85646
G1 X125.006 Y134.876 E4.89366
G1 X124.749 Y134.906 E4.90227
G1 X123.814 Y134.975 E4.93345
G1 X122.886 Y134.964 E4.96432
G1 X122.316 Y134.933 E4.98331
G1 X119.659 Y134.83 E5.07174
G1 X117.166 Y134.804 E5.15467
G1 X114.652 Y134.847 E5.23829
G1 X112.08 Y134.966 E5.32393
G1 X111.142 Y134.97 E5.35513
G1 X110.329 Y134.908 E5.38225
G1 X109.374 Y134.793 E5.41424
G1 X108.813 Y134.707 E5.43312
G1 X107.833 Y134.536 E5.46621
G1 X105.319 Y134.133 E5.55089
G1 X102.797 Y133.802 E5.63549
G1 X100.257 Y133.542 E5.72041
G1 X98.447 Y133.4 E5.7808
G1 X97.595 Y133.3 E5.80933
G1 X96.492 Y133.126 E5.84647
G1 X93.956 Y132.764 E5.93167
G1 X91.432 Y132.476 E6.01617
G1 X88.966 Y132.266 E6.09848
G1 X86.048 Y132.101 E6.19569
G1 X85.115 Y132.008 E6.22688
G1 X84.193 Y131.836 E6.25807
G1 X83.289 Y131.586 E6.28927
G1 X82.41 Y131.26 E6.32045
G1 X81.561 Y130.861 E6.35165
G1 X80.75 Y130.39 E6.38284
G1 X79.981 Y129.852 E6.41406
G1 X79.262 Y129.251 E6.44523
G1 X78.596 Y128.591 E6.47641
G1 X77.989 Y127.876 E6.50761
G1 X77.444 Y127.112 E6.53882
G1 X76.967 Y126.304 E6.57003
G1 X76.561 Y125.459 E6.60121
G1 X76.228 Y124.583 E6.63238
G1 X75.971 Y123.681 E6.66357
G1 X75.791 Y122.76 E6.69479
G1 X75.672 Y121.397 E6.74029
G1 X75.659 Y120.758 E6.76155
G1 X75.661 Y118.408 E6.83971
G0 F6000 X76.059 Y120.758
G1 F1200 X76.061 Y118.413 E6.91771
G1 X76.07 Y117.784 E6.93863
G1 X76.123 Y116.865 E6.96924
G1 X76.256 Y115.954 E6.99987
G1 X76.467 Y115.058 E7.03048
G1 X76.755 Y114.184 E7.06109
G1 X77.118 Y113.338 E7.09171
G1 X77.553 Y112.526 E7.12235
G1 X78.057 Y111.756 E7.15296
G1 X78.626 Y111.032 E7.18358
G1 X79.255 Y110.36 E7.2142
G1 X79.941 Y109.745 E7.24484
G1 X80.677 Y109.192 E7.27546
G1 X81.458 Y108.705 E7.30607
G1 X82.3 Y108.278 E7.33747
G1 X82.886 Y108.013 E7.35886
G1 X85.246 Y106.904 E7.44559
G1 X87.538 Y105.748 E7.53097
G1 X89.736 Y104.558 E7.6141
G1 X91.895 Y103.311 E7.69703
G1 X94.083 Y101.962 E7.78252
G1 X96.15 Y100.607 E7.86473
G1 X98.902 Y98.672 E7.97662
G1 X99.806 Y98.013 E8.01383
G1 X100.573 Y97.503 E8.04446
G1 X101.38 Y97.062 E8.07505
G1 X102.224 Y96.692 E8.1057
G1 X103.014 Y96.421 E8.13348
G1 X103.621 Y96.244 E8.15451
G1 X105.962 Y95.618 E8.23511
G1 X106.621 Y95.456 E8.25768
G1 X107.523 Y95.276 E8.28827
G1 X108.438 Y95.174 E8.31889
G1 X109.359 Y95.152 E8.34953
G1 X109.827 Y95.172 E8.36511
G1 X110.747 Y95.231 E8.39577
G1 X111.877 Y95.318 E8.43347
G1 X114.373 Y95.441 E8.51659
G1 X116.919 Y95.494 E8.60129
G1 X119.46 Y95.475 E8.6858
G1 X121.975 Y95.384 E8.76951
G1 X125.056 Y95.181 E8.8722
G1 X125.977 Y95.151 E8.90285
G1 X126.896 Y95.2 E8.93346
G1 X127.807 Y95.33 E8.96407
G1 X128.626 Y95.511 E8.99197
G1 X131.003 Y96.143 E9.07377
G1 X131.886 Y96.395 E9.10431
G1 X132.759 Y96.688 E9.13494
G1 X133.603 Y97.056 E9.16556
G1 X134.412 Y97.495 E9.19618
G1 X135.188 Y98.009 E9.22714
G1 X137.229 Y99.493 E9.31107
G1 X139.355 Y100.952 E9.39683
G1 X141.46 Y102.311 E9.48016
G1 X143.619 Y103.619 E9.56412
G1 X145.839 Y104.878 E9.64901
G1 X148.062 Y106.06 E9.73275
G1 X150.297 Y107.168 E9.81572
G1 X151.716 Y107.816 E9.8676
G1 X152.83 Y108.338 E9.90852
G1 X153.646 Y108.764 E9.93914
G1 X154.421 Y109.26 E9.96974
G1 X155.151 Y109.821 E10.00036
G1 X155.83 Y110.443 E10.03099
G1 X156.452 Y111.122 E10.06161
G1 X157.012 Y111.852 E10.09222
G1 X157.507 Y112.628 E10.12283
G1 X157.933 Y113.445 E10.15348
G1 X158.287 Y114.295 E10.1841
G1 X158.565 Y115.172 E10.2147
G1 X158.767 Y116.071 E10.24535
G1 X158.889 Y116.983 E10.27595
G1 X158.928 Y117.641 E10.29787
G1 X158.941 Y118.259 E10.31843
G1 X158.94 Y120.517 E10.39353
G1 X158.931 Y121.25 E10.41792
G1 X158.88 Y122.169 E10.44853
G1 X158.749 Y123.081 E10.47917
G1 X158.54 Y123.977 E10.50977
G1 X158.253 Y124.852 E10.5404
G1 X157.892 Y125.699 E10.57103
G1 X157.459 Y126.511 E10.60163
G1 X156.956 Y127.283 E10.63228
G1 X156.389 Y128.008 E10.66289
G1 X155.761 Y128.681 E10.69351
G1 X155.077 Y129.297 E10.72412
G1 X154.342 Y129.852 E10.75476
G1 X153.562 Y130.34 E10.78536
G1 X152.742 Y130.759 E10.81598
G1 X151.889 Y131.105 E10.8466
G1 X151.009 Y131.376 E10.87723
G1 X150.109 Y131.57 E10.90785
G1 X148.94 Y131.703 E10.94698
G1 X147.805 Y131.767 E10.98479
G1 X147.201 Y131.792 E11.0049
G1 X144.715 Y131.97 E11.08779
G1 X142.17 Y132.223 E11.17286
G1 X139.666 Y132.543 E11.25682
G1 X137.318 Y132.908 E11.33585
G1 X136.601 Y132.995 E11.35987
G1 X135.452 Y133.093 E11.39823
G1 X134.766 Y133.142 E11.4211
G1 X132.226 Y133.398 E11.50601
G1 X129.739 Y133.719 E11.58941
G1 X126.054 Y134.321 E11.7136
G1 X124.96 Y134.479 E11.75037
G1 X124.703 Y134.509 E11.75897
G1 X123.785 Y134.575 E11.78958
G1 X122.907 Y134.565 E11.81879
G1 X122.282 Y134.532 E11.83961
G1 X119.679 Y134.43 E11.92625
G1 X117.164 Y134.404 E12.0099
G1 X114.66 Y134.447 E12.0932
G1 X112.061 Y134.567 E12.17973
G1 X111.14 Y134.569 E12.21037
G1 X110.374 Y134.51 E12.23592
G1 X109.432 Y134.397 E12.26747
G1 X108.881 Y134.312 E12.28602
G1 X107.948 Y134.149 E12.31752
G1 X105.369 Y133.735 E12.40439
G1 X102.857 Y133.406 E12.48866
G1 X100.326 Y133.147 E12.57328
G1 X98.478 Y133.002 E12.63493
G1 X97.657 Y132.905 E12.66243
G1 X96.534 Y132.728 E12.70024
G1 X94.026 Y132.37 E12.7845
G1 X91.474 Y132.078 E12.86994
G1 X88.952 Y131.864 E12.95412
G1 X86.071 Y131.701 E13.0501
G1 X85.155 Y131.609 E13.08072
G1 X84.25 Y131.439 E13.11134
G1 X83.364 Y131.19 E13.14195
G1 X82.502 Y130.865 E13.17259
G1 X81.672 Y130.467 E13.20321
G1 X80.88 Y129.998 E13.23382
G1 X80.131 Y129.462 E13.26446
G1 X79.432 Y128.864 E13.29505
G1 X78.787 Y128.206 E13.3257
G1 X78.201 Y127.496 E13.35632
G1 X77.68 Y126.737 E13.38694
G1 X77.226 Y125.936 E13.41756
G1 X76.844 Y125.099 E13.44816
G1 X76.535 Y124.231 E13.47881
G1 X76.304 Y123.34 E13.50942
G1 X76.15 Y122.432 E13.54005
G1 X76.071 Y121.387 E13.57491
G1 X76.059 Y120.758 E13.59583
G0 F6000 X76.459 Y120.758
G1 F1200 X76.461 Y118.419 E13.67363
G1 X76.47 Y117.79 E13.69455
G1 X76.523 Y116.889 E13.72457
G1 X76.655 Y115.995 E13.75463
G1 X76.866 Y115.117 E13.78466
G1 X77.154 Y114.261 E13.8147
G1 X77.516 Y113.434 E13.84473
G1 X77.951 Y112.642 E13.87478
G1 X78.453 Y111.891 E13.90482
G1 X79.02 Y111.188 E13.93486
G1 X79.647 Y110.538 E13.9649
G1 X80.329 Y109.946 E13.99494
G1 X81.06 Y109.417 E14.02495
G1 X81.836 Y108.954 E14.055
G1 X82.465 Y108.643 E14.07834
G1 X83.014 Y108.395 E14.09838
G1 X85.417 Y107.265 E14.1867
G1 X87.702 Y106.113 E14.27181
G1 X89.947 Y104.898 E14.35671
G1 X92.099 Y103.655 E14.43937
G1 X94.291 Y102.304 E14.52501
G1 X96.406 Y100.917 E14.60914
G1 X99.109 Y99.017 E14.71903
G1 X100.042 Y98.336 E14.75744
G1 X100.794 Y97.837 E14.78746
G1 X101.588 Y97.406 E14.81751
G1 X102.416 Y97.047 E14.84753
G1 X103.129 Y96.804 E14.87258
G1 X103.724 Y96.631 E14.89319
G1 X106.057 Y96.007 E14.97351
G1 X106.716 Y95.845 E14.99608
G1 X107.602 Y95.668 E15.02613
G1 X108.5 Y95.571 E15.05618
G1 X109.801 Y95.571 E15.09945
G1 X110.716 Y95.63 E15.12994
G1 X111.827 Y95.715 E15.167
G1 X114.379 Y95.841 E15.25199
G1 X116.913 Y95.894 E15.33629
G1 X119.477 Y95.875 E15.42157
G1 X121.979 Y95.785 E15.50484
G1 X125.087 Y95.58 E15.60844
G1 X125.989 Y95.551 E15.63845
G1 X126.891 Y95.602 E15.6685
G1 X128.208 Y95.823 E15.71292
G1 X128.827 Y95.974 E15.73411
G1 X131.085 Y96.58 E15.81187
G1 X131.776 Y96.779 E15.83578
G1 X132.632 Y97.067 E15.86582
G1 X133.459 Y97.43 E15.89586
G1 X134.251 Y97.865 E15.92592
G1 X134.953 Y98.332 E15.95396
G1 X137.014 Y99.831 E16.03872
G1 X139.134 Y101.286 E16.12424
G1 X141.242 Y102.646 E16.20768
G1 X143.42 Y103.966 E16.29239
G1 X145.633 Y105.221 E16.377
G1 X147.876 Y106.413 E16.46149
G1 X150.145 Y107.538 E16.54572
G1 X151.546 Y108.178 E16.59695
G1 X152.66 Y108.7 E16.63787
G1 X153.46 Y109.119 E16.6679
G1 X154.22 Y109.607 E16.69794
G1 X154.933 Y110.16 E16.72796
G1 X155.595 Y110.775 E16.75801
G1 X156.2 Y111.445 E16.78803
G1 X156.744 Y112.167 E16.8181
G1 X157.221 Y112.933 E16.84811
G1 X157.629 Y113.739 E16.87816
G1 X157.963 Y114.578 E16.9082
G1 X158.223 Y115.443 E16.93824
G1 X158.404 Y116.328 E16.96828
G1 X158.528 Y117.652 E17.01251
G1 X158.541 Y118.259 E17.0327
G1 X158.54 Y120.512 E17.10764
G1 X158.531 Y121.245 E17.13202
G1 X158.48 Y122.147 E17.16207
G1 X158.35 Y123.041 E17.19212
G1 X158.14 Y123.919 E17.22214
G1 X157.854 Y124.776 E17.25219
G1 X157.494 Y125.604 E17.28222
G1 X157.061 Y126.396 E17.31224
G1 X156.56 Y127.148 E17.3423
G1 X155.995 Y127.852 E17.37232
G1 X155.369 Y128.503 E17.40236
G1 X154.689 Y129.097 E17.43239
G1 X153.958 Y129.628 E17.46244
G1 X153.184 Y130.092 E17.49246
G1 X152.371 Y130.486 E17.52251
G1 X151.527 Y130.807 E17.55254
G1 X150.657 Y131.051 E17.58259
G1 X149.77 Y131.218 E17.61261
G1 X148.917 Y131.303 E17.64112
G1 X147.788 Y131.367 E17.67873
G1 X147.191 Y131.392 E17.69861
G1 X144.68 Y131.571 E17.78234
G1 X142.151 Y131.823 E17.86687
G1 X139.595 Y132.15 E17.95257
G1 X137.257 Y132.513 E18.03127
G1 X136.567 Y132.596 E18.05438
G1 X135.423 Y132.694 E18.09257
G1 X134.733 Y132.744 E18.11558
G1 X132.171 Y133.002 E18.20122
G1 X129.709 Y133.32 E18.28379
G1 X125.995 Y133.925 E18.40895
G1 X124.914 Y134.081 E18.44527
G1 X124.657 Y134.111 E18.45388
G1 X123.756 Y134.176 E18.48392
G1 X122.929 Y134.165 E18.51143
G1 X122.323 Y134.133 E18.53162
G1 X119.698 Y134.03 E18.61899
G1 X117.161 Y134.003 E18.70338
G1 X114.636 Y134.047 E18.78737
G1 X112.043 Y134.167 E18.87371
G1 X111.14 Y134.169 E18.90374
G1 X110.42 Y134.113 E18.92776
G1 X109.49 Y134.001 E18.95892
G1 X108.95 Y133.918 E18.97709
G1 X108.014 Y133.755 E19.00869
G1 X105.413 Y133.337 E19.09631
G1 X102.914 Y133.01 E19.18013
G1 X100.358 Y132.748 E19.26559
G1 X98.509 Y132.603 E19.32728
G1 X97.719 Y132.51 E19.35374
G1 X96.577 Y132.33 E19.39219
G1 X94.057 Y131.97 E19.47685
G1 X91.521 Y131.681 E19.56175
G1 X89.009 Y131.467 E19.6456
G1 X86.093 Y131.302 E19.74274
G1 X85.195 Y131.211 E19.77276
G1 X84.308 Y131.041 E19.8028
G1 X83.439 Y130.794 E19.83285
G1 X82.596 Y130.47 E19.86289
G1 X81.785 Y130.073 E19.89292
G1 X81.012 Y129.606 E19.92296
G1 X80.283 Y129.073 E19.95299
G1 X79.605 Y128.477 E19.98302
G1 X78.981 Y127.823 E20.01308
G1 X78.419 Y127.117 E20.0431
G1 X77.92 Y126.364 E20.07314
G1 X77.491 Y125.569 E20.10319
G1 X77.133 Y124.74 E20.13322
G1 X76.85 Y123.883 E20.16324
G1 X76.644 Y123.003 E20.1933
G1 X76.516 Y122.109 E20.22334
G1 X76.471 Y121.377 E20.24773
G1 X76.459 Y120.758 E20.26832
G1 F2700 E15.26832
;MESH:jet_fighter_large_200 NoUC.STL
G0 F6000 X85.994 Y120.705
G0 X87.083 Y120.705
G0 X94.043 Y120.549
G1 F2700 E20.26832
G0 F6000 X94.423 Y120.929
;TYPE:WALL-OUTER
G1 F1200 X94.423 Y119.529 E20.31488
G1 X94.423 Y118.129 E20.36145
G1 X86.86 Y118.129 E20.613
G1 X86.86 Y120.929 E20.70612
G1 X94.423 Y120.929 E20.95767
G0 F6000 X94.043 Y120.549
G0 X87.432 Y120.357
G0 X87.26 Y118.539
G0 X87.26 Y118.529
;TYPE:WALL-INNER
G1 F1200 X87.26 Y120.529 E21.02419
G1 X94.023 Y120.529 E21.24913
G1 X94.023 Y119.529 E21.28239
G1 X94.023 Y118.529 E21.31565
G1 X87.26 Y118.529 E21.54059
G0 F6000 X87.26 Y118.539
G0 X93.851 Y118.701
G0 X93.923 Y119.529
G0 X93.663 Y119.529
;TYPE:SKIN
G1 F1200 X93.663 Y118.889 E21.56187
G1 X87.62 Y118.889 E21.76286
G1 X87.62 Y120.169 E21.80544
G1 X93.663 Y120.169 E22.00643
G1 X93.663 Y119.529 E22.02772
G0 F6000 X93.463 Y119.484
G1 F1200 X93.066 Y119.088 E22.04637
G0 F6000 X92.5 Y119.088
G1 F1200 X93.381 Y119.968 E22.08778
G0 F6000 X92.815 Y119.968
G1 F1200 X91.935 Y119.088 E22.12917
G0 F6000 X91.369 Y119.088
G1 F1200 X92.249 Y119.968 E22.17057
G0 F6000 X91.684 Y119.968
G1 F1200 X90.803 Y119.088 E22.21198
G0 F6000 X90.238 Y119.088
G1 F1200 X91.118 Y119.968 E22.25337
G0 F6000 X90.552 Y119.968
G1 F1200 X89.672 Y119.088 E22.29477
G0 F6000 X89.106 Y119.088
