;FLAVOR:Marlin
M73 P0
M73 R35
;TIME:2117
;Filament used: 0.633575m
;Layer height: 0.2
;MINX:91.105
;MINY:100.633
;MINZ:0.2
;MAXX:143.896
;MAXY:131.748
;MAXZ:38
;POSTPROCESSED
;Generated with Cura_SteamEngine 5.0.0
M140 S50
M105
M190 S50
M104 S215
M105
M109 S215
M82 ;absolute extrusion mode
; Ender 3 Custom Start G-code
G92 E0 ; Reset Extruder
G28 ; Home all axes
G1 Z2.0 F3000 ; Move Z Axis up little to prevent scratching of Heat Bed
G1 X0.1 Y20 Z0.3 F5000.0 ; Move to start position
G1 X0.1 Y200.0 Z0.3 F1500.0 E15 ; Draw the first line
G1 X0.4 Y200.0 Z0.3 F5000.0 ; Move to side a little
G1 X0.4 Y20 Z0.3 F1500.0 E30 ; Draw the second line
G92 E0 ; Reset Extruder
G1 Z2.0 F3000 ; Move Z Axis up little to prevent scratching of Heat Bed
G1 X5 Y20 Z0.3 F5000.0 ; Move over to prevent blob squish
G92 E0
G92 E0
G1 F2700 E-5
;LAYER_COUNT:191
;LAYER:0
M107
G0 F6000 X94.966 Y109.361 Z0.2
G0 X91.105 Y118.662
;TYPE:SKIRT
G1 F2700 E0
G1 F1200 X91.116 Y117.606 E0.03512
G1 X91.165 Y116.67 E0.0663
G1 X91.295 Y115.741 E0.0975
G1 X91.503 Y114.826 E0.12871
G1 X91.788 Y113.933 E0.15989
G1 X92.148 Y113.067 E0.19108
G1 X92.581 Y112.235 E0.22227
G1 X93.083 Y111.443 E0.25346
G1 X93.65 Y110.696 E0.28465
G1 X94.279 Y110.001 E0.31583
G1 X94.966 Y109.361 E0.34706
G1 X95.704 Y108.783 E0.37824
G1 X96.488 Y108.269 E0.40942
G1 X97.016 Y107.974 E0.42953
G1 X97.458 Y107.743 E0.44612
G1 X99.705 Y106.53 E0.53105
G1 X101.905 Y105.258 E0.61557
G1 X104.072 Y103.923 E0.70023
G1 X105.831 Y102.791 E0.7698
G1 X106.64 Y102.317 E0.80099
G1 X107.487 Y101.914 E0.83218
G1 X108.715 Y101.477 E0.87554
G1 X109.404 Y101.282 E0.89935
G1 X110.563 Y100.982 E0.93917
G1 X111.48 Y100.786 E0.97036
G1 X112.41 Y100.669 E1.00154
G1 X113.702 Y100.638 E1.04452
G1 X114.2 Y100.655 E1.06109
G1 X116.861 Y100.712 E1.14962
G1 X119.389 Y100.693 E1.2337
G1 X120.597 Y100.651 E1.27391
G1 X121.464 Y100.633 E1.30275
G1 X122.401 Y100.654 E1.33392
G1 X123.334 Y100.754 E1.36513
G1 X124.446 Y100.981 E1.40288
G1 X125.561 Y101.273 E1.44121
G1 X126.221 Y101.46 E1.46403
G1 X127.111 Y101.754 E1.49521
G1 X127.974 Y102.122 E1.52641
G1 X129.19 Y102.803 E1.57276
G1 X131.376 Y104.215 E1.65932
G1 X133.513 Y105.51 E1.74243
G1 X135.707 Y106.758 E1.82638
G1 X136.936 Y107.405 E1.87258
G1 X138.121 Y108.046 E1.91739
G1 X138.926 Y108.527 E1.94858
G1 X139.687 Y109.075 E1.97977
G1 X140.399 Y109.685 E2.01095
G1 X141.056 Y110.354 E2.04214
G1 X141.654 Y111.077 E2.07334
G1 X142.188 Y111.848 E2.10454
G1 X142.654 Y112.662 E2.13573
G1 X143.05 Y113.512 E2.16692
G1 X143.371 Y114.393 E2.19811
G1 X143.617 Y115.298 E2.2293
G1 X143.784 Y116.221 E2.2605
G1 X143.882 Y117.401 E2.29988
G1 X143.896 Y118.108 E2.3234
G1 X143.887 Y119.382 E2.36578
G1 X143.84 Y120.318 E2.39695
G1 X143.714 Y121.248 E2.42816
G1 X143.509 Y122.163 E2.45935
G1 X143.227 Y123.057 E2.49053
G1 X142.87 Y123.925 E2.52174
G1 X142.44 Y124.758 E2.55292
G1 X141.94 Y125.552 E2.58413
G1 X141.375 Y126.3 E2.61531
G1 X140.748 Y126.998 E2.64652
G1 X140.064 Y127.64 E2.67772
G1 X139.328 Y128.221 E2.7089
G1 X138.545 Y128.737 E2.74009
G1 X137.721 Y129.185 E2.77129
G1 X136.862 Y129.561 E2.80248
G1 X135.974 Y129.862 E2.83366
G1 X135.063 Y130.087 E2.86487
G1 X133.834 Y130.263 E2.90617
G1 X132.585 Y130.371 E2.94786
G1 X129.952 Y130.636 E3.03588
G1 X128.607 Y130.809 E3.08098
G1 X126.74 Y131.021 E3.14348
G1 X126.345 Y131.06 E3.15668
G1 X123.041 Y131.495 E3.26752
G1 X122.062 Y131.637 E3.30042
G1 X121.129 Y131.732 E3.33161
G1 X120.238 Y131.748 E3.36125
G1 X119.551 Y131.733 E3.38411
G1 X116.873 Y131.711 E3.47318
G1 X114.793 Y131.748 E3.54237
G1 X113.855 Y131.725 E3.57358
G1 X113.347 Y131.679 E3.59055
G1 X112.441 Y131.569 E3.6209
G1 X111.638 Y131.45 E3.6479
G1 X109.028 Y131.101 E3.73548
G1 X106.918 Y130.868 E3.80609
G1 X106.084 Y130.761 E3.83406
G1 X103.487 Y130.465 E3.92099
G1 X101.157 Y130.262 E3.99878
G1 X100.227 Y130.141 E4.02997
G1 X99.311 Y129.941 E4.06116
G1 X98.415 Y129.664 E4.09235
G1 X97.546 Y129.311 E4.12355
G1 X96.71 Y128.886 E4.15474
G1 X95.914 Y128.391 E4.18592
G1 X95.162 Y127.83 E4.21712
G1 X94.461 Y127.207 E4.24831
G1 X93.816 Y126.526 E4.27951
G1 X93.231 Y125.793 E4.3107
G1 X92.71 Y125.013 E4.3419
G1 X92.258 Y124.191 E4.3731
G1 X91.878 Y123.334 E4.40428
G1 X91.572 Y122.447 E4.43549
G1 X91.342 Y121.538 E4.46668
G1 X91.191 Y120.612 E4.49788
G1 X91.115 Y119.492 E4.53522
G1 X91.105 Y118.662 E4.56283
G0 F6000 X91.505 Y118.667
G1 F1200 X91.516 Y117.611 E4.59795
G1 X91.565 Y116.691 E4.62859
G1 X91.694 Y115.78 E4.6592
G1 X91.902 Y114.883 E4.68982
G1 X92.187 Y114.007 E4.72046
G1 X92.547 Y113.16 E4.75107
G1 X92.978 Y112.347 E4.78168
G1 X93.479 Y111.574 E4.81231
G1 X94.045 Y110.848 E4.84293
G1 X94.672 Y110.174 E4.87355
G1 X95.355 Y109.556 E4.90418
G1 X96.089 Y109.001 E4.93479
G1 X97.202 Y108.328 E4.97805
G1 X97.653 Y108.092 E4.99498
G1 X99.915 Y106.871 E5.08048
G1 X102.067 Y105.627 E5.16315
G1 X104.299 Y104.252 E5.25034
G1 X106.047 Y103.127 E5.31948
G1 X106.842 Y102.663 E5.3501
G1 X107.675 Y102.269 E5.38075
G1 X108.826 Y101.861 E5.42136
G1 X109.504 Y101.669 E5.4448
G1 X110.663 Y101.369 E5.48462
G1 X111.563 Y101.177 E5.51523
G1 X112.477 Y101.064 E5.54586
G1 X113.688 Y101.037 E5.58615
G1 X114.25 Y101.057 E5.60485
G1 X116.855 Y101.112 E5.69151
G1 X119.406 Y101.093 E5.77636
G1 X120.605 Y101.051 E5.81626
G1 X121.472 Y101.033 E5.84511
G1 X122.392 Y101.054 E5.87571
G1 X123.308 Y101.155 E5.90637
G1 X124.346 Y101.369 E5.94162
G1 X125.452 Y101.657 E5.97963
G1 X126.112 Y101.844 E6.00244
G1 X126.986 Y102.134 E6.03307
G1 X127.831 Y102.498 E6.06367
G1 X128.973 Y103.139 E6.10723
G1 X131.157 Y104.55 E6.19371
G1 X133.329 Y105.866 E6.27818
G1 X135.501 Y107.102 E6.3613
G1 X136.745 Y107.757 E6.40806
G1 X137.93 Y108.398 E6.45287
G1 X138.72 Y108.87 E6.48348
G1 X139.466 Y109.41 E6.51411
G1 X140.163 Y110.012 E6.54474
G1 X140.804 Y110.673 E6.57536
G1 X141.386 Y111.386 E6.60597
G1 X141.903 Y112.148 E6.6366
G1 X142.353 Y112.951 E6.66722
G1 X142.731 Y113.79 E6.69782
G1 X143.035 Y114.659 E6.72844
G1 X143.263 Y115.551 E6.75907
G1 X143.412 Y116.46 E6.7897
G1 X143.483 Y117.412 E6.82146
G1 X143.496 Y118.105 E6.84451
G1 X143.487 Y119.379 E6.88688
G1 X143.44 Y120.298 E6.91749
G1 X143.314 Y121.21 E6.94811
G1 X143.109 Y122.108 E6.97875
G1 X142.828 Y122.984 E7.00934
G1 X142.471 Y123.833 E7.03998
G1 X142.042 Y124.648 E7.07061
G1 X141.543 Y125.422 E7.10124
G1 X140.98 Y126.15 E7.13185
G1 X140.355 Y126.826 E7.16247
G1 X139.674 Y127.446 E7.1931
G1 X138.942 Y128.004 E7.22371
G1 X138.165 Y128.497 E7.25432
G1 X137.347 Y128.92 E7.28495
G1 X136.496 Y129.271 E7.31557
G1 X135.617 Y129.546 E7.3462
G1 X134.718 Y129.745 E7.37683
G1 X133.8 Y129.865 E7.40762
G1 X132.508 Y129.977 E7.45075
G1 X129.928 Y130.236 E7.53699
G1 X128.562 Y130.411 E7.5828
G1 X126.7 Y130.623 E7.64513
G1 X126.287 Y130.664 E7.65893
G1 X123.009 Y131.095 E7.7689
G1 X122.005 Y131.241 E7.80264
G1 X121.089 Y131.334 E7.83327
G1 X120.247 Y131.348 E7.86127
G1 X119.564 Y131.333 E7.884
G1 X116.869 Y131.311 E7.97364
G1 X114.786 Y131.348 E8.04293
G1 X113.865 Y131.325 E8.07357
G1 X113.392 Y131.281 E8.08937
G1 X112.5 Y131.173 E8.11925
G1 X111.683 Y131.052 E8.14672
G1 X109.08 Y130.704 E8.23407
G1 X106.969 Y130.472 E8.30471
G1 X106.105 Y130.361 E8.33368
G1 X103.532 Y130.068 E8.41981
G1 X101.192 Y129.864 E8.49793
G1 X100.279 Y129.744 E8.52856
G1 X99.38 Y129.546 E8.55918
G1 X98.502 Y129.27 E8.58979
G1 X97.651 Y128.919 E8.62041
G1 X96.833 Y128.496 E8.65104
G1 X96.056 Y128.003 E8.68164
G1 X95.324 Y127.444 E8.71228
G1 X94.643 Y126.825 E8.74288
G1 X94.019 Y126.148 E8.77351
G1 X93.455 Y125.42 E8.80414
G1 X92.957 Y124.645 E8.83478
G1 X92.528 Y123.831 E8.86538
G1 X92.172 Y122.982 E8.896
G1 X91.89 Y122.106 E8.92661
G1 X91.685 Y121.208 E8.95724
G1 X91.56 Y120.296 E8.98786
G1 X91.515 Y119.485 E9.01488
G1 X91.505 Y118.667 E9.04209
G0 F6000 X91.905 Y118.671
G1 F1200 X91.916 Y117.615 E9.07721
G1 X91.965 Y116.713 E9.10726
G1 X92.094 Y115.819 E9.1373
G1 X92.301 Y114.94 E9.16733
G1 X92.586 Y114.083 E9.19737
G1 X92.945 Y113.254 E9.22742
G1 X93.376 Y112.461 E9.25744
G1 X93.876 Y111.708 E9.2875
G1 X94.44 Y111.003 E9.31753
G1 X95.064 Y110.351 E9.34755
G1 X95.743 Y109.756 E9.37757
G1 X96.473 Y109.223 E9.40764
G1 X97.387 Y108.683 E9.44295
G1 X100.099 Y107.226 E9.54534
G1 X102.297 Y105.956 E9.62977
G1 X104.491 Y104.604 E9.71549
G1 X106.264 Y103.463 E9.78561
G1 X107.044 Y103.009 E9.81563
G1 X107.862 Y102.625 E9.84569
G1 X108.938 Y102.245 E9.88364
G1 X109.604 Y102.056 E9.90667
G1 X110.763 Y101.756 E9.94649
G1 X111.646 Y101.569 E9.97651
G1 X112.543 Y101.461 E10.00656
G1 X113.674 Y101.437 E10.04418
G1 X114.229 Y101.456 E10.06265
G1 X116.849 Y101.512 E10.14981
G1 X119.387 Y101.493 E10.23423
G1 X120.613 Y101.451 E10.27503
G1 X121.48 Y101.433 E10.30387
G1 X122.383 Y101.454 E10.33392
G1 X123.281 Y101.555 E10.36397
G1 X124.246 Y101.756 E10.39676
G1 X125.343 Y102.042 E10.43446
G1 X126.003 Y102.229 E10.45728
G1 X126.86 Y102.514 E10.48732
G1 X127.688 Y102.873 E10.51733
G1 X128.756 Y103.475 E10.55811
G1 X130.939 Y104.885 E10.64455
G1 X133.131 Y106.213 E10.72979
G1 X135.309 Y107.453 E10.81315
G1 X136.555 Y108.108 E10.85997
G1 X137.74 Y108.749 E10.90478
G1 X138.515 Y109.214 E10.93484
G1 X139.245 Y109.745 E10.96486
G1 X139.926 Y110.339 E10.99492
G1 X140.551 Y110.99 E11.02493
G1 X141.116 Y111.694 E11.05495
G1 X141.617 Y112.446 E11.08501
G1 X142.049 Y113.239 E11.11504
G1 X142.41 Y114.067 E11.14509
G1 X142.696 Y114.923 E11.1751
G1 X142.905 Y115.802 E11.20516
G1 X143.035 Y116.696 E11.2352
G1 X143.083 Y117.424 E11.25947
G1 X143.096 Y118.102 E11.28202
G1 X143.087 Y119.376 E11.3244
G1 X143.04 Y120.278 E11.35444
G1 X142.914 Y121.172 E11.38447
G1 X142.71 Y122.052 E11.41451
G1 X142.428 Y122.91 E11.44455
G1 X142.072 Y123.74 E11.47459
G1 X141.644 Y124.535 E11.50462
G1 X141.147 Y125.289 E11.53466
G1 X140.585 Y125.996 E11.56469
G1 X139.963 Y126.651 E11.59474
G1 X139.285 Y127.248 E11.62478
G1 X138.557 Y127.783 E11.65483
G1 X137.785 Y128.251 E11.68486
G1 X136.975 Y128.649 E11.71488
G1 X136.132 Y128.974 E11.74493
G1 X135.264 Y129.223 E11.77496
G1 X134.377 Y129.395 E11.80501
G1 X133.765 Y129.466 E11.8255
G1 X132.509 Y129.575 E11.86744
G1 X129.873 Y129.84 E11.95555
G1 X128.516 Y130.014 E12.00105
G1 X126.661 Y130.225 E12.06315
G1 X126.253 Y130.265 E12.07679
G1 X122.903 Y130.706 E12.18917
G1 X121.947 Y130.845 E12.2213
G1 X121.049 Y130.935 E12.25132
G1 X120.255 Y130.948 E12.27773
G1 X119.575 Y130.933 E12.30035
G1 X116.865 Y130.911 E12.39049
G1 X114.779 Y130.948 E12.45988
G1 X113.438 Y130.884 E12.50453
G1 X112.559 Y130.778 E12.53398
G1 X111.729 Y130.655 E12.56189
G1 X109.137 Y130.308 E12.64887
G1 X107.02 Y130.075 E12.7197
G1 X106.135 Y129.961 E12.74938
G1 X103.572 Y129.669 E12.83518
G1 X101.227 Y129.465 E12.91347
G1 X100.332 Y129.347 E12.94349
G1 X99.45 Y129.15 E12.97355
G1 X98.59 Y128.876 E13.00357
G1 X97.757 Y128.527 E13.03361
G1 X96.958 Y128.106 E13.06365
G1 X96.2 Y127.615 E13.09369
G1 X95.488 Y127.059 E13.12374
G1 X94.828 Y126.443 E13.15376
G1 X94.225 Y125.771 E13.18379
G1 X93.684 Y125.048 E13.21383
G1 X93.209 Y124.279 E13.24389
G1 X92.804 Y123.472 E13.27392
G1 X92.471 Y122.633 E13.30394
G1 X92.215 Y121.767 E13.33398
G1 X92.036 Y120.882 E13.36401
G1 X91.936 Y119.984 E13.39406
G1 X91.914 Y119.478 E13.41091
G1 X91.905 Y118.671 E13.43775
G1 F2700 E8.43775
;MESH:jet_fighter.STL
G0 F6000 X101.439 Y118.686
G0 X102.534 Y118.686
G1 F2700 E13.43775
G0 F6000 X102.304 Y119.114
;TYPE:WALL-OUTER
G1 F1200 X102.904 Y119.114 E13.45771
G1 X105.905 Y119.114 E13.55752
G1 X105.905 Y117.916 E13.59737
G1 X102.305 Y117.915 E13.7171
G1 X102.304 Y119.114 E13.75698
G0 F6000 X102.684 Y118.734
G0 X105.506 Y118.325
G0 X105.506 Y118.315
;TYPE:WALL-INNER
G1 F1203 X102.705 Y118.315 E13.84991
G1 F1200 X102.704 Y118.714 E13.86318
G1 X102.904 Y118.714 E13.86983
G1 F1203 X105.506 Y118.715 E13.95616
G1 X105.506 Y118.315 E13.96943
G0 F6000 X105.196 Y118.625
G1 F2700 E8.96943
G0 F6000 X105.681 Y118.89
G0 X106.771 Y118.89
G0 X107.686 Y118.888
G0 X108.761 Y118.887
G0 X110.59 Y119.171
G1 F2700 E13.96943
G0 F6000 X111 Y119.171
;TYPE:WALL-OUTER
G1 F1200 X111 Y118.571 E13.98939
G1 X108.551 Y118.571 E14.07084
G1 X108.551 Y119.771 E14.11075
G1 X111 Y119.771 E14.19221
G1 X111 Y119.171 E14.21216
G0 F6000 X110.6 Y119.171
;TYPE:WALL-INNER
G1 F1200 X110.6 Y118.971 E14.21881
G1 X108.951 Y118.971 E14.27366
G1 X108.951 Y119.371 E14.28696
G1 X110.6 Y119.371 E14.34181
G1 X110.6 Y119.171 E14.34846
G0 F6000 X110.29 Y119.061
G1 F2700 E9.34846
G0 F6000 X110.776 Y118.795
G0 X113.19 Y118.74
;TYPE:WALL-OUTER
G1 F2700 E14.34846
G1 F1293.8 X113.125 Y119.099 E14.35972
G1 X113.156 Y119.474 E14.37133
G1 X113.274 Y119.805 E14.38217
G1 F1297.3 X113.48 Y120.103 E14.39331
G1 X113.755 Y120.338 E14.40444
G1 X114.084 Y120.496 E14.41567
G1 F1293.8 X114.442 Y120.562 E14.4269
G1 X114.81 Y120.533 E14.43829
G1 X115.147 Y120.412 E14.44933
G1 F1297.3 X115.446 Y120.206 E14.4605
G1 X115.682 Y119.93 E14.47168
G1 X115.838 Y119.602 E14.48285
G1 F1293.8 X115.905 Y119.246 E14.49402
G1 F1290.3 X115.911 Y119.195 E14.49561
G1 X115.876 Y118.877 E14.50551
G1 F1293.8 X115.755 Y118.538 E14.51661
G1 X115.549 Y118.24 E14.52779
G1 F1297.3 X115.274 Y118.005 E14.53892
G1 X114.945 Y117.848 E14.55013
G1 F1293.8 X114.588 Y117.781 E14.56134
G1 X114.222 Y117.811 E14.57267
G1 X113.882 Y117.93 E14.58378
G1 X113.583 Y118.137 E14.595
G1 F1297.3 X113.349 Y118.411 E14.60608
G1 X113.19 Y118.74 E14.61732
G1 F2700 E9.61732
G0 F6000 X115.403 Y119.684
G1 F2700 E14.61732
G1 F1290.3 X115.241 Y119.896 E14.62558
G1 X115.027 Y120.06 E14.63392
G1 F1286.9 X114.782 Y120.161 E14.64214
G1 X114.514 Y120.196 E14.65052
G1 X114.247 Y120.161 E14.65887
G1 F1290.3 X114.002 Y120.06 E14.66707
G1 X113.788 Y119.896 E14.67541
G1 X113.625 Y119.684 E14.68368
G1 X113.527 Y119.446 E14.69164
G1 F1286.9 X113.49 Y119.173 E14.70019
G1 X113.526 Y118.901 E14.7087
G1 F1290.3 X113.626 Y118.659 E14.71679
G1 F1293.8 X113.793 Y118.443 E14.72522
G1 X114.002 Y118.283 E14.73334
G1 F1290.3 X114.247 Y118.183 E14.74152
G1 X114.517 Y118.148 E14.74994
G1 X114.782 Y118.182 E14.75821
G1 X115.027 Y118.283 E14.7664
G1 X115.241 Y118.447 E14.77474
G1 X115.403 Y118.659 E14.783
G1 F1286.9 X115.504 Y118.903 E14.79119
G1 X115.539 Y119.171 E14.79957
G1 F1290.3 X115.504 Y119.439 E14.80793
G1 X115.403 Y119.684 E14.81613
G1 F2700 E9.81613
G0 F6000 X116.534 Y120.149
G0 X118.529 Y118.042
G0 X119.546 Y118.143
G1 F2700 E14.81613
G1 F1290.3 X119.308 Y118.426 E14.82757
G1 F1286.9 X119.158 Y118.747 E14.83855
G1 X119.093 Y119.109 E14.84996
G1 X119.125 Y119.475 E14.86136
G1 F1290.3 X119.245 Y119.807 E14.87228
G1 X119.457 Y120.112 E14.88377
G1 F1286.9 X119.739 Y120.348 E14.89517
G1 F1290.3 X120.062 Y120.499 E14.9062
G1 X120.424 Y120.564 E14.91758
G1 X120.786 Y120.532 E14.92882
G1 X121.125 Y120.41 E14.93996
G1 X121.428 Y120.198 E14.9514
G1 X121.653 Y119.93 E14.96222
G1 F1293.8 X121.809 Y119.604 E14.97337
G1 F1290.3 X121.878 Y119.234 E14.98501
G1 X121.845 Y118.869 E14.99635
G1 F1293.8 X121.724 Y118.535 E15.00731
G1 F1290.3 X121.514 Y118.232 E15.01871
G1 F1286.9 X121.23 Y117.995 E15.03019
G1 F1290.3 X120.909 Y117.845 E15.04115
G1 X120.549 Y117.78 E15.05246
G1 X120.182 Y117.812 E15.06386
G1 X119.851 Y117.931 E15.07474
G1 X119.546 Y118.143 E15.08623
G1 F2700 E10.08623
G0 F6000 X120.489 Y120.195
G1 F2700 E15.08623
G1 F1283.4 X120.221 Y120.162 E15.09462
G1 F1286.9 X119.979 Y120.062 E15.10274
G1 F1283.4 X119.762 Y119.897 E15.11122
G1 F1286.9 X119.598 Y119.685 E15.11953
G1 X119.498 Y119.443 E15.12766
G1 F1283.4 X119.462 Y119.176 E15.13603
G1 X119.496 Y118.906 E15.1445
G1 X119.595 Y118.665 E15.1526
G1 X119.758 Y118.45 E15.16099
G1 F1286.9 X119.971 Y118.285 E15.16935
