;FLAVOR:Marlin
M73 P0
M73 R13
;TIME:761
;Filament used: 0.473202m
;Layer height: 0.2
;MINX:83.696
;MINY:95.605
;MINZ:0.2
;MAXX:144.976
;MAXY:141.127
;MAXZ:2
;POSTPROCESSED
;Generated with Cura_SteamEngine 5.0.0
M140 S50
M105
M190 S50
M104 S215
M105
M109 S215
M82 ;absolute extrusion mode
; Ender 3 Custom Start G-code
G92 E0 ; Reset Extruder
G28 ; Home all axes
G1 Z2.0 F3000 ; Move Z Axis up little to prevent scratching of Heat Bed
G1 X0.1 Y20 Z0.3 F5000.0 ; Move to start position
G1 X0.1 Y200.0 Z0.3 F1500.0 E15 ; Draw the first line
G1 X0.4 Y200.0 Z0.3 F5000.0 ; Move to side a little
G1 X0.4 Y20 Z0.3 F1500.0 E30 ; Draw the second line
G92 E0 ; Reset Extruder
G1 Z2.0 F3000 ; Move Z Axis up little to prevent scratching of Heat Bed
G1 X5 Y20 Z0.3 F5000.0 ; Move over to prevent blob squish
G92 E0
G92 E0
G1 F2700 E-5
;LAYER_COUNT:10
;LAYER:0
M107
G0 F6000 X89.398 Y100.275 Z0.2
G0 X83.833 Y110.991
;TYPE:SKIRT
G1 F2700 E0
G1 F1200 X83.964 Y110.062 E0.0312
G1 X84.063 Y109.585 E0.04741
G1 X84.282 Y108.671 E0.07867
G1 X84.359 Y108.388 E0.08842
G1 X84.542 Y107.785 E0.10938
G1 X84.837 Y106.957 E0.13862
G1 X85.016 Y106.508 E0.15469
G1 X85.427 Y105.6 E0.18784
G1 X85.715 Y105.033 E0.209
G1 X86.149 Y104.258 E0.23854
G1 X86.391 Y103.864 E0.25392
G1 X86.907 Y103.098 E0.28464
G1 X87.266 Y102.622 E0.30447
G1 X87.663 Y102.121 E0.32573
G1 X88.294 Y101.392 E0.35779
G1 X88.682 Y100.982 E0.37657
G1 X89.021 Y100.64 E0.39259
G1 X89.398 Y100.275 E0.41004
G1 X90.149 Y99.611 E0.44338
G1 X90.56 Y99.28 E0.46093
G1 X91.347 Y98.702 E0.49341
G1 X91.884 Y98.343 E0.51489
G1 X92.954 Y97.712 E0.55621
G1 X93.969 Y97.197 E0.59406
G1 X94.317 Y97.033 E0.60686
G1 X95.533 Y96.546 E0.65043
G1 X96.068 Y96.368 E0.66918
G1 X96.887 Y96.13 E0.69755
G1 X97.253 Y96.039 E0.71009
G1 X97.826 Y95.913 E0.7296
G1 X98.314 Y95.819 E0.74613
G1 X99.242 Y95.681 E0.77734
G1 X100.197 Y95.622 E0.80916
G1 X101.253 Y95.605 E0.84429
G1 X101.934 Y95.61 E0.86694
G1 X102.603 Y95.627 E0.8892
G1 X103.612 Y95.699 E0.92284
G1 X104.995 Y95.862 E0.96916
G1 X107.55 Y96.12 E1.05457
G1 X110.069 Y96.302 E1.13857
G1 X112.551 Y96.411 E1.2212
G1 X115.11 Y96.451 E1.30633
G1 X117.598 Y96.419 E1.38909
G1 X120.12 Y96.316 E1.47304
G1 X122.63 Y96.141 E1.55672
G1 X125.234 Y95.878 E1.64377
G1 X125.706 Y95.836 E1.65953
G1 X126.544 Y95.794 E1.68744
G1 X127.802 Y95.782 E1.72928
G1 X128.215 Y95.788 E1.74302
G1 X129.043 Y95.831 E1.7706
G1 X129.287 Y95.853 E1.77875
G1 X130.176 Y95.97 E1.80857
G1 X131.112 Y96.141 E1.84022
G1 X131.463 Y96.216 E1.85216
G1 X132.376 Y96.453 E1.88353
G1 X132.936 Y96.624 E1.903
G1 X133.779 Y96.919 E1.93271
G1 X134.248 Y97.105 E1.94949
G1 X134.776 Y97.33 E1.96858
G1 X135.136 Y97.495 E1.98175
G1 X136.234 Y98.076 E2.02307
G1 X136.675 Y98.342 E2.0402
G1 X137.1 Y98.611 E2.05693
G1 X137.572 Y98.926 E2.0758
G1 X138.323 Y99.475 E2.10674
G1 X138.762 Y99.825 E2.12541
G1 X139.579 Y100.545 E2.16163
G1 X140.093 Y101.051 E2.18562
G1 X140.386 Y101.352 E2.19959
G1 X141.119 Y102.185 E2.2365
G1 X141.458 Y102.612 E2.25463
G1 X141.998 Y103.355 E2.28518
G1 X142.331 Y103.855 E2.30516
G1 X143.017 Y105.037 E2.35062
G1 X143.44 Y105.884 E2.38211
G1 X143.823 Y106.74 E2.4133
G1 X144.013 Y107.255 E2.43156
G1 X144.192 Y107.781 E2.45004
G1 X144.435 Y108.598 E2.47839
G1 X144.599 Y109.239 E2.50039
G1 X144.792 Y110.157 E2.53159
G1 X144.89 Y110.895 E2.55635
G1 X144.921 Y111.212 E2.56695
G1 X144.973 Y112.23 E2.60085
G1 X144.976 Y113.264 E2.63524
G1 X144.962 Y114.153 E2.66481
G1 X144.869 Y117.198 E2.76614
G1 X144.869 Y119.685 E2.84886
G1 X144.964 Y123.016 E2.95969
G1 X144.966 Y124.009 E2.99272
G1 X144.923 Y124.946 E3.02392
G1 X144.86 Y125.5 E3.04246
G1 X144.769 Y126.15 E3.06429
G1 X144.667 Y126.751 E3.08457
G1 X144.574 Y127.223 E3.10057
G1 X144.276 Y128.396 E3.14082
G1 X144.105 Y128.94 E3.15979
G1 X143.82 Y129.747 E3.18825
G1 X143.363 Y130.799 E3.2264
G1 X142.927 Y131.675 E3.25895
G1 X142.464 Y132.512 E3.29076
G1 X142.228 Y132.898 E3.30581
G1 X141.677 Y133.715 E3.33858
G1 X141.421 Y134.06 E3.35287
G1 X140.83 Y134.789 E3.38409
G1 X140.454 Y135.193 E3.40244
G1 X139.565 Y136.097 E3.44461
G1 X139.006 Y136.64 E3.47053
G1 X138.306 Y137.264 E3.50172
G1 X137.644 Y137.766 E3.52935
G1 X137.262 Y138.033 E3.54486
G1 X136.804 Y138.336 E3.56312
G1 X136.434 Y138.568 E3.57765
G1 X135.816 Y138.928 E3.60143
G1 X135.503 Y139.097 E3.61326
G1 X134.967 Y139.368 E3.63324
G1 X134.373 Y139.648 E3.65508
G1 X133.346 Y140.07 E3.69201
G1 X132.893 Y140.23 E3.70799
G1 X131.991 Y140.506 E3.73936
G1 X131.32 Y140.68 E3.76242
G1 X130.403 Y140.876 E3.79361
G1 X129.901 Y140.95 E3.81049
G1 X129.25 Y141.03 E3.8323
G1 X128.142 Y141.11 E3.86925
G1 X127.343 Y141.127 E3.89583
G1 X126.51 Y141.118 E3.92354
G1 X125.93 Y141.089 E3.94285
M73 P1
G1 X123.544 Y140.907 E4.02244
G1 X121.061 Y140.788 E4.10512
G1 X118.53 Y140.738 E4.18932
G1 X115.973 Y140.761 E4.27437
G1 X115.289 Y140.779 E4.29713
G1 X114.191 Y140.79 E4.33365
G1 X110.705 Y140.734 E4.44961
G1 X108.189 Y140.767 E4.5333
G1 X105.735 Y140.87 E4.61499
G1 X104.001 Y141.002 E4.67283
G1 X103.777 Y141.01 E4.68028
G1 X102.73 Y141.084 E4.7152
G1 X102.056 Y141.111 E4.73763
G1 X100.907 Y141.122 E4.77585
G1 X99.625 Y141.06 E4.81854
G1 X99.114 Y141.005 E4.83563
G1 X98.369 Y140.902 E4.86065
G1 X97.242 Y140.669 E4.89892
G1 X96.57 Y140.493 E4.92203
G1 X95.562 Y140.177 E4.95716
G1 X95.056 Y139.991 E4.97509
G1 X93.927 Y139.502 E5.01601
G1 X93.118 Y139.097 E5.04611
G1 X92.085 Y138.508 E5.08566
G1 X91.418 Y138.072 E5.11216
G1 X91.007 Y137.788 E5.12878
G1 X90.259 Y137.222 E5.15997
G1 X89.597 Y136.629 E5.18953
G1 X88.779 Y135.829 E5.22759
G1 X88.182 Y135.214 E5.2561
G1 X87.288 Y134.169 E5.30184
G1 X87.038 Y133.837 E5.31566
G1 X86.383 Y132.864 E5.35467
G1 X86.117 Y132.419 E5.37192
G1 X85.713 Y131.68 E5.39993
G1 X85.296 Y130.843 E5.43103
G1 X84.793 Y129.667 E5.47357
G1 X84.591 Y129.087 E5.494
G1 X84.403 Y128.503 E5.5144
G1 X84.124 Y127.465 E5.55015
G1 X84.035 Y127.055 E5.56411
G1 X83.857 Y125.976 E5.60048
G1 X83.773 Y125.244 E5.62499
G1 X83.702 Y124.106 E5.66291
G1 X83.696 Y123.538 E5.6818
G1 X83.707 Y122.919 E5.70239
G1 X83.727 Y122.487 E5.71678
G1 X83.809 Y119.832 E5.80513
G1 X83.816 Y117.371 E5.88698
G1 X83.712 Y114.043 E5.99772
G1 X83.697 Y113.221 E6.02507
G1 X83.732 Y112.121 E6.06167
G1 X83.833 Y110.991 E6.09941
G0 F6000 X84.097 Y113.213
G1 F1200 X84.13 Y112.153 E6.13468
G1 X84.232 Y111.03 E6.17218
G1 X84.452 Y109.675 E6.21784
G1 X84.668 Y108.776 E6.24859
G1 X84.745 Y108.493 E6.25835
G1 X84.921 Y107.912 E6.27854
G1 X85.003 Y107.667 E6.28713
G1 X85.209 Y107.106 E6.30701
G1 X85.388 Y106.657 E6.32309
G1 X85.783 Y105.782 E6.35502
G1 X86.071 Y105.215 E6.37617
G1 X86.49 Y104.467 E6.40469
G1 X86.732 Y104.073 E6.42006
G1 X87.229 Y103.335 E6.44966
G1 X87.579 Y102.871 E6.46899
G1 X87.976 Y102.37 E6.49025
G1 X88.585 Y101.667 E6.52118
G1 X88.973 Y101.257 E6.53996
G1 X89.299 Y100.927 E6.55539
G1 X89.676 Y100.562 E6.57284
G1 X90.4 Y99.922 E6.60498
G1 X90.811 Y99.591 E6.62253
G1 X91.569 Y99.035 E6.6538
G1 X92.106 Y98.676 E6.67528
G1 X93.137 Y98.068 E6.71509
G1 X94.139 Y97.558 E6.75249
G1 X94.487 Y97.394 E6.76528
G1 X95.66 Y96.925 E6.8073
G1 X96.195 Y96.747 E6.82605
G1 X96.983 Y96.518 E6.85335
G1 X97.349 Y96.427 E6.86589
G1 X97.902 Y96.305 E6.88473
G1 X98.39 Y96.211 E6.90126
G1 X99.301 Y96.077 E6.93188
G1 X100.204 Y96.022 E6.96197
G1 X101.252 Y96.005 E6.99683
G1 X101.924 Y96.009 E7.01918
G1 X102.593 Y96.026 E7.04144
G1 X103.565 Y96.096 E7.07385
G1 X104.965 Y96.261 E7.12074
G1 X107.517 Y96.519 E7.20605
G1 X110.021 Y96.7 E7.28955
G1 X112.563 Y96.811 E7.37418
G1 X115.109 Y96.851 E7.45887
G1 X117.619 Y96.819 E7.54236
G1 X120.128 Y96.716 E7.62588
G1 X122.667 Y96.54 E7.71053
G1 X125.269 Y96.277 E7.79752
G1 X125.741 Y96.235 E7.81328
G1 X126.549 Y96.194 E7.84019
G1 X127.796 Y96.182 E7.88166
G1 X128.209 Y96.188 E7.8954
G1 X129.007 Y96.23 E7.92198
G1 X129.251 Y96.252 E7.93013
G1 X130.107 Y96.364 E7.95884
G1 X131.028 Y96.532 E7.98998
G1 X131.379 Y96.607 E8.00192
G1 X132.26 Y96.835 E8.03218
G1 X132.82 Y97.006 E8.05166
G1 X133.632 Y97.291 E8.08028
G1 X134.101 Y97.477 E8.09706
G1 X134.61 Y97.694 E8.11547
G1 X134.97 Y97.859 E8.12864
G1 X136.028 Y98.418 E8.16844
G1 X136.469 Y98.684 E8.18557
G1 X136.878 Y98.944 E8.20168
G1 X137.35 Y99.259 E8.22056
G1 X138.074 Y99.788 E8.25038
G1 X138.513 Y100.138 E8.26906
G1 X139.3 Y100.832 E8.30396
G1 X139.807 Y101.33 E8.32759
G1 X140.1 Y101.631 E8.34156
G1 X140.806 Y102.434 E8.37713
G1 X141.145 Y102.861 E8.39526
G1 X141.665 Y103.576 E8.42466
G1 X141.998 Y104.076 E8.44465
G1 X142.659 Y105.216 E8.48847
G1 X143.082 Y106.063 E8.51996
G1 X143.457 Y106.904 E8.55059
G1 X143.634 Y107.384 E8.56761
G1 X143.813 Y107.91 E8.58609
M73 P2
G1 X144.047 Y108.698 E8.61343
G1 X144.211 Y109.339 E8.63543
G1 X144.4 Y110.24 E8.66605
G1 X144.492 Y110.934 E8.68934
G1 X144.523 Y111.251 E8.69993
G1 X144.573 Y112.232 E8.7326
G1 X144.576 Y113.258 E8.76673
G1 X144.562 Y114.141 E8.7961
G1 X144.469 Y117.198 E8.89782
G1 X144.469 Y119.697 E8.98094
G1 X144.568 Y123.364 E9.10295
G1 X144.566 Y124.008 E9.12437
G1 X144.523 Y124.928 E9.155
G1 X144.464 Y125.445 E9.17231
G1 X144.373 Y126.095 E9.19414
G1 X144.275 Y126.674 E9.21367
G1 X144.182 Y127.146 E9.22967
G1 X143.894 Y128.276 E9.26846
G1 X143.723 Y128.82 E9.28742
G1 X143.445 Y129.607 E9.31518
G1 X143.005 Y130.621 E9.35195
G1 X142.569 Y131.497 E9.38449
G1 X142.123 Y132.303 E9.41513
G1 X141.887 Y132.689 E9.43018
G1 X141.355 Y133.476 E9.46177
G1 X141.099 Y133.821 E9.47606
G1 X140.519 Y134.536 E9.50668
G1 X140.168 Y134.913 E9.52382
G1 X139.287 Y135.81 E9.56563
G1 X138.728 Y136.353 E9.59155
G1 X138.04 Y136.966 E9.6222
G1 X137.415 Y137.438 E9.64825
G1 X137.033 Y137.705 E9.66375
G1 X136.591 Y137.998 E9.68139
G1 X136.221 Y138.23 E9.69592
G1 X135.626 Y138.576 E9.71881
G1 X135.313 Y138.745 E9.73064
G1 X134.797 Y139.006 E9.74987
G1 X134.203 Y139.286 E9.77171
G1 X133.213 Y139.693 E9.80731
G1 X132.76 Y139.853 E9.82329
G1 X131.891 Y140.119 E9.85352
G1 X131.22 Y140.293 E9.87658
G1 X130.319 Y140.485 E9.90722
G1 X129.852 Y140.553 E9.92291
G1 X129.201 Y140.633 E9.94473
G1 X128.133 Y140.71 E9.98034
G1 X127.334 Y140.727 E10.00692
G1 X126.519 Y140.718 E10.03403
G1 X125.96 Y140.69 E10.05265
G1 X123.593 Y140.509 E10.1316
G1 X121.052 Y140.388 E10.21621
G1 X118.535 Y140.338 E10.29995
G1 X115.957 Y140.361 E10.38569
G1 X115.285 Y140.379 E10.40805
G1 X114.187 Y140.39 E10.44457
G1 X110.706 Y140.334 E10.56037
G1 X108.201 Y140.367 E10.64369
G1 X105.687 Y140.472 E10.72738
G1 X103.97 Y140.603 E10.78465
G1 X103.76 Y140.61 E10.79164
G1 X102.702 Y140.685 E10.82692
G1 X102.052 Y140.712 E10.84856
G1 X100.903 Y140.723 E10.88678
G1 X99.668 Y140.662 E10.9279
G1 X99.157 Y140.607 E10.945
G1 X98.429 Y140.507 E10.96944
G1 X97.343 Y140.282 E11.00632
G1 X96.671 Y140.106 E11.02943
G1 X95.7 Y139.801 E11.06328
G1 X95.194 Y139.615 E11.08121
G1 X94.106 Y139.145 E11.12063
G1 X93.297 Y138.74 E11.15072
G1 X92.301 Y138.172 E11.18886
G1 X91.645 Y137.743 E11.21493
G1 X91.234 Y137.459 E11.23154
G1 X90.5 Y136.903 E11.26217
G1 X89.875 Y136.342 E11.2901
G1 X89.066 Y135.55 E11.32776
G1 X88.469 Y134.935 E11.35626
G1 X87.607 Y133.928 E11.40035
G1 X87.357 Y133.596 E11.41418
G1 X86.727 Y132.659 E11.45173
G1 X86.461 Y132.214 E11.46897
G1 X86.071 Y131.502 E11.49597
G1 X85.654 Y130.665 E11.52708
G1 X85.17 Y129.532 E11.56805
G1 X84.972 Y128.964 E11.58806
G1 X84.784 Y128.38 E11.60847
G1 X84.515 Y127.381 E11.64288
G1 X84.426 Y126.971 E11.65683
G1 X84.254 Y125.93 E11.69192
G1 X84.17 Y125.198 E11.71643
G1 X84.102 Y124.102 E11.75295
G1 X84.096 Y123.534 E11.77185
G1 X84.106 Y122.937 E11.79171
G1 X84.128 Y122.449 E11.80795
G1 X84.209 Y119.845 E11.8946
G1 X84.216 Y117.36 E11.97726
G1 X84.112 Y114.035 E12.0879
G1 X84.097 Y113.213 E12.11525
G0 F6000 X84.497 Y113.206
G1 F1200 X84.529 Y112.186 E12.14919
G1 X84.63 Y111.068 E12.18652
G1 X84.842 Y109.765 E12.23043
G1 X85.054 Y108.881 E12.26067
G1 X85.131 Y108.598 E12.27042
G1 X85.3 Y108.039 E12.28985
G1 X85.58 Y107.254 E12.31757
G1 X85.759 Y106.805 E12.33364
G1 X86.14 Y105.963 E12.36438
G1 X86.428 Y105.396 E12.38553
G1 X86.831 Y104.677 E12.41295
G1 X87.073 Y104.283 E12.42833
G1 X87.551 Y103.572 E12.45682
G1 X87.893 Y103.119 E12.4757
G1 X88.29 Y102.618 E12.49696
G1 X88.875 Y101.942 E12.52669
G1 X89.263 Y101.532 E12.54547
G1 X89.954 Y100.85 E12.57776
G1 X90.651 Y100.234 E12.6087
G1 X91.062 Y99.903 E12.62625
G1 X91.791 Y99.367 E12.65635
G1 X92.328 Y99.008 E12.67783
G1 X93.321 Y98.423 E12.71616
G1 X94.31 Y97.92 E12.75307
G1 X94.658 Y97.756 E12.76586
G1 X95.786 Y97.305 E12.80627
G1 X96.321 Y97.127 E12.82502
G1 X97.08 Y96.906 E12.85131
G1 X97.446 Y96.815 E12.86386
G1 X97.978 Y96.698 E12.88198
G1 X98.466 Y96.604 E12.8985
G1 X99.359 Y96.473 E12.92852
M73 P3
G1 X100.211 Y96.422 E12.95691
G1 X101.251 Y96.405 E12.99151
G1 X101.914 Y96.409 E13.01356
G1 X102.583 Y96.426 E13.03582
G1 X103.519 Y96.493 E13.06703
G1 X104.942 Y96.661 E13.11469
G1 X107.484 Y96.917 E13.19966
G1 X110.01 Y97.1 E13.2839
G1 X112.539 Y97.211 E13.36809
G1 X115.108 Y97.251 E13.45355
G1 X117.641 Y97.219 E13.5378
G1 X120.172 Y97.115 E13.62206
G1 X122.674 Y96.941 E13.70547
G1 X125.305 Y96.675 E13.79343
G1 X125.777 Y96.633 E13.80919
G1 X126.554 Y96.594 E13.83506
G1 X127.79 Y96.582 E13.87617
G1 X128.203 Y96.588 E13.88991
G1 X128.971 Y96.628 E13.91549
G1 X129.215 Y96.65 E13.92364
G1 X130.039 Y96.759 E13.95128
G1 X130.944 Y96.923 E13.98187
G1 X131.295 Y96.998 E13.99381
G1 X132.143 Y97.218 E14.02295
G1 X132.703 Y97.389 E14.04243
G1 X133.484 Y97.662 E14.06994
G1 X133.953 Y97.848 E14.08672
G1 X134.443 Y98.058 E14.10446
G1 X134.803 Y98.223 E14.11763
G1 X135.821 Y98.761 E14.15592
G1 X136.262 Y99.027 E14.17305
G1 X136.656 Y99.277 E14.18857
G1 X137.128 Y99.592 E14.20745
G1 X137.825 Y100.101 E14.23615
G1 X138.264 Y100.451 E14.25483
G1 X139.021 Y101.119 E14.2884
G1 X139.52 Y101.609 E14.31167
G1 X139.813 Y101.91 E14.32564
G1 X140.493 Y102.683 E14.35988
G1 X140.832 Y103.11 E14.37801
G1 X141.333 Y103.798 E14.40632
G1 X141.666 Y104.298 E14.4263
G1 X142.301 Y105.395 E14.46846
G1 X142.724 Y106.242 E14.49995
G1 X143.092 Y107.067 E14.52999
G1 X143.255 Y107.513 E14.54579
G1 X143.434 Y108.039 E14.56427
G1 X143.66 Y108.797 E14.59058
G1 X143.824 Y109.438 E14.61258
G1 X144.009 Y110.322 E14.64262
G1 X144.094 Y110.973 E14.66446
G1 X144.125 Y111.29 E14.67505
G1 X144.173 Y112.234 E14.70649
G1 X144.176 Y113.253 E14.74038
G1 X144.162 Y114.129 E14.76952
G1 X144.069 Y117.173 E14.87081
G1 X144.069 Y119.71 E14.95519
G1 X144.168 Y123.363 E15.07674
G1 X144.166 Y124.007 E15.09816
G1 X144.123 Y124.909 E15.12819
G1 X144.067 Y125.389 E15.14426
G1 X143.976 Y126.039 E15.16609
G1 X143.883 Y126.597 E15.18491
G1 X143.79 Y127.069 E15.20091
G1 X143.513 Y128.156 E15.23822
G1 X143.342 Y128.7 E15.25718
G1 X143.07 Y129.467 E15.28425
G1 X142.646 Y130.443 E15.31964
G1 X142.21 Y131.319 E15.35219
G1 X141.781 Y132.095 E15.38168
G1 X141.545 Y132.481 E15.39673
G1 X141.034 Y133.238 E15.42711
G1 X140.778 Y133.583 E15.4414
G1 X140.208 Y134.284 E15.47145
G1 X139.882 Y134.634 E15.48735
G1 X139.008 Y135.523 E15.52882
G1 X138.449 Y136.066 E15.55474
G1 X137.774 Y136.666 E15.58478
G1 X137.185 Y137.11 E15.60931
G1 X136.803 Y137.377 E15.62481
G1 X136.379 Y137.659 E15.64175
G1 X136.009 Y137.891 E15.65627
G1 X135.436 Y138.224 E15.67832
G1 X135.123 Y138.393 E15.69015
G1 X134.626 Y138.644 E15.70867
G1 X134.032 Y138.924 E15.73051
G1 X133.08 Y139.316 E15.76475
G1 X132.627 Y139.476 E15.78073
G1 X131.79 Y139.731 E15.80983
G1 X131.119 Y139.905 E15.83289
G1 X129.803 Y140.156 E15.87745
G1 X129.152 Y140.236 E15.89926
G1 X128.125 Y140.31 E15.93351
G1 X127.326 Y140.327 E15.96009
G1 X126.528 Y140.318 E15.98663
