;FLAVOR:Marlin
;TIME:5156
;Filament used: 8.19618m
;Layer height: 0.28
;MINX:72.715
;MINY:72.733
;MINZ:0.28
;MAXX:162.284
;MAXY:162.267
;MAXZ:49.84
;Generated with Cura_SteamEngine 4.9.1
M140 S50
M105
M190 S50
M104 S215
M105
M109 S215
M82 ;absolute extrusion mode
; Ender 3 Custom Start G-code
G92 E0 ; Reset Extruder
G28 ; Home all axes
G1 Z2.0 F3000 ; Move Z Axis up little to prevent scratching of Heat Bed
G1 X0.1 Y20 Z0.3 F5000.0 ; Move to start position
G1 X0.1 Y200.0 Z0.3 F1500.0 E15 ; Draw the first line
G1 X0.4 Y200.0 Z0.3 F5000.0 ; Move to side a little
G1 X0.4 Y20 Z0.3 F1500.0 E30 ; Draw the second line
G92 E0 ; Reset Extruder
G1 Z2.0 F3000 ; Move Z Axis up little to prevent scratching of Heat Bed
G1 X5 Y20 Z0.3 F5000.0 ; Move over to prevent blob squish
G92 E0
G92 E0
G1 F2700 E-5
;LAYER_COUNT:178
;LAYER:0
M107
G0 F6000 X77.44 Y77.84 Z0.28
;TYPE:SKIRT
G1 F2700 E0
G1 F1200 X78.127 Y77.154 E0.04521
G1 X78.992 Y76.432 E0.09767
G1 X79.638 Y75.943 E0.1354
G1 X79.983 Y75.691 E0.15529
G1 X80.184 Y75.55 E0.16673
G1 X81.002 Y75.025 E0.21198
G1 X81.959 Y74.523 E0.26231
G1 X82.664 Y74.193 E0.29855
G1 X82.985 Y74.048 E0.31495
G1 X83.228 Y73.943 E0.32728
G1 X84.135 Y73.595 E0.37251
G1 X85.225 Y73.284 E0.4253
G1 X85.97 Y73.11 E0.46092
G1 X86.331 Y73.032 E0.47812
G1 X86.595 Y72.979 E0.49066
G1 X87.555 Y72.827 E0.53591
G1 X88.677 Y72.75 E0.58828
G1 X89.459 Y72.734 E0.6247
G1 X89.884 Y72.733 E0.64449
G1 X90.14 Y72.737 E0.65641
G1 X91.11 Y72.793 E0.70166
G1 X92.181 Y72.948 E0.75205
G1 X92.978 Y73.101 E0.78984
G1 X93.375 Y73.184 E0.80872
G1 X94.659 Y73.477 E0.87005
G1 X97.169 Y74.011 E0.98954
G1 X99.61 Y74.46 E1.10511
G1 X102.095 Y74.844 E1.22219
G1 X104.595 Y75.159 E1.33952
G1 X107.04 Y75.397 E1.45391
G1 X109.543 Y75.569 E1.57074
G1 X112.021 Y75.669 E1.68622
G1 X114.416 Y75.7 E1.79775
G1 X120.623 Y75.7 E2.08677
G1 X123.233 Y75.663 E2.20832
G1 X125.706 Y75.558 E2.32357
G1 X128.163 Y75.384 E2.43827
G1 X130.677 Y75.135 E2.5559
G1 X133.162 Y74.817 E2.67256
G1 X135.622 Y74.43 E2.78852
G1 X138.051 Y73.979 E2.90355
G1 X140.885 Y73.364 E3.03859
G1 X141.967 Y73.111 E3.09033
G1 X142.373 Y73.024 E3.10966
G1 X142.642 Y72.971 E3.12243
G1 X143.602 Y72.822 E3.16767
G1 X144.68 Y72.751 E3.21797
G1 X145.457 Y72.735 E3.25416
G1 X145.884 Y72.733 E3.27404
G1 X146.14 Y72.737 E3.28596
G1 X147.11 Y72.793 E3.33121
G1 X148.178 Y72.947 E3.38145
G1 X148.976 Y73.1 E3.41929
G1 X149.379 Y73.185 E3.43847
G1 X149.62 Y73.24 E3.44998
G1 X150.558 Y73.495 E3.49524
G1 X151.593 Y73.877 E3.54661
G1 X152.269 Y74.163 E3.58079
G1 X152.571 Y74.296 E3.59615
G1 X152.847 Y74.422 E3.61028
G1 X153.714 Y74.861 E3.65553
G1 X154.708 Y75.485 E3.71018
G1 X155.356 Y75.938 E3.747
G1 X155.667 Y76.163 E3.76487
G1 X155.858 Y76.306 E3.77598
G1 X156.611 Y76.92 E3.82122
G1 X157.38 Y77.667 E3.87114
G1 X157.936 Y78.258 E3.90893
G1 X158.264 Y78.62 E3.93167
G1 X158.425 Y78.806 E3.94313
G1 X159.03 Y79.566 E3.98836
G1 X159.598 Y80.42 E4.03612
G1 X159.998 Y81.081 E4.0721
G1 X160.201 Y81.429 E4.09086
G1 X160.328 Y81.656 E4.10297
G1 X160.767 Y82.522 E4.14818
G1 X161.178 Y83.549 E4.19969
G1 X161.433 Y84.284 E4.23591
G1 X161.552 Y84.645 E4.25361
G1 X161.632 Y84.902 E4.26615
G1 X161.882 Y85.84 E4.31135
G1 X162.075 Y86.953 E4.36395
G1 X162.169 Y87.709 E4.39942
G1 X162.209 Y88.078 E4.4167
G1 X162.235 Y88.359 E4.42984
G1 X162.284 Y89.329 E4.47507
G1 X162.242 Y90.452 E4.5274
G1 X162.176 Y91.223 E4.56343
G1 X162.137 Y91.604 E4.58126
G1 X162.099 Y91.925 E4.59631
G1 X161.866 Y93.248 E4.65887
G1 X161.66 Y94.121 E4.70063
G1 X161.123 Y96.552 E4.81656
G1 X160.645 Y99.041 E4.93458
G1 X160.252 Y101.464 E5.04888
G1 X159.923 Y103.935 E5.16495
G1 X159.662 Y106.414 E5.28102
G1 X159.47 Y108.93 E5.39852
G1 X159.352 Y111.386 E5.51301
G1 X159.3 Y114.467 E5.6565
G1 X159.3 Y120.533 E5.93895
G1 X159.337 Y123.143 E6.0605
G1 X159.442 Y125.616 E6.17576
G1 X159.618 Y128.104 E6.2919
G1 X159.862 Y130.558 E6.40673
G1 X160.183 Y133.067 E6.52451
G1 X160.571 Y135.537 E6.64093
G1 X161.02 Y137.956 E6.7555
G1 X161.554 Y140.441 E6.87385
G1 X161.832 Y141.599 E6.9293
G1 X162.066 Y142.887 E6.99026
G1 X162.168 Y143.704 E7.0286
G1 X162.208 Y144.075 E7.04597
G1 X162.234 Y144.355 E7.05907
G1 X162.284 Y145.325 E7.1043
G1 X162.243 Y146.443 E7.15639
G1 X162.179 Y147.198 E7.19167
G1 X162.14 Y147.582 E7.20964
G1 X162.107 Y147.862 E7.22277
G1 X161.954 Y148.821 E7.26799
G1 X161.682 Y149.899 E7.31976
G1 X161.452 Y150.659 E7.35674
G1 X161.323 Y151.059 E7.37631
G1 X161.244 Y151.29 E7.38767
G1 X160.892 Y152.196 E7.43293
G1 X160.417 Y153.16 E7.48297
G1 X160.05 Y153.827 E7.51842
G1 X159.848 Y154.18 E7.53736
G1 X159.699 Y154.43 E7.55091
G1 X159.168 Y155.243 E7.59613
G1 X158.489 Y156.107 E7.6473
G1 X157.984 Y156.691 E7.68325
G1 X157.743 Y156.961 E7.7001
G1 X157.571 Y157.148 E7.71193
G1 X156.884 Y157.836 E7.7572
G1 X156.008 Y158.568 E7.81036
G1 X155.362 Y159.057 E7.84809
G1 X155.039 Y159.293 E7.86671
G1 X154.839 Y159.434 E7.87811
G1 X154.023 Y159.961 E7.92334
G1 X153.042 Y160.478 E7.97498
G1 X152.339 Y160.807 E8.01112
G1 X152.023 Y160.949 E8.02725
G1 X151.778 Y161.055 E8.03968
G1 X150.871 Y161.404 E8.08493
G1 X149.772 Y161.717 E8.13814
G1 X149.026 Y161.891 E8.17381
G1 X148.669 Y161.968 E8.19082
G1 X148.405 Y162.021 E8.20335
G1 X147.445 Y162.173 E8.24861
G1 X146.323 Y162.25 E8.30098
G1 X145.541 Y162.266 E8.3374
G1 X145.116 Y162.267 E8.35719
G1 X144.86 Y162.263 E8.36911
G1 X143.89 Y162.207 E8.41436
G1 X142.819 Y162.052 E8.46475
G1 X142.022 Y161.899 E8.50254
G1 X141.625 Y161.816 E8.52142
G1 X140.341 Y161.523 E8.58275
G1 X137.831 Y160.989 E8.70224
G1 X135.39 Y160.54 E8.81781
G1 X132.905 Y160.156 E8.93489
G1 X130.405 Y159.841 E9.05222
G1 X127.96 Y159.603 E9.16661
G1 X125.457 Y159.431 E9.28344
G1 X122.979 Y159.331 E9.39892
G1 X120.584 Y159.3 E9.51045
G1 X114.377 Y159.3 E9.79947
G1 X111.767 Y159.337 E9.92102
G1 X109.294 Y159.442 E10.03627
G1 X106.837 Y159.616 E10.15097
G1 X104.323 Y159.865 E10.2686
G1 X101.838 Y160.183 E10.38526
G1 X99.378 Y160.57 E10.50122
G1 X96.949 Y161.021 E10.61625
G1 X94.115 Y161.636 E10.75129
G1 X93.033 Y161.889 E10.80303
G1 X92.627 Y161.976 E10.82236
G1 X92.358 Y162.029 E10.83513
G1 X91.398 Y162.178 E10.88037
G1 X90.32 Y162.249 E10.93067
G1 X89.543 Y162.265 E10.96686
G1 X89.116 Y162.267 E10.98674
G1 X88.86 Y162.263 E10.99866
G1 X87.89 Y162.207 E11.04391
G1 X86.822 Y162.053 E11.09415
G1 X86.024 Y161.9 E11.13199
G1 X85.621 Y161.815 E11.15116
G1 X85.38 Y161.76 E11.16268
G1 X84.442 Y161.505 E11.20794
G1 X83.407 Y161.123 E11.25931
G1 X82.731 Y160.837 E11.29349
G1 X82.429 Y160.704 E11.30885
G1 X82.153 Y160.578 E11.32298
G1 X81.286 Y160.139 E11.36823
G1 X80.292 Y159.515 E11.42288
G1 X79.644 Y159.062 E11.4597
G1 X79.333 Y158.837 E11.47757
G1 X79.142 Y158.694 E11.48868
G1 X78.389 Y158.08 E11.53392
G1 X77.62 Y157.333 E11.58384
G1 X77.064 Y156.742 E11.62163
G1 X76.736 Y156.38 E11.64437
G1 X76.575 Y156.194 E11.65583
G1 X75.97 Y155.434 E11.70106
G1 X75.402 Y154.58 E11.74882
G1 X75.002 Y153.919 E11.7848
G1 X74.799 Y153.571 E11.80356
G1 X74.672 Y153.344 E11.81567
G1 X74.233 Y152.478 E11.86088
G1 X73.822 Y151.451 E11.91239
G1 X73.567 Y150.716 E11.94861
G1 X73.448 Y150.355 E11.96631
G1 X73.368 Y150.098 E11.97884
G1 X73.118 Y149.16 E12.02405
G1 X72.924 Y148.04 E12.07698
G1 X72.829 Y147.272 E12.11301
G1 X72.791 Y146.915 E12.12973
G1 X72.766 Y146.646 E12.14231
G1 X72.716 Y145.676 E12.18753
G1 X72.758 Y144.548 E12.24009
G1 X72.824 Y143.777 E12.27613
G1 X72.861 Y143.408 E12.29339
G1 X72.899 Y143.084 E12.30858
G1 X73.136 Y141.74 E12.37213
G1 X73.342 Y140.87 E12.41376
G1 X73.877 Y138.448 E12.52926
G1 X74.355 Y135.959 E12.64728
G1 X74.748 Y133.536 E12.76158
G1 X75.077 Y131.065 E12.87765
G1 X75.338 Y128.586 E12.99372
G1 X75.53 Y126.07 E13.11122
G1 X75.648 Y123.614 E13.22571
G1 X75.7 Y120.533 E13.3692
G1 X75.7 Y114.467 E13.65166
G1 X75.663 Y111.857 E13.7732
G1 X75.558 Y109.384 E13.88846
G1 X75.384 Y106.927 E14.00315
G1 X75.132 Y104.383 E14.12219
G1 X74.821 Y101.959 E14.23599
G1 X74.43 Y99.469 E14.35335
G1 X73.978 Y97.038 E14.46849
G1 X73.446 Y94.559 E14.58655
G1 X73.168 Y93.401 E14.64201
G1 X72.933 Y92.109 E14.70315
G1 X72.829 Y91.274 E14.74233
G1 X72.788 Y90.892 E14.76022
G1 X72.764 Y90.63 E14.77248
G1 X72.715 Y89.66 E14.8177
G1 X72.758 Y88.548 E14.86952
G1 X72.824 Y87.777 E14.90555
G1 X72.861 Y87.412 E14.92263
G1 X72.892 Y87.147 E14.93506
G1 X73.044 Y86.188 E14.98027
G1 X73.319 Y85.095 E15.03275
G1 X73.55 Y84.333 E15.06983
G1 X73.678 Y83.936 E15.08925
G1 X73.756 Y83.708 E15.10047
G1 X74.108 Y82.803 E15.14569
G1 X74.585 Y81.836 E15.19589
G1 X74.965 Y81.146 E15.23257
G1 X75.179 Y80.774 E15.25256
G1 X75.315 Y80.547 E15.26488
G1 X75.848 Y79.734 E15.31015
G1 X76.511 Y78.893 E15.36001
G1 X77.022 Y78.302 E15.39639
G1 X77.274 Y78.02 E15.414
G1 X77.44 Y77.84 E15.4254
G0 F6000 X77.734 Y78.111
G1 F1200 X78.41 Y77.437 E15.46985
G1 X79.234 Y76.75 E15.51981
G1 X79.88 Y76.261 E15.55754
G1 X80.213 Y76.018 E15.57673
G1 X80.414 Y75.877 E15.58816
G1 X81.218 Y75.362 E15.63262
G1 X82.128 Y74.885 E15.68046
G1 X82.833 Y74.555 E15.71671
G1 X83.144 Y74.415 E15.73259
G1 X83.387 Y74.31 E15.74492
G1 X84.279 Y73.968 E15.7894
G1 X85.316 Y73.674 E15.83959
G1 X86.061 Y73.5 E15.87522
G1 X86.41 Y73.424 E15.89185
G1 X86.674 Y73.371 E15.90439
G1 X87.617 Y73.222 E15.94884
G1 X88.685 Y73.15 E15.99868
G1 X89.467 Y73.134 E16.0351
G1 X89.878 Y73.133 E16.05424
G1 X90.134 Y73.137 E16.06616
G1 X91.087 Y73.192 E16.11061
G1 X92.105 Y73.34 E16.15851
G1 X92.902 Y73.493 E16.1963
G1 X93.286 Y73.574 E16.21458
G1 X94.566 Y73.866 E16.27571
G1 X97.084 Y74.402 E16.39559
G1 X99.576 Y74.861 E16.51358
G1 X102.02 Y75.238 E16.62873
G1 X104.542 Y75.556 E16.74709
G1 X107.007 Y75.795 E16.86241
G1 X109.502 Y75.967 E16.97886
G1 X112.035 Y76.069 E17.09691
G1 X114.411 Y76.1 E17.20755
G1 X120.629 Y76.1 E17.49709
G1 X123.22 Y76.063 E17.61775
G1 X125.753 Y75.956 E17.7358
G1 X128.227 Y75.78 E17.85129
G1 X130.7 Y75.535 E17.96701
G1 X133.209 Y75.214 E18.08479
G1 X135.681 Y74.826 E18.20131
G1 X138.144 Y74.368 E18.31796
G1 X140.993 Y73.75 E18.45371
G1 X142.058 Y73.501 E18.50463
G1 X142.45 Y73.416 E18.52331
G1 X142.719 Y73.363 E18.53608
G1 X143.663 Y73.218 E18.58055
G1 X144.688 Y73.15 E18.62838
G1 X145.465 Y73.134 E18.66457
G1 X145.878 Y73.133 E18.6838
G1 X146.134 Y73.137 E18.69572
G1 X147.087 Y73.192 E18.74017
G1 X148.103 Y73.34 E18.78798
G1 X148.901 Y73.493 E18.82582
G1 X149.29 Y73.575 E18.84433
G1 X149.531 Y73.63 E18.85584
G1 X150.453 Y73.881 E18.90033
G1 X151.437 Y74.245 E18.94919
G1 X152.113 Y74.531 E18.98337
G1 X152.405 Y74.66 E18.99823
G1 X152.681 Y74.786 E19.01236
G1 X153.533 Y75.218 E19.05684
G1 X154.479 Y75.813 E19.10888
G1 X155.127 Y76.266 E19.14569
G1 X155.427 Y76.483 E19.16293
G1 X155.618 Y76.626 E19.17404
G1 X156.358 Y77.23 E19.21852
G1 X157.089 Y77.941 E19.26601
G1 X157.645 Y78.532 E19.30379
G1 X157.961 Y78.882 E19.32575
G1 X158.122 Y79.068 E19.3372
G1 X158.717 Y79.816 E19.38171
G1 X159.256 Y80.627 E19.42705
G1 X159.656 Y81.288 E19.46303
G1 X159.852 Y81.624 E19.48114
G1 X159.979 Y81.851 E19.49325
G1 X160.41 Y82.703 E19.53771
G1 X160.8 Y83.68 E19.5867
G1 X161.055 Y84.415 E19.62292
G1 X161.17 Y84.764 E19.64003
G1 X161.25 Y85.021 E19.65256
G1 X161.495 Y85.943 E19.69699
G1 X161.678 Y87.002 E19.74703
G1 X161.772 Y87.758 E19.7825
G1 X161.811 Y88.115 E19.79923
G1 X161.837 Y88.396 E19.81237
G1 X161.885 Y89.349 E19.8568
G1 X161.843 Y90.418 E19.90661
G1 X161.777 Y91.189 E19.94265
G1 X161.74 Y91.557 E19.95987
G1 X161.702 Y91.878 E19.97492
G1 X161.476 Y93.156 E20.03535
G1 X161.294 Y93.928 E20.07228
G1 X160.726 Y96.495 E20.19471
G1 X160.258 Y98.934 E20.31035
G1 X159.855 Y101.418 E20.42753
G1 X159.523 Y103.912 E20.54468
G1 X159.264 Y106.374 E20.65995
G1 X159.073 Y108.881 E20.77703
G1 X158.952 Y111.392 E20.89409
G1 X158.9 Y114.46 E21.03697
G1 X158.9 Y120.539 E21.32003
G1 X158.937 Y123.13 E21.44069
G1 X159.044 Y125.663 E21.55874
G1 X159.219 Y128.133 E21.67404
G1 X159.465 Y130.612 E21.79004
G1 X159.785 Y133.113 E21.90745
G1 X160.176 Y135.601 E22.02472
G1 X160.63 Y138.041 E22.14029
G1 X161.165 Y140.531 E22.25888
G1 X161.443 Y141.692 E22.31447
G1 X161.669 Y142.937 E22.37339
G1 X161.771 Y143.754 E22.41173
G1 X161.81 Y144.112 E22.4285
G1 X161.836 Y144.392 E22.44159
G1 X161.885 Y145.346 E22.48607
G1 X161.844 Y146.409 E22.53561
G1 X161.78 Y147.164 E22.57089
G1 X161.743 Y147.535 E22.58825
G1 X161.71 Y147.815 E22.60138
G1 X161.558 Y148.758 E22.64586
G1 X161.299 Y149.783 E22.69508
G1 X161.069 Y150.543 E22.73206
G1 X160.945 Y150.93 E22.75098
G1 X160.866 Y151.161 E22.76235
G1 X160.519 Y152.051 E22.80683
G1 X160.067 Y152.968 E22.85443
G1 X159.7 Y153.635 E22.88988
G1 X159.505 Y153.975 E22.90813
G1 X159.356 Y154.225 E22.92169
G1 X158.833 Y155.024 E22.96615
G1 X158.186 Y155.846 E23.01486
G1 X157.681 Y156.43 E23.05081
G1 X157.449 Y156.69 E23.06704
G1 X157.277 Y156.877 E23.07887
G1 X156.601 Y157.553 E23.12338
G1 X155.766 Y158.25 E23.17403
G1 X155.12 Y158.739 E23.21176
G1 X154.809 Y158.966 E23.22969
G1 X154.609 Y159.107 E23.24108
G1 X153.806 Y159.624 E23.28555
G1 X152.872 Y160.115 E23.33469
G1 X152.169 Y160.444 E23.37083
G1 X151.864 Y160.582 E23.38642
G1 X151.619 Y160.688 E23.39885
G1 X150.727 Y161.03 E23.44333
G1 X149.681 Y161.327 E23.49396
G1 X148.935 Y161.501 E23.52963
G1 X148.59 Y161.576 E23.54607
G1 X148.326 Y161.629 E23.55861
G1 X147.383 Y161.778 E23.60306
G1 X146.315 Y161.85 E23.65291
G1 X145.533 Y161.866 E23.68933
G1 X145.122 Y161.867 E23.70847
G1 X144.866 Y161.863 E23.72039
G1 X143.913 Y161.808 E23.76484
G1 X142.895 Y161.66 E23.81274
G1 X142.098 Y161.507 E23.85053
G1 X141.714 Y161.426 E23.8688
G1 X140.434 Y161.134 E23.92993
G1 X137.916 Y160.598 E24.04981
G1 X135.424 Y160.139 E24.1678
G1 X132.98 Y159.762 E24.28295
G1 X130.458 Y159.444 E24.40131
G1 X127.993 Y159.205 E24.51663
G1 X125.498 Y159.033 E24.63309
G1 X122.965 Y158.931 E24.75113
G1 X120.589 Y158.9 E24.86178
G1 X114.371 Y158.9 E25.15131
G1 X111.78 Y158.937 E25.27197
G1 X109.247 Y159.044 E25.39002
G1 X106.773 Y159.22 E25.50551
G1 X104.3 Y159.465 E25.62123
G1 X101.791 Y159.786 E25.73901
G1 X99.319 Y160.174 E25.85553
G1 X96.856 Y160.632 E25.97218
G1 X94.007 Y161.25 E26.10793
G1 X92.942 Y161.499 E26.15886
G1 X92.55 Y161.584 E26.17754
G1 X92.281 Y161.637 E26.1903
G1 X91.337 Y161.782 E26.23477
G1 X90.312 Y161.85 E26.28261
G1 X89.535 Y161.866 E26.31879
G1 X89.122 Y161.867 E26.33803
G1 X88.866 Y161.863 E26.34995
G1 X87.913 Y161.808 E26.3944
G1 X86.897 Y161.66 E26.44221
G1 X86.099 Y161.507 E26.48004
G1 X85.71 Y161.425 E26.49855
G1 X85.469 Y161.37 E26.51006
G1 X84.547 Y161.119 E26.55456
G1 X83.563 Y160.755 E26.60341
G1 X82.887 Y160.469 E26.63759
G1 X82.595 Y160.34 E26.65245
G1 X82.319 Y160.214 E26.66658
G1 X81.467 Y159.782 E26.71106
G1 X80.521 Y159.187 E26.7631
G1 X79.873 Y158.734 E26.79992
G1 X79.573 Y158.517 E26.81716
G1 X79.382 Y158.374 E26.82827
G1 X78.642 Y157.77 E26.87275
G1 X77.911 Y157.059 E26.92023
G1 X77.355 Y156.468 E26.95801
G1 X77.039 Y156.118 E26.97997
G1 X76.878 Y155.932 E26.99143
G1 X76.283 Y155.184 E27.03593
G1 X75.744 Y154.373 E27.08127
G1 X75.344 Y153.712 E27.11725
G1 X75.148 Y153.376 E27.13536
G1 X75.021 Y153.149 E27.14747
G1 X74.59 Y152.297 E27.19193
G1 X74.2 Y151.32 E27.24092
G1 X73.945 Y150.585 E27.27714
G1 X73.83 Y150.236 E27.29425
G1 X73.75 Y149.979 E27.30679
G1 X73.505 Y149.057 E27.35121
G1 X73.321 Y147.99 E27.40163
G1 X73.226 Y147.222 E27.43766
G1 X73.189 Y146.878 E27.45377
G1 X73.164 Y146.609 E27.46635
G1 X73.115 Y145.655 E27.51083
G1 X73.157 Y144.582 E27.56083
G1 X73.223 Y143.811 E27.59687
G1 X73.259 Y143.455 E27.61353
G1 X73.297 Y143.131 E27.62872
G1 X73.526 Y141.832 E27.69014
G1 X73.709 Y141.058 E27.72717
