;FLAVOR:Marlin
M73 P0
M73 R344
;TIME:20665
;Filament used: 17.6873m
;Layer height: 0.2
;MINX:54.933
;MINY:77.697
;MINZ:0.2
;MAXX:186.335
;MAXY:133.599
;MAXZ:70
;POSTPROCESSED
;Generated with Cura_SteamEngine 4.11.0
M140 S50
M105
M190 S50
M104 S215
M105
M109 S215
M82 ;absolute extrusion mode
; Ender 3 Custom Start G-code
G92 E0 ; Reset Extruder
G28 ; Home all axes
G1 Z2.0 F3000 ; Move Z Axis up little to prevent scratching of Heat Bed
G1 X0.1 Y20 Z0.3 F5000.0 ; Move to start position
G1 X0.1 Y200.0 Z0.3 F1500.0 E15 ; Draw the first line
G1 X0.4 Y200.0 Z0.3 F5000.0 ; Move to side a little
G1 X0.4 Y20 Z0.3 F1500.0 E30 ; Draw the second line
G92 E0 ; Reset Extruder
G1 Z2.0 F3000 ; Move Z Axis up little to prevent scratching of Heat Bed
G1 X5 Y20 Z0.3 F5000.0 ; Move over to prevent blob squish
G92 E0
G92 E0
G1 F2700 E-5
;LAYER_COUNT:350
;LAYER:0
M107
G0 F6000 X60.304 Y79.659 Z0.2
;TYPE:SKIRT
G1 F2700 E0
G1 F1200 X61.098 Y79.159 E0.03121
G1 X61.931 Y78.728 E0.0624
G1 X62.798 Y78.37 E0.0936
G1 X63.692 Y78.087 E0.12479
G1 X64.607 Y77.882 E0.15598
G1 X65.536 Y77.755 E0.18716
G1 X66.082 Y77.717 E0.20537
G1 X66.492 Y77.705 E0.21901
G1 X67.193 Y77.697 E0.24233
G1 X174.16 Y77.699 E3.80006
G1 X174.861 Y77.709 E3.82338
G1 X175.797 Y77.762 E3.85456
G1 X176.726 Y77.895 E3.88578
G1 X177.639 Y78.107 E3.91695
G1 X178.532 Y78.395 E3.94816
G1 X179.396 Y78.759 E3.97934
G1 X180.227 Y79.195 E4.01055
G1 X181.017 Y79.7 E4.04174
G1 X181.761 Y80.27 E4.07291
G1 X182.247 Y80.702 E4.09454
G1 X182.472 Y80.914 E4.10482
G1 X182.822 Y81.259 E4.12117
G1 X183.218 Y81.667 E4.14008
G1 X183.842 Y82.367 E4.17127
G1 X184.404 Y83.118 E4.20247
G1 X184.9 Y83.914 E4.23366
G1 X185.327 Y84.749 E4.26485
G1 X185.68 Y85.618 E4.29605
G1 X185.959 Y86.513 E4.32723
G1 X186.16 Y87.429 E4.35842
G1 X186.282 Y88.359 E4.38962
G1 X186.316 Y88.878 E4.40692
G1 X186.321 Y89 E4.41098
G1 X186.329 Y89.321 E4.42166
G1 X186.335 Y89.876 E4.44012
G1 X186.334 Y121.423 E5.48938
G1 X186.324 Y122.126 E5.51276
G1 X186.271 Y123.063 E5.54398
G1 X186.138 Y123.991 E5.57516
G1 X185.926 Y124.905 E5.60636
G1 X185.638 Y125.797 E5.63754
G1 X185.274 Y126.662 E5.66875
G1 X184.838 Y127.492 E5.69994
G1 X184.333 Y128.283 E5.73115
G1 X183.763 Y129.027 E5.76232
G1 X183.169 Y129.681 E5.79171
G1 X182.682 Y130.175 E5.81478
G1 X182.412 Y130.44 E5.82736
G1 X181.715 Y131.067 E5.85854
G1 X180.968 Y131.634 E5.88974
G1 X180.175 Y132.134 E5.92092
G1 X179.342 Y132.565 E5.95211
G1 X178.475 Y132.924 E5.98332
G1 X177.581 Y133.207 E6.01451
G1 X176.666 Y133.413 E6.04571
G1 X175.737 Y133.541 E6.0769
G1 X175.195 Y133.578 E6.09496
G1 X174.741 Y133.592 E6.11007
G1 X174.086 Y133.599 E6.13186
G1 X67.107 Y133.598 E9.68999
G1 X66.405 Y133.588 E9.71335
G1 X65.469 Y133.535 E9.74453
G1 X64.541 Y133.402 E9.77571
G1 X63.627 Y133.19 E9.80691
G1 X62.734 Y132.902 E9.83812
G1 X61.87 Y132.538 E9.86931
G1 X61.039 Y132.102 E9.90052
G1 X60.249 Y131.597 E9.9317
G1 X59.505 Y131.027 E9.96288
G1 X59.066 Y130.64 E9.98234
G1 X58.775 Y130.362 E9.99573
G1 X58.392 Y129.981 E10.01369
G1 X58.07 Y129.651 E10.02903
G1 X57.444 Y128.953 E10.06021
G1 X56.88 Y128.203 E10.09143
G1 X56.382 Y127.409 E10.1226
G1 X55.953 Y126.574 E10.15382
G1 X55.597 Y125.707 E10.18499
G1 X55.317 Y124.812 E10.21618
G1 X55.113 Y123.896 E10.2474
G1 X54.988 Y122.967 E10.27857
G1 X54.95 Y122.373 E10.29837
G1 X54.945 Y122.237 E10.3029
G1 X54.939 Y121.951 E10.31241
G1 X54.933 Y121.366 E10.33187
G1 X54.934 Y89.871 E11.3794
G1 X54.944 Y89.169 E11.40275
G1 X54.997 Y88.233 E11.43393
G1 X55.13 Y87.305 E11.46511
G1 X55.342 Y86.391 E11.49632
G1 X55.63 Y85.498 E11.52753
G1 X55.994 Y84.634 E11.55871
G1 X56.43 Y83.803 E11.58992
G1 X56.935 Y83.013 E11.62111
G1 X57.505 Y82.269 E11.65228
G1 X58.091 Y81.623 E11.68129
G1 X58.604 Y81.102 E11.70561
G1 X58.859 Y80.852 E11.71749
G1 X59.556 Y80.225 E11.74867
G1 X60.304 Y79.659 E11.77987
G0 F6000 X60.56 Y79.969
G1 F1200 X61.34 Y79.481 E11.81047
G1 X62.161 Y79.063 E11.84111
G1 X63.014 Y78.718 E11.87171
G1 X63.894 Y78.448 E11.90233
G1 X64.795 Y78.255 E11.93298
G1 X66.1 Y78.117 E11.97662
G1 X66.497 Y78.105 E11.98983
G1 X67.193 Y78.097 E12.01298
G1 X174.154 Y78.099 E15.57052
G1 X174.855 Y78.109 E15.59384
G1 X175.774 Y78.162 E15.62446
G1 X176.685 Y78.295 E15.65508
G1 X177.581 Y78.506 E15.68569
G1 X178.456 Y78.794 E15.71633
G1 X179.302 Y79.157 E15.74695
G1 X180.113 Y79.592 E15.77756
G1 X180.884 Y80.096 E15.8082
G1 X181.608 Y80.665 E15.83882
G1 X181.973 Y80.993 E15.85514
G1 X182.198 Y81.205 E15.86543
G1 X182.535 Y81.537 E15.88116
G1 X182.931 Y81.945 E15.90007
G1 X183.543 Y82.633 E15.9307
G1 X184.093 Y83.372 E15.96134
G1 X184.577 Y84.155 E15.99195
G1 X184.991 Y84.977 E16.02257
G1 X185.332 Y85.832 E16.05318
G1 X185.598 Y86.714 E16.08382
G1 X185.786 Y87.615 E16.11443
G1 X185.916 Y88.894 E16.15719
G1 X185.929 Y89.326 E16.17157
G1 X185.935 Y89.876 E16.18986
G1 X185.934 Y121.418 E17.23895
G1 X185.924 Y122.121 E17.26234
G1 X185.871 Y123.04 E17.29295
G1 X185.738 Y123.951 E17.32358
G1 X185.527 Y124.847 E17.35419
G1 X185.239 Y125.721 E17.3848
G1 X184.876 Y126.568 E17.41545
G1 X184.441 Y127.379 E17.44606
G1 X183.937 Y128.15 E17.47669
G1 X183.369 Y128.874 E17.5073
G1 X182.884 Y129.401 E17.53112
G1 X182.402 Y129.889 E17.55394
G1 X182.132 Y130.154 E17.56652
G1 X181.448 Y130.77 E17.59713
G1 X180.712 Y131.324 E17.62777
G1 X179.932 Y131.812 E17.65838
G1 X179.112 Y132.231 E17.689
G1 X178.258 Y132.576 E17.71964
G1 X177.378 Y132.847 E17.75026
G1 X176.478 Y133.04 E17.78088
G1 X175.178 Y133.179 E17.82436
G1 X174.737 Y133.192 E17.83904
G1 X174.086 Y133.199 E17.86069
G1 X67.113 Y133.198 E21.41863
G1 X66.411 Y133.188 E21.44198
G1 X65.492 Y133.135 E21.47259
G1 X64.581 Y133.002 E21.50321
G1 X63.685 Y132.791 E21.53383
G1 X62.81 Y132.503 E21.56447
G1 X61.964 Y132.14 E21.59509
G1 X61.153 Y131.705 E21.6257
G1 X60.382 Y131.201 E21.65633
G1 X59.339 Y130.347 E21.70117
G1 X59.056 Y130.078 E21.71416
G1 X58.678 Y129.702 E21.73189
G1 X58.356 Y129.372 E21.74722
G1 X57.743 Y128.686 E21.77782
G1 X57.191 Y127.949 E21.80845
G1 X56.705 Y127.167 E21.83907
G1 X56.289 Y126.345 E21.86971
G1 X55.945 Y125.491 E21.90034
G1 X55.677 Y124.61 E21.93096
G1 X55.487 Y123.71 E21.96156
G1 X55.35 Y122.358 E22.00676
G1 X55.339 Y121.946 E22.02046
G1 X55.333 Y121.366 E22.03976
G1 X55.334 Y89.877 E23.08708
G1 X55.344 Y89.175 E23.11043
G1 X55.397 Y88.256 E23.14105
G1 X55.53 Y87.345 E23.17167
G1 X55.741 Y86.449 E23.20229
G1 X56.029 Y85.574 E23.23293
G1 X56.392 Y84.728 E23.26355
G1 X56.827 Y83.917 E23.29416
G1 X57.331 Y83.146 E23.32479
G1 X57.899 Y82.422 E23.3554
G1 X58.376 Y81.903 E23.37884
G1 X58.884 Y81.388 E23.4029
G1 X59.139 Y81.138 E23.41478
G1 X59.824 Y80.522 E23.44542
G1 X60.56 Y79.969 E23.47604
G0 F6000 X60.814 Y80.279
G1 F1200 X61.582 Y79.804 E23.50608
G1 X62.389 Y79.399 E23.53611
G1 X63.229 Y79.066 E23.56616
G1 X64.095 Y78.809 E23.59621
G1 X64.98 Y78.63 E23.62624
G1 X66.117 Y78.517 E23.66424
G1 X66.502 Y78.505 E23.67705
G1 X67.193 Y78.497 E23.70004
G1 X174.148 Y78.499 E27.25737
G1 X174.849 Y78.509 E27.28069
G1 X175.751 Y78.562 E27.31074
G1 X176.644 Y78.694 E27.34077
G1 X177.523 Y78.905 E27.37083
G1 X178.379 Y79.193 E27.40087
G1 X179.206 Y79.555 E27.4309
G1 X179.998 Y79.989 E27.46094
G1 X180.748 Y80.492 E27.49097
G1 X181.699 Y81.284 E27.53214
G1 X181.924 Y81.496 E27.54242
G1 X182.248 Y81.816 E27.55756
G1 X182.644 Y82.224 E27.57647
G1 X183.244 Y82.899 E27.60651
G1 X183.782 Y83.625 E27.63657
G1 X184.253 Y84.395 E27.66659
G1 X184.654 Y85.204 E27.69662
G1 X184.982 Y86.046 E27.72667
G1 X185.235 Y86.913 E27.75671
G1 X185.41 Y87.799 E27.78675
G1 X185.516 Y88.91 E27.82387
G1 X185.529 Y89.33 E27.83785
G1 X185.535 Y89.876 E27.85601
G1 X185.534 Y121.412 E28.9049
G1 X185.524 Y122.115 E28.92828
G1 X185.471 Y123.017 E28.95834
G1 X185.339 Y123.91 E28.98836
G1 X185.128 Y124.788 E29.01839
G1 X184.84 Y125.644 E29.04843
G1 X184.478 Y126.471 E29.07846
G1 X184.044 Y127.263 E29.1085
G1 X183.542 Y128.014 E29.13854
G1 X182.975 Y128.717 E29.16858
G1 X182.599 Y129.121 E29.18694
G1 X182.122 Y129.604 E29.20952
G1 X181.852 Y129.869 E29.2221
G1 X181.18 Y130.472 E29.25213
G1 X180.457 Y131.014 E29.28218
G1 X179.689 Y131.489 E29.31222
G1 X178.883 Y131.895 E29.34223
G1 X178.043 Y132.228 E29.37229
G1 X177.178 Y132.485 E29.4023
G1 X176.292 Y132.665 E29.43237
G1 X175.16 Y132.779 E29.47021
G1 X174.732 Y132.792 E29.48445
G1 X174.086 Y132.799 E29.50594
G1 X67.119 Y132.798 E33.06368
G1 X66.417 Y132.788 E33.08703
G1 X65.515 Y132.735 E33.11708
G1 X64.622 Y132.603 E33.14711
G1 X63.744 Y132.392 E33.17714
G1 X62.888 Y132.104 E33.20718
G1 X62.06 Y131.742 E33.23723
G1 X61.268 Y131.308 E33.26727
G1 X60.518 Y130.805 E33.29731
G1 X59.612 Y130.054 E33.33645
G1 X59.337 Y129.793 E33.34906
G1 X59.098 Y129.557 E33.36023
G1 X58.643 Y129.092 E33.38187
G1 X58.041 Y128.419 E33.4119
G1 X57.502 Y127.695 E33.44192
G1 X57.028 Y126.925 E33.472
G1 X56.625 Y126.117 E33.50203
G1 X56.294 Y125.277 E33.53206
G1 X56.04 Y124.411 E33.56207
G1 X55.862 Y123.525 E33.59213
G1 X55.75 Y122.344 E33.63159
G1 X55.739 Y121.942 E33.64496
G1 X55.733 Y121.366 E33.66412
G1 X55.734 Y89.883 E34.71125
G1 X55.744 Y89.181 E34.7346
G1 X55.797 Y88.279 E34.76465
G1 X55.929 Y87.386 E34.79468
G1 X56.14 Y86.508 E34.82471
G1 X56.428 Y85.652 E34.85475
G1 X56.79 Y84.824 E34.88481
G1 X57.224 Y84.032 E34.91484
G1 X57.727 Y83.282 E34.94488
G1 X58.293 Y82.579 E34.9749
G1 X58.662 Y82.183 E34.9929
G1 X59.164 Y81.673 E35.0167
G1 X59.419 Y81.423 E35.02858
G1 X60.092 Y80.82 E35.05863
G1 X60.814 Y80.279 E35.08864
G1 F2700 E30.08864
;MESH:MiniDock.stl
G0 F6000 X65.666 Y88.651
G0 X66.351 Y89.496
G0 X66.707 Y121.654
G0 X66.807 Y121.999
;TYPE:WALL-INNER
G1 F2700 E35.08864
G1 F1200 X66.533 Y121.725 E35.10153
G1 X66.533 Y89.577 E36.17078
G1 X66.533 Y89.571 E36.17098
G1 X66.805 Y89.297 E36.18382
G1 X66.811 Y89.297 E36.18402
G1 X174.461 Y89.298 E39.76447
G1 X174.735 Y89.57 E39.77731
G1 X174.735 Y121.724 E40.84676
G1 X174.461 Y121.999 E40.85967
G1 X66.807 Y121.999 E44.44026
G0 F6000 X66.641 Y122.399
;TYPE:WALL-OUTER
G1 F1200 X66.133 Y121.891 E44.46415
G1 X66.133 Y89.406 E45.54461
G1 X66.64 Y88.897 E45.5685
G1 X174.626 Y88.898 E49.16013
G1 X175.135 Y89.405 E49.18402
G1 X175.135 Y121.89 E50.26448
G1 X174.627 Y122.399 E50.2884
G1 X66.641 Y122.399 E53.88003
G0 F6000 X66.809 Y121.993
G0 X66.967 Y121.609
;TYPE:SKIN
G1 F1200 X66.923 Y121.565 E53.8821
G1 X66.923 Y89.731 E54.9409
G1 X66.967 Y89.687 E54.94297
G1 X174.301 Y89.688 E58.51291
G1 X174.345 Y89.732 E58.51498
G1 X174.345 Y121.562 E59.57365
G1 X174.299 Y121.609 E59.57584
G1 X66.967 Y121.609 E63.14572
G0 F6000 X67.142 Y121.448
G1 F1200 X67.083 Y121.389 E63.14849
G0 F6000 X67.083 Y120.823
G1 F1200 X67.708 Y121.448 E63.17789
G0 F6000 X68.273 Y121.448
G1 F1200 X67.083 Y120.257 E63.23389
G0 F6000 X67.083 Y119.691
G1 F1200 X68.839 Y121.448 E63.31651
G0 F6000 X69.405 Y121.448
G1 F1200 X67.083 Y119.126 E63.42573
G0 F6000 X67.083 Y118.56
G1 F1200 X69.971 Y121.448 E63.56157
G0 F6000 X70.536 Y121.448
G1 F1200 X67.083 Y117.994 E63.72401
G0 F6000 X67.083 Y117.429
G1 F1200 X71.102 Y121.448 E63.91305
G0 F6000 X71.668 Y121.448
G1 F1200 X67.083 Y116.863 E64.12872
G0 F6000 X67.083 Y116.297
G1 F1200 X72.233 Y121.448 E64.37098
G0 F6000 X72.799 Y121.448
G1 F1200 X67.083 Y115.732 E64.63985
G0 F6000 X67.083 Y115.166
G1 F1200 X73.365 Y121.448 E64.93533
G0 F6000 X73.93 Y121.448
G1 F1200 X67.083 Y114.6 E65.25742
G0 F6000 X67.083 Y114.035
G1 F1200 X74.496 Y121.448 E65.6061
G0 F6000 X75.062 Y121.448
G1 F1200 X67.083 Y113.469 E65.98141
G0 F6000 X67.083 Y112.903
G1 F1200 X75.627 Y121.448 E66.38332
G0 F6000 X76.193 Y121.448
G1 F1200 X67.083 Y112.338 E66.81182
G0 F6000 X67.083 Y111.772
G1 F1200 X76.759 Y121.448 E67.26695
G0 F6000 X77.324 Y121.448
G1 F1200 X67.083 Y111.206 E67.74868
G0 F6000 X67.083 Y110.64
G1 F1200 X77.89 Y121.448 E68.25703
G0 F6000 X78.456 Y121.448
G1 F1200 X67.083 Y110.075 E68.79198
G0 F6000 X67.083 Y109.509
G1 F1200 X79.022 Y121.448 E69.35356
G0 F6000 X79.587 Y121.448
G1 F1200 X67.083 Y108.943 E69.94173
G0 F6000 X67.083 Y108.378
G1 F1200 X80.153 Y121.448 E70.5565
G0 F6000 X80.719 Y121.448
G1 F1200 X67.083 Y107.812 E71.1979
G0 F6000 X67.083 Y107.246
G1 F1200 X81.284 Y121.448 E71.86589
G0 F6000 X81.85 Y121.448
G1 F1200 X67.083 Y106.681 E72.56049
G0 F6000 X67.083 Y106.115
G1 F1200 X82.416 Y121.448 E73.28171
G0 F6000 X82.981 Y121.448
G1 F1200 X67.083 Y105.549 E74.02952
G0 F6000 X67.083 Y104.984
G1 F1200 X83.547 Y121.448 E74.80394
G0 F6000 X84.113 Y121.448
G1 F1200 X67.083 Y104.418 E75.60498
G0 F6000 X67.083 Y103.852
G1 F1200 X84.678 Y121.448 E76.43262
G0 F6000 X85.244 Y121.448
G1 F1200 X67.083 Y103.287 E77.28685
G0 F6000 X67.083 Y102.721
G1 F1200 X85.81 Y121.448 E78.16771
G0 F6000 X86.375 Y121.448
G1 F1200 X67.083 Y102.155 E79.07517
G0 F6000 X67.083 Y101.59
G1 F1200 X86.941 Y121.448 E80.00923
G0 F6000 X87.507 Y121.448
G1 F1200 X67.083 Y101.024 E80.96992
G0 F6000 X67.083 Y100.458
G1 F1200 X88.072 Y121.448 E81.9572
G0 F6000 X88.638 Y121.448
G1 F1200 X67.083 Y99.892 E82.9711
G0 F6000 X67.083 Y99.327
G1 F1200 X89.204 Y121.448 E84.01161
G0 F6000 X89.77 Y121.448
G1 F1200 X67.083 Y98.761 E85.07873
G0 F6000 X67.083 Y98.195
G1 F1200 X90.335 Y121.448 E86.17246
G0 F6000 X90.901 Y121.448
M73 P1
G1 F1200 X67.083 Y97.63 E87.29279
G0 F6000 X67.083 Y97.064
G1 F1200 X91.467 Y121.448 E88.43973
G0 F6000 X92.032 Y121.448
G1 F1200 X67.083 Y96.498 E89.61328
G0 F6000 X67.083 Y95.933
G1 F1200 X92.598 Y121.448 E90.81343
G0 F6000 X93.164 Y121.448
G1 F1200 X67.083 Y95.367 E92.0402
G0 F6000 X67.083 Y94.801
G1 F1200 X93.729 Y121.448 E93.29357
G0 F6000 X94.295 Y121.448
G1 F1200 X67.083 Y94.236 E94.57354
G0 F6000 X67.083 Y93.67
G1 F1200 X94.861 Y121.448 E95.88013
G0 F6000 X95.426 Y121.448
G1 F1200 X67.083 Y93.104 E97.21332
G0 F6000 X67.083 Y92.539
G1 F1200 X95.992 Y121.448 E98.57311
G0 F6000 X96.558 Y121.448
G1 F1200 X67.083 Y91.973 E99.95953
G0 F6000 X67.083 Y91.407
G1 F1200 X97.123 Y121.448 E101.37254
G0 F6000 X97.689 Y121.448
G1 F1200 X67.083 Y90.842 E102.81215
G0 F6000 X67.083 Y90.276
G1 F1200 X98.255 Y121.448 E104.27839
G0 F6000 X98.821 Y121.448
G1 F1200 X67.219 Y89.847 E105.76482
G0 F6000 X67.785 Y89.847
G1 F1200 X99.386 Y121.448 E107.25124
G0 F6000 X99.952 Y121.448
G1 F1200 X68.351 Y89.847 E108.73765
G0 F6000 X68.916 Y89.847
G1 F1200 X100.518 Y121.448 E110.22409
G0 F6000 X101.083 Y121.448
G1 F1200 X69.482 Y89.847 E111.7105
G0 F6000 X70.048 Y89.847
G1 F1200 X101.649 Y121.448 E113.19692
G0 F6000 X102.215 Y121.448
G1 F1200 X70.613 Y89.847 E114.68336
G0 F6000 X71.179 Y89.847
G1 F1200 X102.78 Y121.448 E116.16977
G0 F6000 X103.346 Y121.448
G1 F1200 X71.745 Y89.847 E117.65619
G0 F6000 X72.31 Y89.847
G1 F1200 X103.912 Y121.448 E119.14262
G0 F6000 X104.477 Y121.448
G1 F1200 X72.876 Y89.847 E120.62904
G0 F6000 X73.442 Y89.847
G1 F1200 X105.043 Y121.448 E122.11545
G0 F6000 X105.609 Y121.448
G1 F1200 X74.007 Y89.847 E123.60189
G0 F6000 X74.573 Y89.847
G1 F1200 X106.174 Y121.448 E125.0883
G0 F6000 X106.74 Y121.448
G1 F1200 X75.139 Y89.847 E126.57472
G0 F6000 X75.704 Y89.847
G1 F1200 X107.306 Y121.448 E128.06115
G0 F6000 X107.871 Y121.448
G1 F1200 X76.27 Y89.847 E129.54757
G0 F6000 X76.836 Y89.847
G1 F1200 X108.437 Y121.448 E131.03398
G0 F6000 X109.003 Y121.448
G1 F1200 X77.402 Y89.847 E132.5204
G0 F6000 X77.967 Y89.847
G1 F1200 X109.569 Y121.448 E134.00683
G0 F6000 X110.134 Y121.448
G1 F1200 X78.533 Y89.847 E135.49325
G0 F6000 X79.099 Y89.847
G1 F1200 X110.7 Y121.448 E136.97966
G0 F6000 X111.266 Y121.448
G1 F1200 X79.664 Y89.847 E138.4661
G0 F6000 X80.23 Y89.847
G1 F1200 X111.831 Y121.448 E139.95252
G0 F6000 X112.397 Y121.448
G1 F1200 X80.796 Y89.847 E141.43893
G0 F6000 X81.361 Y89.847
