;FLAVOR:Marlin
M73 P0
M73 R150
;TIME:8987
;Filament used: 8.42594m
;Layer height: 0.2
;MINX:28.65
;MINY:89.5
;MINZ:0.2
;MAXX:200.332
;MAXY:147.5
;MAXZ:25
;POSTPROCESSED
;Generated with Cura_SteamEngine 5.0.0
M140 S50
M105
M190 S50
M104 S189
M105
M109 S189
M82 ;absolute extrusion mode
; Ender 3 Custom Start G-code
G92 E0 ; Reset Extruder
G28 ; Home all axes
G1 Z2.0 F3000 ; Move Z Axis up little to prevent scratching of Heat Bed
G1 X0.1 Y20 Z0.3 F5000.0 ; Move to start position
G1 X0.1 Y200.0 Z0.3 F1500.0 E15 ; Draw the first line
G1 X0.4 Y200.0 Z0.3 F5000.0 ; Move to side a little
G1 X0.4 Y20 Z0.3 F1500.0 E30 ; Draw the second line
G92 E0 ; Reset Extruder
G1 Z2.0 F3000 ; Move Z Axis up little to prevent scratching of Heat Bed
G1 X5 Y20 Z0.3 F5000.0 ; Move over to prevent blob squish
G92 E0
G92 E0
G1 F2700 E-5
;LAYER_COUNT:125
;LAYER:0
M107
G0 F6000 X37.934 Y106.334 Z0.2
G0 X29.919 Y113.709
;TYPE:SKIRT
G1 F2700 E0
G1 F1200 X30.063 Y113.401 E0.01131
G1 X30.496 Y112.569 E0.0425
G1 X30.892 Y111.934 E0.06739
G1 X31.179 Y111.506 E0.08453
G1 X31.734 Y110.75 E0.11573
G1 X32.23 Y110.173 E0.14103
G1 X32.516 Y109.863 E0.15506
G1 X33.471 Y108.946 E0.1991
G1 X33.666 Y108.78 E0.20762
G1 X34.412 Y108.198 E0.23909
G1 X34.673 Y108.012 E0.24975
G1 X35.459 Y107.501 E0.28093
G1 X35.965 Y107.219 E0.30019
G1 X36.371 Y107.007 E0.31543
G1 X37.608 Y106.456 E0.36047
G1 X37.934 Y106.334 E0.37204
G1 X38.965 Y106.005 E0.40804
G1 X39.844 Y105.799 E0.43807
G1 X40.77 Y105.621 E0.46943
G1 X43.327 Y105.092 E0.55628
G1 X45.733 Y104.524 E0.6385
G1 X48.203 Y103.866 E0.72352
G1 X50.625 Y103.146 E0.80756
G1 X53.014 Y102.362 E0.89119
G1 X55.373 Y101.514 E0.97456
G1 X57.693 Y100.604 E1.05745
G1 X60.055 Y99.599 E1.14283
G1 X62.297 Y98.57 E1.22487
G1 X64.585 Y97.442 E1.30972
G1 X66.806 Y96.266 E1.39331
G1 X68.992 Y95.028 E1.47686
G1 X71.145 Y93.728 E1.56051
G1 X73.285 Y92.352 E1.64513
G1 X74.68 Y91.406 E1.70119
G1 X75.478 Y90.913 E1.73239
G1 X76.315 Y90.49 E1.76358
G1 X77.185 Y90.14 E1.79477
G1 X78.082 Y89.865 E1.82598
G1 X78.999 Y89.668 E1.85717
G1 X79.929 Y89.549 E1.88836
G1 X80.681 Y89.511 E1.9134
G1 X81.49 Y89.5 E1.94031
G1 X110.145 Y89.5 E2.89338
G1 X111.038 Y89.514 E2.92309
G1 X111.974 Y89.569 E2.95427
G1 X112.902 Y89.705 E2.98547
G1 X113.815 Y89.919 E3.01666
G1 X114.707 Y90.21 E3.04786
G1 X115.57 Y90.576 E3.07904
G1 X116.122 Y90.857 E3.09964
G1 X116.743 Y91.2 E3.12324
G1 X130.591 Y99.196 E3.65509
G1 X131.81 Y99.924 E3.70232
G1 X132.773 Y100.52 E3.73998
G1 X134.929 Y101.772 E3.82291
G1 X136.36 Y102.562 E3.87727
G1 X137.447 Y103.154 E3.91844
G1 X141.542 Y105.518 E4.07571
G1 X143.875 Y106.821 E4.16458
G1 X146.068 Y107.965 E4.24685
G1 X148.337 Y109.069 E4.33078
G1 X150.661 Y110.12 E4.41561
G1 X152.933 Y111.071 E4.49753
G1 X155.356 Y112.004 E4.58389
G1 X157.666 Y112.821 E4.66538
G1 X160.074 Y113.595 E4.74951
G1 X162.5 Y114.302 E4.83355
G1 X164.926 Y114.934 E4.91694
G1 X167.396 Y115.503 E5.00124
G1 X169.858 Y115.998 E5.08477
G1 X172.353 Y116.426 E5.16896
G1 X174.822 Y116.778 E5.25191
G1 X177.315 Y117.062 E5.33537
G1 X179.839 Y117.278 E5.41962
G1 X182.358 Y117.422 E5.50354
G1 X184.912 Y117.495 E5.58852
G1 X186.555 Y117.513 E5.64317
G1 X187.339 Y117.549 E5.66927
G1 X187.666 Y117.576 E5.68019
G1 X188.597 Y117.693 E5.7114
G1 X189.166 Y117.805 E5.73068
G1 X189.648 Y117.913 E5.74711
G1 X190.982 Y118.302 E5.79333
G1 X191.184 Y118.375 E5.80047
G1 X191.92 Y118.671 E5.82686
G1 X192.167 Y118.781 E5.83585
G1 X193.093 Y119.247 E5.87033
G1 X193.368 Y119.402 E5.88083
G1 X194.165 Y119.897 E5.91204
G1 X194.632 Y120.234 E5.93119
G1 X194.997 Y120.512 E5.94645
G1 X195.906 Y121.286 E5.98616
G1 X196.084 Y121.455 E5.99432
G1 X196.949 Y122.377 E6.03637
G1 X197.209 Y122.688 E6.04985
G1 X197.78 Y123.432 E6.08105
G1 X198.197 Y124.074 E6.10651
G1 X198.464 Y124.518 E6.12374
G1 X198.912 Y125.342 E6.15494
G1 X199.21 Y126.002 E6.17902
G1 X199.347 Y126.335 E6.191
G1 X199.783 Y127.612 E6.23588
G1 X199.894 Y128.017 E6.24985
G1 X200.103 Y128.932 E6.28106
G1 X200.2 Y129.561 E6.30223
G1 X200.244 Y129.913 E6.31403
G1 X200.329 Y131.214 E6.35739
G1 X200.332 Y131.738 E6.37482
G1 X200.287 Y132.8 E6.41018
G1 X200.261 Y133.085 E6.41969
G1 X200.154 Y133.906 E6.44723
G1 X200.076 Y134.371 E6.46291
G1 X199.874 Y135.32 E6.49518
G1 X199.771 Y135.716 E6.50879
G1 X199.493 Y136.621 E6.54028
G1 X199.341 Y137.05 E6.55542
G1 X198.996 Y137.908 E6.58618
G1 X198.821 Y138.295 E6.6003
G1 X198.349 Y139.221 E6.63487
G1 X198.113 Y139.634 E6.65069
G1 X197.571 Y140.488 E6.68434
G1 X197.344 Y140.812 E6.69749
G1 X196.892 Y141.412 E6.72248
G1 X196.703 Y141.646 E6.73248
G1 X196.259 Y142.162 E6.75512
G1 X196.064 Y142.375 E6.76473
G1 X195.528 Y142.921 E6.79018
G1 X195.126 Y143.303 E6.80862
G1 X194.245 Y144.056 E6.84717
G1 X193.94 Y144.29 E6.85996
G1 X193.202 Y144.81 E6.88998
G1 X192.814 Y145.06 E6.90533
G1 X192.015 Y145.528 E6.93613
G1 X191.661 Y145.716 E6.94946
G1 X190.803 Y146.125 E6.98108
G1 X190.424 Y146.286 E6.99477
G1 X189.621 Y146.594 E7.02338
G1 X188.738 Y146.873 E7.05418
G1 X187.949 Y147.075 E7.08127
G1 X187.738 Y147.122 E7.08846
G1 X187.003 Y147.26 E7.11333
G1 X186.491 Y147.338 E7.13056
G1 X185.466 Y147.445 E7.16483
G1 X184.86 Y147.472 E7.18501
G1 X183.325 Y147.5 E7.23607
G1 X44.967 Y147.494 E11.83788
G1 X44.214 Y147.482 E11.86292
G1 X43.432 Y147.441 E11.88897
G1 X43.077 Y147.41 E11.90082
G1 X42.226 Y147.302 E11.92935
G1 X41.812 Y147.233 E11.94331
G1 X40.821 Y147.021 E11.97702
G1 X40.365 Y146.901 E11.9927
G1 X39.463 Y146.622 E12.02411
G1 X39.06 Y146.478 E12.03834
G1 X38.214 Y146.135 E12.0687
G1 X37.866 Y145.977 E12.08141
G1 X37.048 Y145.564 E12.11189
G1 X36.665 Y145.35 E12.12648
G1 X35.883 Y144.869 E12.15702
G1 X35.555 Y144.648 E12.17017
G1 X34.776 Y144.072 E12.2024
G1 X34.391 Y143.76 E12.21888
G1 X33.672 Y143.123 E12.25083
G1 X33.403 Y142.863 E12.26327
G1 X32.77 Y142.198 E12.29381
G1 X32.476 Y141.862 E12.30866
G1 X31.911 Y141.16 E12.33863
G1 X31.675 Y140.841 E12.35183
G1 X31.148 Y140.061 E12.38314
G1 X30.926 Y139.7 E12.39723
G1 X30.499 Y138.94 E12.42623
G1 X30.329 Y138.607 E12.43866
G1 X29.952 Y137.788 E12.46865
G1 X29.767 Y137.338 E12.48483
G1 X29.414 Y136.345 E12.51988
G1 X29.294 Y135.949 E12.53365
G1 X29.068 Y135.076 E12.56364
G1 X28.979 Y134.663 E12.57769
G1 X28.821 Y133.745 E12.60867
G1 X28.771 Y133.355 E12.62175
G1 X28.684 Y132.189 E12.66064
G1 X28.65 Y130.446 E12.71862
G1 X28.653 Y119.908 E13.06912
G1 X28.662 Y119.259 E13.09071
G1 X28.706 Y118.393 E13.11955
G1 X28.842 Y117.281 E13.15681
G1 X28.912 Y116.88 E13.17035
G1 X29.112 Y115.964 E13.20153
G1 X29.323 Y115.263 E13.22588
G1 X29.459 Y114.859 E13.24006
G1 X29.919 Y113.709 E13.28125
G1 F2700 E8.28125
G0 F6000 X29.453 Y119.92
G1 F2700 E13.28125
G1 F1200 X29.462 Y119.271 E13.30284
G1 X29.504 Y118.449 E13.33022
G1 X29.63 Y117.419 E13.36473
G1 X29.7 Y117.018 E13.37827
G1 X29.894 Y116.136 E13.40831
G1 X30.081 Y115.518 E13.42978
G1 X30.217 Y115.114 E13.44396
G1 X30.644 Y114.048 E13.48215
G1 X30.788 Y113.74 E13.49346
G1 X31.206 Y112.94 E13.52348
G1 X31.556 Y112.379 E13.54547
G1 X31.843 Y111.951 E13.56261
G1 X32.379 Y111.224 E13.59266
G1 X32.818 Y110.716 E13.61499
G1 X33.104 Y110.406 E13.62902
G1 X33.989 Y109.555 E13.66985
G1 X34.184 Y109.389 E13.67837
G1 X34.876 Y108.849 E13.70756
G1 X35.137 Y108.663 E13.71822
G1 X35.895 Y108.172 E13.74826
G1 X36.336 Y107.928 E13.76502
G1 X36.742 Y107.716 E13.78026
G1 X37.888 Y107.205 E13.82199
G1 X38.214 Y107.083 E13.83357
G1 X39.17 Y106.778 E13.86694
G1 X39.995 Y106.585 E13.89513
G1 X40.939 Y106.404 E13.92709
G1 X43.488 Y105.876 E14.01367
G1 X45.929 Y105.3 E14.09709
G1 X48.418 Y104.637 E14.18276
G1 X50.86 Y103.911 E14.2675
G1 X53.238 Y103.13 E14.35075
G1 X55.662 Y102.259 E14.43642
G1 X58.013 Y101.337 E14.52041
G1 X60.387 Y100.327 E14.60622
G1 X62.657 Y99.285 E14.68929
G1 X64.942 Y98.158 E14.77403
G1 X67.174 Y96.976 E14.85804
G1 X69.399 Y95.717 E14.94307
G1 X71.58 Y94.4 E15.02781
G1 X73.714 Y93.027 E15.1122
G1 X75.129 Y92.068 E15.16906
G1 X75.898 Y91.595 E15.19909
G1 X76.706 Y91.191 E15.22913
G1 X77.547 Y90.861 E15.25918
G1 X78.413 Y90.606 E15.28921
G1 X79.299 Y90.429 E15.31926
G1 X80.196 Y90.331 E15.34927
G1 X80.694 Y90.311 E15.36585
G1 X81.49 Y90.3 E15.39232
G1 X110.145 Y90.3 E16.34539
G1 X111.024 Y90.313 E16.37463
G1 X111.926 Y90.369 E16.40469
G1 X112.819 Y90.504 E16.43473
G1 X113.696 Y90.717 E16.46475
G1 X114.552 Y91.007 E16.49481
G1 X115.738 Y91.559 E16.53832
G1 X116.343 Y91.892 E16.56129
G1 X130.181 Y99.883 E17.09277
G1 X131.388 Y100.605 E17.13955
G1 X132.309 Y101.175 E17.17557
G1 X134.587 Y102.498 E17.26319
G1 X135.891 Y103.218 E17.31273
G1 X137.047 Y103.846 E17.35649
G1 X141.218 Y106.254 E17.51668
G1 X143.473 Y107.514 E17.60259
G1 X145.705 Y108.678 E17.68632
G1 X148.015 Y109.802 E17.77176
G1 X150.307 Y110.838 E17.85542
G1 X152.67 Y111.827 E17.94062
G1 X155.055 Y112.746 E18.02563
G1 X157.429 Y113.585 E18.10937
G1 X159.836 Y114.359 E18.19347
G1 X162.285 Y115.072 E18.2783
G1 X164.756 Y115.716 E18.36324
G1 X167.202 Y116.28 E18.44672
G1 X169.736 Y116.789 E18.53269
G1 X172.218 Y117.215 E18.61645
G1 X174.721 Y117.572 E18.70054
G1 X177.225 Y117.857 E18.78436
G1 X179.795 Y118.077 E18.87015
G1 X182.291 Y118.22 E18.95331
G1 X184.937 Y118.295 E19.04135
G1 X186.546 Y118.313 E19.09487
G1 X187.273 Y118.347 E19.11907
G1 X187.6 Y118.374 E19.12999
G1 X188.496 Y118.488 E19.16003
G1 X188.991 Y118.586 E19.17681
G1 X189.473 Y118.694 E19.19324
G1 X190.71 Y119.054 E19.23609
G1 X190.912 Y119.127 E19.24323
G1 X191.595 Y119.402 E19.26772
G1 X191.842 Y119.512 E19.27672
M73 P1
G1 X192.7 Y119.944 E19.30867
G1 X192.975 Y120.099 E19.31916
G1 X193.742 Y120.577 E19.34922
G1 X194.147 Y120.871 E19.36587
G1 X194.512 Y121.149 E19.38113
G1 X195.355 Y121.866 E19.41794
G1 X195.533 Y122.035 E19.4261
G1 X196.336 Y122.89 E19.46511
G1 X196.596 Y123.201 E19.4786
G1 X197.144 Y123.919 E19.50864
G1 X197.511 Y124.486 E19.5311
G1 X197.778 Y124.93 E19.54833
G1 X198.209 Y125.724 E19.57838
G1 X198.47 Y126.306 E19.5996
G1 X198.607 Y126.639 E19.61157
G1 X199.011 Y127.824 E19.65321
G1 X199.122 Y128.229 E19.66718
G1 X199.322 Y129.11 E19.69723
G1 X199.406 Y129.66 E19.71574
G1 X199.45 Y130.012 E19.72753
G1 X199.529 Y131.219 E19.76776
G1 X199.532 Y131.743 E19.78519
G1 X199.49 Y132.728 E19.81798
G1 X199.464 Y133.013 E19.8275
G1 X199.365 Y133.773 E19.85299
G1 X199.287 Y134.238 E19.86868
G1 X199.1 Y135.119 E19.89863
G1 X198.997 Y135.515 E19.91224
G1 X198.739 Y136.353 E19.9414
G1 X198.587 Y136.782 E19.95654
G1 X198.267 Y137.579 E19.98511
G1 X198.092 Y137.966 E19.99923
G1 X197.654 Y138.824 E20.03127
G1 X197.418 Y139.237 E20.04709
G1 X196.916 Y140.029 E20.07828
G1 X196.689 Y140.353 E20.09144
G1 X196.27 Y140.909 E20.1146
G1 X196.081 Y141.143 E20.1246
G1 X195.669 Y141.622 E20.14561
G1 X195.474 Y141.835 E20.15522
G1 X194.977 Y142.341 E20.17881
G1 X194.575 Y142.723 E20.19725
G1 X193.758 Y143.422 E20.23302
G1 X193.453 Y143.656 E20.2458
G1 X192.769 Y144.137 E20.27361
G1 X192.381 Y144.387 E20.28897
G1 X191.64 Y144.821 E20.31753
G1 X191.286 Y145.009 E20.33086
G1 X190.49 Y145.389 E20.3602
G1 X190.111 Y145.55 E20.37389
G1 X189.349 Y145.842 E20.40103
G1 X188.529 Y146.101 E20.42963
G1 X187.775 Y146.294 E20.45552
G1 X187.564 Y146.341 E20.46271
G1 X186.882 Y146.469 E20.48579
G1 X186.37 Y146.547 E20.50302
G1 X185.42 Y146.646 E20.53478
G1 X184.844 Y146.672 E20.55396
G1 X183.325 Y146.7 E20.60449
G1 X44.979 Y146.694 E25.2059
G1 X44.226 Y146.682 E25.23095
G1 X43.502 Y146.644 E25.25506
G1 X43.147 Y146.613 E25.26691
G1 X42.357 Y146.513 E25.2934
G1 X41.943 Y146.444 E25.30736
G1 X41.024 Y146.247 E25.33862
G1 X40.568 Y146.127 E25.3543
G1 X39.732 Y145.868 E25.38341
G1 X39.329 Y145.724 E25.39764
G1 X38.544 Y145.407 E25.4258
G1 X38.196 Y145.249 E25.43851
G1 X37.438 Y144.865 E25.46678
G1 X37.055 Y144.651 E25.48137
G1 X36.33 Y144.206 E25.50966
G1 X36.002 Y143.985 E25.52282
G1 X35.28 Y143.451 E25.55268
G1 X34.895 Y143.139 E25.56917
G1 X34.228 Y142.548 E25.59881
G1 X33.959 Y142.288 E25.61125
G1 X33.372 Y141.671 E25.63957
G1 X33.078 Y141.335 E25.65442
G1 X32.554 Y140.684 E25.68222
G1 X32.318 Y140.365 E25.69542
G1 X31.829 Y139.642 E25.72445
G1 X31.607 Y139.281 E25.73854
G1 X31.211 Y138.576 E25.76544
G1 X31.041 Y138.243 E25.77787
G1 X30.692 Y137.483 E25.80569
G1 X30.507 Y137.033 E25.82187
G1 X30.179 Y136.113 E25.85436
G1 X30.059 Y135.717 E25.86812
G1 X29.85 Y134.908 E25.89591
G1 X29.761 Y134.495 E25.90996
G1 X29.615 Y133.643 E25.93871
G1 X29.565 Y133.253 E25.95179
G1 X29.484 Y132.172 E25.98785
G1 X29.45 Y130.446 E26.04526
G1 X29.453 Y119.92 E26.39536
G0 F6000 X29.053 Y119.914
G1 F1200 X29.062 Y119.265 E26.41695
G1 X29.105 Y118.421 E26.44506
G1 X29.236 Y117.35 E26.48094
G1 X29.306 Y116.949 E26.49448
G1 X29.503 Y116.05 E26.52509
G1 X29.702 Y115.39 E26.54802
G1 X29.838 Y114.986 E26.5622
G1 X30.282 Y113.879 E26.60187
G1 X30.426 Y113.571 E26.61318
G1 X30.851 Y112.754 E26.64381
G1 X31.224 Y112.156 E26.66725
G1 X31.511 Y111.728 E26.68439
G1 X32.057 Y110.987 E26.715
G1 X32.524 Y110.444 E26.73882
G1 X32.81 Y110.134 E26.75285
G1 X33.73 Y109.251 E26.79526
G1 X33.925 Y109.085 E26.80378
G1 X34.644 Y108.524 E26.83411
G1 X34.905 Y108.338 E26.84477
G1 X35.678 Y107.836 E26.87543
G1 X36.151 Y107.574 E26.89341
G1 X36.557 Y107.362 E26.90865
G1 X37.748 Y106.83 E26.95203
G1 X38.074 Y106.708 E26.96361
G1 X39.068 Y106.391 E26.99831
G1 X39.919 Y106.192 E27.02738
G1 X40.861 Y106.011 E27.05928
G1 X43.386 Y105.489 E27.14504
G1 X45.863 Y104.904 E27.22969
G1 X48.315 Y104.251 E27.31409
G1 X50.726 Y103.534 E27.39775
G1 X53.126 Y102.746 E27.48177
G1 X55.517 Y101.886 E27.56628
G1 X57.859 Y100.968 E27.64994
G1 X60.199 Y99.973 E27.73452
G1 X62.492 Y98.921 E27.81843
G1 X64.743 Y97.811 E27.9019
G1 X67.011 Y96.609 E27.98727
G1 X69.19 Y95.375 E28.07056
G1 X71.372 Y94.058 E28.15533
G1 X73.504 Y92.687 E28.23964
G1 X74.905 Y91.737 E28.29594
G1 X75.688 Y91.254 E28.32654
G1 X76.511 Y90.841 E28.35716
G1 X77.366 Y90.5 E28.38778
G1 X78.248 Y90.235 E28.41841
G1 X79.149 Y90.048 E28.44902
G1 X80.064 Y89.94 E28.47966
G1 X80.687 Y89.911 E28.5004
G1 X81.49 Y89.9 E28.52711
G1 X110.145 Y89.9 E29.48018
G1 X111.031 Y89.914 E29.50966
G1 X111.95 Y89.969 E29.54028
G1 X112.861 Y90.104 E29.57091
G1 X113.756 Y90.318 E29.60151
G1 X114.63 Y90.608 E29.63214
G1 X115.475 Y90.974 E29.66277
G1 X115.93 Y91.208 E29.67979
G1 X116.543 Y91.546 E29.70307
G1 X130.386 Y99.539 E30.23473
G1 X131.599 Y100.265 E30.28175
G1 X132.515 Y100.832 E30.31758
G1 X134.783 Y102.149 E30.40481
G1 X136.12 Y102.887 E30.4556
G1 X137.247 Y103.5 E30.49827
G1 X141.407 Y105.901 E30.65803
G1 X143.647 Y107.153 E30.74338
G1 X145.915 Y108.336 E30.82846
G1 X148.176 Y109.436 E30.91208
G1 X150.447 Y110.463 E30.99498
G1 X152.844 Y111.466 E31.08141
G1 X155.184 Y112.367 E31.1648
G1 X157.547 Y113.203 E31.24817
G1 X159.955 Y113.977 E31.3323
G1 X162.392 Y114.687 E31.41672
G1 X164.841 Y115.325 E31.5009
G1 X167.299 Y115.891 E31.58479
G1 X169.811 Y116.396 E31.67001
G1 X172.271 Y116.818 E31.75302
G1 X174.756 Y117.173 E31.83651
G1 X177.303 Y117.463 E31.92178
G1 X179.783 Y117.675 E32.00456
G1 X182.323 Y117.82 E32.08918
G1 X184.954 Y117.895 E32.17672
G1 X186.55 Y117.913 E32.22981
G1 X187.306 Y117.948 E32.25498
G1 X187.633 Y117.975 E32.26589
G1 X188.547 Y118.09 E32.29653
G1 X189.079 Y118.195 E32.31457
G1 X189.561 Y118.303 E32.331
G1 X190.846 Y118.678 E32.37552
G1 X191.048 Y118.751 E32.38266
G1 X191.757 Y119.037 E32.40809
G1 X192.004 Y119.147 E32.41709
G1 X192.897 Y119.596 E32.45033
G1 X193.172 Y119.751 E32.46083
G1 X193.953 Y120.237 E32.49142
G1 X194.39 Y120.552 E32.50934
G1 X194.755 Y120.83 E32.5246
G1 X195.63 Y121.576 E32.56284
G1 X195.808 Y121.745 E32.57101
G1 X196.642 Y122.633 E32.61153
