;FLAVOR:Marlin
M73 P0
M73 R34
;TIME:2053
;Filament used: 0.692945m
;Layer height: 0.2
;MINX:27.818
;MINY:58.36
;MINZ:0.2
;MAXX:184.767
;MAXY:181.953
;MAXZ:13
;POSTPROCESSED
;Generated with Cura_SteamEngine 4.11.0
M140 S50
M105
M190 S50
M104 S215
M105
M109 S215
M82 ;absolute extrusion mode
; Ender 3 Custom Start G-code
G92 E0 ; Reset Extruder
G28 ; Home all axes
G1 Z2.0 F3000 ; Move Z Axis up little to prevent scratching of Heat Bed
G1 X0.1 Y20 Z0.3 F5000.0 ; Move to start position
G1 X0.1 Y200.0 Z0.3 F1500.0 E15 ; Draw the first line
G1 X0.4 Y200.0 Z0.3 F5000.0 ; Move to side a little
G1 X0.4 Y20 Z0.3 F1500.0 E30 ; Draw the second line
G92 E0 ; Reset Extruder
G1 Z2.0 F3000 ; Move Z Axis up little to prevent scratching of Heat Bed
G1 X5 Y20 Z0.3 F5000.0 ; Move over to prevent blob squish
G92 E0
G92 E0
G1 F2700 E-5
;LAYER_COUNT:40
;LAYER:0
M107
G0 F6000 X150.072 Y65.467 Z0.2
;TYPE:SKIRT
G1 F2700 E0
G1 F1200 X150.508 Y64.637 E0.03118
G1 X151.014 Y63.847 E0.06239
G1 X151.585 Y63.103 E0.09358
G1 X152.217 Y62.41 E0.12477
G1 X152.906 Y61.774 E0.15596
G1 X153.647 Y61.199 E0.18716
G1 X154.434 Y60.689 E0.21835
G1 X155.262 Y60.248 E0.24955
G1 X156.124 Y59.879 E0.28074
G1 X157.015 Y59.585 E0.31194
G1 X157.828 Y59.387 E0.33977
G1 X158.595 Y59.233 E0.36579
G1 X159.915 Y58.987 E0.41045
G1 X160.736 Y58.809 E0.43839
G1 X161.853 Y58.584 E0.47629
G1 X162.78 Y58.439 E0.5075
G1 X163.708 Y58.373 E0.53844
G1 X164.028 Y58.364 E0.54909
G1 X164.337 Y58.36 E0.55937
G1 X168.154 Y58.36 E0.68632
G1 X169.013 Y58.371 E0.71489
G1 X169.949 Y58.424 E0.74608
G1 X170.861 Y58.554 E0.77672
G1 X173.526 Y59.012 E0.86665
G1 X174.605 Y59.167 E0.90291
G1 X175.449 Y59.3 E0.93133
G1 X176.369 Y59.485 E0.96254
G1 X177.269 Y59.748 E0.99373
G1 X178.143 Y60.087 E1.0249
G1 X178.986 Y60.499 E1.05611
G1 X179.79 Y60.981 E1.08729
G1 X180.551 Y61.53 E1.1185
G1 X181.262 Y62.142 E1.1497
G1 X181.918 Y62.812 E1.18089
G1 X182.514 Y63.536 E1.21208
G1 X183.047 Y64.308 E1.24328
G1 X183.512 Y65.122 E1.27446
G1 X183.907 Y65.973 E1.30567
G1 X184.227 Y66.855 E1.33687
G1 X184.471 Y67.76 E1.36805
G1 X184.637 Y68.683 E1.39924
G1 X184.733 Y69.883 E1.43928
G1 X184.759 Y70.933 E1.47421
G1 X184.767 Y71.933 E1.50748
G1 X184.766 Y72.416 E1.52354
G1 X184.756 Y73.12 E1.54696
G1 X184.703 Y74.057 E1.57817
G1 X184.57 Y74.985 E1.60935
G1 X184.358 Y75.899 E1.64056
G1 X184.07 Y76.791 E1.67174
G1 X183.706 Y77.656 E1.70295
G1 X183.27 Y78.486 E1.73413
G1 X182.765 Y79.276 E1.76532
G1 X182.195 Y80.021 E1.79652
G1 X181.563 Y80.714 E1.82771
G1 X180.875 Y81.351 E1.8589
G1 X180.134 Y81.927 E1.89011
G1 X179.348 Y82.437 E1.92128
G1 X178.558 Y82.861 E1.9511
G1 X177.705 Y83.273 E1.9826
G1 X176.5 Y83.837 E2.02686
G1 X173.759 Y85.105 E2.1273
G1 X173.135 Y85.384 E2.15004
G1 X172.263 Y85.73 E2.18124
G1 X171.365 Y86 E2.21243
G1 X170.447 Y86.193 E2.24363
G1 X169.516 Y86.307 E2.27483
G1 X168.849 Y86.34 E2.29704
G1 X167.88 Y86.358 E2.32927
G1 X167.676 Y86.36 E2.33606
G1 X163.557 Y86.359 E2.47306
G1 X162.855 Y86.349 E2.49641
G1 X161.919 Y86.296 E2.52759
G1 X160.991 Y86.163 E2.55877
G1 X160.077 Y85.951 E2.58998
G1 X159.184 Y85.663 E2.62118
G1 X158.32 Y85.299 E2.65237
G1 X157.489 Y84.863 E2.68358
G1 X156.699 Y84.358 E2.71476
G1 X155.955 Y83.788 E2.74594
G1 X155.531 Y83.415 E2.76472
G1 X155.379 Y83.274 E2.77162
G1 X155.163 Y83.067 E2.78157
G1 X154.889 Y82.798 E2.79434
G1 X152.581 Y80.489 E2.90292
G1 X152.11 Y80.002 E2.92546
G1 X151.487 Y79.301 E2.95665
G1 X150.927 Y78.549 E2.98783
G1 X150.432 Y77.752 E3.01904
G1 X150.007 Y76.916 E3.05023
G1 X149.655 Y76.047 E3.08141
G1 X149.378 Y75.151 E3.11261
G1 X149.179 Y74.234 E3.14382
G1 X149.058 Y73.304 E3.17501
G1 X149.023 Y72.73 E3.19414
G1 X149.017 Y72.554 E3.19999
G1 X149.008 Y71.913 E3.22131
G1 X149.007 Y70.832 E3.25727
G1 X149.018 Y70.002 E3.28488
G1 X149.072 Y69.065 E3.31609
G1 X149.206 Y68.137 E3.34728
G1 X149.418 Y67.223 E3.37849
G1 X149.707 Y66.331 E3.40967
G1 X150.072 Y65.467 E3.44087
G0 F6000 X150.47 Y65.562
G1 F1200 X150.905 Y64.751 E3.47148
G1 X151.41 Y63.98 E3.50213
G1 X151.979 Y63.257 E3.53273
G1 X152.609 Y62.585 E3.56337
G1 X153.295 Y61.971 E3.59399
G1 X154.031 Y61.419 E3.62459
G1 X154.813 Y60.932 E3.65523
G1 X155.634 Y60.516 E3.68584
G1 X156.488 Y60.172 E3.71646
G1 X157.368 Y59.903 E3.74707
G1 X157.908 Y59.779 E3.7655
G1 X158.668 Y59.626 E3.79128
G1 X160.008 Y59.377 E3.83662
G1 X160.985 Y59.166 E3.86986
G1 X161.932 Y58.976 E3.90198
G1 X162.842 Y58.834 E3.93262
G1 X163.719 Y58.773 E3.96186
G1 X164.039 Y58.764 E3.9725
G1 X164.337 Y58.76 E3.98242
G1 X168.305 Y58.761 E4.11439
G1 X169.007 Y58.771 E4.13774
G1 X169.926 Y58.824 E4.16836
G1 X170.788 Y58.948 E4.19733
G1 X173.473 Y59.409 E4.28794
G1 X174.543 Y59.562 E4.32389
G1 X175.387 Y59.695 E4.3523
G1 X176.289 Y59.878 E4.38292
G1 X177.172 Y60.138 E4.41353
G1 X178.03 Y60.474 E4.44418
G1 X178.854 Y60.883 E4.47478
G1 X179.641 Y61.362 E4.50542
G1 X180.382 Y61.908 E4.53603
G1 X181.074 Y62.515 E4.56665
G1 X181.71 Y63.181 E4.59728
G1 X182.286 Y63.899 E4.62789
G1 X182.798 Y64.665 E4.65854
G1 X183.241 Y65.472 E4.68916
G1 X183.612 Y66.314 E4.71976
G1 X183.909 Y67.185 E4.75037
G1 X184.13 Y68.079 E4.781
G1 X184.271 Y68.989 E4.81162
G1 X184.333 Y69.893 E4.84176
G1 X184.359 Y70.936 E4.87646
G1 X184.367 Y71.936 E4.90973
G1 X184.366 Y72.411 E4.92552
G1 X184.356 Y73.115 E4.94894
G1 X184.303 Y74.034 E4.97956
G1 X184.17 Y74.945 E5.01018
G1 X183.959 Y75.841 E5.0408
G1 X183.671 Y76.715 E5.0714
G1 X183.308 Y77.561 E5.10202
G1 X182.873 Y78.373 E5.13266
G1 X182.369 Y79.143 E5.16327
G1 X181.801 Y79.867 E5.19388
G1 X181.171 Y80.539 E5.22451
G1 X180.486 Y81.154 E5.25513
G1 X179.75 Y81.707 E5.28575
G1 X178.969 Y82.194 E5.31636
G1 X178.383 Y82.501 E5.33837
G1 X177.536 Y82.911 E5.36966
G1 X176.406 Y83.439 E5.41115
G1 X173.596 Y84.74 E5.51414
G1 X172.972 Y85.019 E5.53687
G1 X172.116 Y85.358 E5.5675
G1 X171.233 Y85.621 E5.59814
G1 X170.332 Y85.807 E5.62874
G1 X169.417 Y85.914 E5.65938
G1 X168.842 Y85.94 E5.67852
G1 X167.676 Y85.96 E5.71731
G1 X163.563 Y85.959 E5.85411
G1 X162.861 Y85.949 E5.87746
G1 X161.942 Y85.896 E5.90808
G1 X161.031 Y85.763 E5.9387
G1 X160.135 Y85.552 E5.96932
G1 X159.26 Y85.264 E5.99995
G1 X158.414 Y84.901 E6.03057
G1 X157.603 Y84.466 E6.06118
G1 X156.832 Y83.962 E6.09182
G1 X155.803 Y83.121 E6.13602
G1 X155.651 Y82.98 E6.14292
G1 X155.443 Y82.782 E6.15247
G1 X155.171 Y82.515 E6.16514
G1 X152.994 Y80.339 E6.26752
G1 X152.398 Y79.724 E6.296
G1 X151.787 Y79.035 E6.32663
G1 X151.238 Y78.296 E6.35725
G1 X150.756 Y77.512 E6.38786
G1 X150.343 Y76.689 E6.41849
G1 X150.004 Y75.833 E6.44911
G1 X149.74 Y74.951 E6.47973
G1 X149.553 Y74.049 E6.51037
G1 X149.423 Y72.716 E6.55492
G1 X149.417 Y72.54 E6.56077
G1 X149.412 Y72.29 E6.56909
G1 X149.407 Y71.798 E6.58546
G1 X149.408 Y70.673 E6.62287
G1 X149.418 Y70.008 E6.64499
G1 X149.472 Y69.089 E6.67561
G1 X149.605 Y68.178 E6.70623
G1 X149.817 Y67.282 E6.73686
G1 X150.106 Y66.407 E6.76751
G1 X150.47 Y65.562 E6.79811
G0 F6000 X150.868 Y65.658
G1 F1200 X151.302 Y64.867 E6.82812
G1 X151.805 Y64.116 E6.85818
G1 X152.373 Y63.414 E6.88821
G1 X153 Y62.764 E6.91825
G1 X153.682 Y62.172 E6.94829
G1 X154.414 Y61.643 E6.97833
G1 X155.19 Y61.181 E7.00837
G1 X156.004 Y60.79 E7.0384
G1 X156.849 Y60.471 E7.06844
G1 X157.987 Y60.171 E7.10758
G1 X158.741 Y60.019 E7.13317
G1 X160.1 Y59.766 E7.17914
G1 X161.064 Y59.558 E7.21195
G1 X162.011 Y59.368 E7.24407
G1 X162.903 Y59.23 E7.27409
G1 X163.73 Y59.173 E7.30166
G1 X164.05 Y59.164 E7.31231
G1 X164.337 Y59.16 E7.32186
G1 X168.154 Y59.16 E7.44881
G1 X169.001 Y59.171 E7.47698
G1 X169.903 Y59.224 E7.50704
G1 X170.715 Y59.341 E7.53432
G1 X170.832 Y59.363 E7.53828
G1 X173.387 Y59.801 E7.6245
G1 X174.481 Y59.957 E7.66126
G1 X175.325 Y60.09 E7.68967
G1 X176.21 Y60.27 E7.71971
G1 X177.075 Y60.528 E7.74973
G1 X177.915 Y60.861 E7.77979
G1 X178.722 Y61.267 E7.80984
G1 X179.489 Y61.743 E7.83986
G1 X180.212 Y62.284 E7.86989
G1 X180.883 Y62.888 E7.89992
G1 X181.499 Y63.549 E7.92997
G1 X182.054 Y64.261 E7.96
G1 X182.544 Y65.02 E7.99005
G1 X182.964 Y65.819 E8.02007
G1 X183.313 Y66.652 E8.05011
G1 X183.586 Y67.513 E8.08015
G1 X183.782 Y68.395 E8.1102
G1 X183.899 Y69.29 E8.14022
G1 X183.934 Y69.904 E8.16068
G1 X183.959 Y70.939 E8.19511
G1 X183.967 Y71.939 E8.22837
G1 X183.966 Y72.405 E8.24387
G1 X183.956 Y73.109 E8.26729
G1 X183.903 Y74.01 E8.29731
G1 X183.771 Y74.904 E8.32737
G1 X183.56 Y75.782 E8.3574
G1 X183.272 Y76.638 E8.38744
G1 X182.91 Y77.465 E8.41746
G1 X182.476 Y78.257 E8.4475
G1 X181.974 Y79.008 E8.47755
G1 X181.407 Y79.711 E8.50759
G1 X180.78 Y80.361 E8.53762
G1 X180.098 Y80.953 E8.56766
G1 X179.367 Y81.483 E8.59769
G1 X178.209 Y82.141 E8.64199
G1 X177.367 Y82.548 E8.6731
G1 X176.164 Y83.111 E8.71727
G1 X173.432 Y84.375 E8.81739
G1 X172.808 Y84.654 E8.84013
G1 X171.968 Y84.985 E8.87016
G1 X171.102 Y85.242 E8.9002
G1 X170.217 Y85.42 E8.93023
G1 X169.32 Y85.52 E8.96025
G1 X168.834 Y85.54 E8.97642
G1 X167.676 Y85.56 E9.01495
G1 X163.569 Y85.559 E9.15154
G1 X162.867 Y85.549 E9.1749
G1 X161.965 Y85.496 E9.20495
G1 X161.072 Y85.364 E9.23497
G1 X160.194 Y85.153 E9.26501
G1 X159.338 Y84.865 E9.29504
G1 X158.51 Y84.503 E9.3251
G1 X157.718 Y84.069 E9.35514
G1 X156.968 Y83.566 E9.38517
G1 X156.075 Y82.828 E9.42371
G1 X155.923 Y82.687 E9.4306
G1 X155.723 Y82.496 E9.4398
G1 X155.454 Y82.232 E9.45234
G1 X153.156 Y79.933 E9.56045
G1 X152.685 Y79.446 E9.58298
G1 X152.087 Y78.77 E9.613
G1 X151.55 Y78.043 E9.64306
G1 X151.08 Y77.272 E9.6731
G1 X150.68 Y76.462 E9.70314
G1 X150.354 Y75.62 E9.73317
G1 X150.103 Y74.753 E9.76319
G1 X149.93 Y73.866 E9.79325
G1 X149.823 Y72.703 E9.8321
G1 X149.812 Y72.286 E9.84597
G1 X149.807 Y71.798 E9.8622
G1 X149.808 Y70.679 E9.89942
G1 X149.818 Y70.014 E9.92154
G1 X149.872 Y69.112 E9.9516
G1 X150.005 Y68.219 E9.98163
G1 X150.216 Y67.341 E10.01166
G1 X150.505 Y66.485 E10.04171
G1 X150.868 Y65.658 E10.07175
G1 F2700 E5.07175
;MESH:DropIn_TNut_3030_M4.stl(3)
G0 F6000 X163.354 Y69.505
G0 X164.421 Y69.774
G0 X165.007 Y70.36
;TYPE:WALL-INNER
G1 F2700 E10.07175
G1 F1200 X167.861 Y70.36 E10.16667
G1 X167.861 Y71.158 E10.19321
G1 X172.76 Y71.158 E10.35616
G1 X172.767 Y72.041 E10.38552
G1 X172.766 Y72.336 E10.39534
G1 X171.897 Y72.739 E10.4272
G1 X171.62 Y72.872 E10.43742
G1 X168.41 Y74.36 E10.55509
G1 X163.421 Y74.36 E10.72103
G1 X161.007 Y71.946 E10.83458
G1 X161.007 Y71.158 E10.86079
G1 X165.007 Y71.158 E10.99383
G1 X165.007 Y70.36 E11.02037
G0 F6000 X164.607 Y69.96
G1 F1200 X168.261 Y69.96 E11.1419
G1 X168.261 Y70.758 E11.16844
G1 X173.157 Y70.758 E11.33128
G1 X173.167 Y72.042 E11.37399
G1 X173.166 Y72.592 E11.39228
G1 X172.068 Y73.101 E11.43254
G1 X171.793 Y73.233 E11.44268
G1 X168.498 Y74.76 E11.56347
G1 X163.255 Y74.76 E11.73785
G1 X160.607 Y72.112 E11.86241
G1 X160.607 Y70.758 E11.90744
G1 X164.607 Y70.758 E12.04048
G1 X164.607 Y69.96 E12.06702
G0 F6000 X164.207 Y70.358
;TYPE:WALL-OUTER
G1 F1200 X164.207 Y69.56 E12.09357
G1 X168.661 Y69.56 E12.24171
G1 X168.661 Y70.358 E12.26825
G1 X173.554 Y70.358 E12.43099
G1 X173.567 Y72.042 E12.487
G1 X173.566 Y72.848 E12.51381
G1 X172.239 Y73.463 E12.56245
G1 X171.966 Y73.594 E12.57253
G1 X168.586 Y75.16 E12.69642
G1 X163.089 Y75.16 E12.87926
G1 X160.207 Y72.278 E13.01482
G1 X160.207 Y70.358 E13.07868
G1 X164.207 Y70.358 E13.21172
G0 F6000 X164.507 Y70.358
G0 X165.397 Y70.47
G0 X165.397 Y70.75
;TYPE:SKIN
G1 F1200 X167.471 Y70.75 E13.2807
G1 X167.471 Y71.548 E13.30724
G1 X172.373 Y71.548 E13.47028
G1 X172.377 Y72.088 E13.48824
G1 X171.731 Y72.386 E13.5119
G1 X171.453 Y72.52 E13.52217
G1 X168.326 Y73.97 E13.63681
G1 X163.581 Y73.97 E13.79463
G1 X161.397 Y71.786 E13.89736
G1 X161.397 Y71.548 E13.90527
G1 X165.397 Y71.548 E14.03831
G1 X165.397 Y70.75 E14.06486
G0 F6000 X165.397 Y70.47
G0 X161.189 Y71.34
G0 X161.181 Y71.875
G0 X163.492 Y74.186
G0 X163.753 Y74.25
G0 X163.753 Y73.809
G1 F1200 X161.651 Y71.707 E14.16373
G0 F6000 X162.217 Y71.707
G1 F1200 X164.319 Y73.809 E14.2626
G0 F6000 X164.885 Y73.809
G1 F1200 X162.783 Y71.707 E14.36147
G0 F6000 X163.348 Y71.707
G1 F1200 X165.45 Y73.809 E14.46034
G0 F6000 X166.016 Y73.809
G1 F1200 X163.914 Y71.707 E14.55921
G0 F6000 X164.48 Y71.707
G1 F1200 X166.582 Y73.809 E14.65809
G0 F6000 X167.148 Y73.809
G1 F1200 X165.045 Y71.707 E14.75698
G0 F6000 X165.556 Y71.652
G1 F1200 X167.713 Y73.809 E14.85844
G0 F6000 X168.279 Y73.809
G1 F1200 X165.556 Y71.086 E14.98652
G0 F6000 X165.945 Y70.91
G1 F1200 X168.669 Y73.633 E15.11463
G0 F6000 X169.055 Y73.454
G1 F1200 X166.51 Y70.91 E15.23431
G0 F6000 X167.076 Y70.91
G1 F1200 X167.309 Y71.143 E15.24527
G0 F6000 X167.874 Y71.707
G1 F1200 X169.441 Y73.275 E15.319
G0 F6000 X169.828 Y73.096
G1 F1200 X168.439 Y71.707 E15.38434
G0 F6000 X169.005 Y71.707
G1 F1200 X170.214 Y72.916 E15.4412
G0 F6000 X170.601 Y72.737
G1 F1200 X169.571 Y71.707 E15.48965
G0 F6000 X170.136 Y71.707
G1 F1200 X170.987 Y72.558 E15.52968
G0 F6000 X171.374 Y72.379
G1 F1200 X170.702 Y71.707 E15.56129
G0 F6000 X171.268 Y71.707
G1 F1200 X171.757 Y72.197 E15.58431
G0 F6000 X172.143 Y72.017
G1 F1200 X171.834 Y71.707 E15.59887
G0 F6000 X171.834 Y70.968
;MESH:NONMESH
G0 F300 X171.834 Y70.968 Z0.4
G0 F6000 X168.469 Y70.624
G0 X165.007 Y70.36
M73 R34
M73 P1
;TIME_ELAPSED:31.465549
;LAYER:1
M106 S85
;TYPE:WALL-INNER
;MESH:DropIn_TNut_3030_M4.stl(3)
G1 F1063.7 X168.526 Y70.36 E15.71591
G1 X168.526 Y71.158 E15.74246
G1 X173.309 Y71.158 E15.90154
G1 X173.311 Y72.256 E15.93806
G1 X169.799 Y73.885 E16.06682
G1 X169.715 Y73.926 E16.06993
G1 X168.779 Y74.36 E16.10425
G1 X163.421 Y74.36 E16.28245
G1 X161.007 Y71.946 E16.396
G1 X161.007 Y71.158 E16.42221
G1 X165.007 Y71.158 E16.55525
G1 X165.007 Y70.36 E16.58179
G0 F7500 X164.607 Y69.96
G1 F1063.7 X168.926 Y69.96 E16.72544
G1 X168.926 Y70.758 E16.75198
G1 X173.706 Y70.758 E16.91097
G1 X173.71 Y71.29 E16.92866
G1 X173.711 Y72.511 E16.96927
G1 X169.971 Y74.246 E17.1064
G1 X169.883 Y74.289 E17.10966
G1 X168.867 Y74.76 E17.1469
G1 X163.255 Y74.76 E17.33356
G1 X160.607 Y72.112 E17.45811
G1 X160.607 Y70.758 E17.50315
G1 X164.607 Y70.758 E17.63619
G1 X164.607 Y69.96 E17.66273
G0 F7500 X164.207 Y70.358
;TYPE:WALL-OUTER
G1 F1063.7 X164.207 Y69.56 E17.68927
G1 X169.326 Y69.56 E17.85953
G1 X169.326 Y70.358 E17.88607
G1 X174.103 Y70.358 E18.04496
G1 X174.11 Y71.29 E18.07595
G1 X174.111 Y72.766 E18.12505
G1 X170.143 Y74.607 E18.27054
G1 X170.051 Y74.652 E18.27394
G1 X168.955 Y75.16 E18.31412
G1 X163.089 Y75.16 E18.50922
G1 X160.207 Y72.278 E18.64479
G1 X160.207 Y70.358 E18.70864
G1 X164.207 Y70.358 E18.84169
G0 F7500 X164.507 Y70.358
G0 X165.397 Y70.47
G0 X165.397 Y70.75
;TYPE:SKIN
G1 F1063.7 X168.136 Y70.75 E18.93278
G1 X168.136 Y71.548 E18.95933
G1 X172.919 Y71.548 E19.11841
G1 X172.921 Y72.008 E19.13371
G1 X169.631 Y73.532 E19.25431
G1 X169.476 Y73.608 E19.26005
G1 X168.695 Y73.97 E19.28868
G1 X163.581 Y73.97 E19.45877
G1 X161.397 Y71.786 E19.5615
G1 X161.397 Y71.548 E19.56941
G1 X165.397 Y71.548 E19.70246
G1 X165.397 Y70.75 E19.729
G0 F7500 X165.397 Y70.47
G0 X161.189 Y71.34
G0 X161.182 Y71.821
G0 X161.422 Y72.205
G0 X161.732 Y71.895
G1 F1063.7 X161.92 Y71.707 E19.73784
G0 F7500 X162.015 Y72.178
G1 F1063.7 X162.486 Y71.707 E19.75999
G0 F7500 X163.051 Y71.707
G1 F1063.7 X162.297 Y72.461 E19.79546
G0 F7500 X162.58 Y72.744
G1 F1063.7 X163.617 Y71.707 E19.84424
G0 F7500 X164.183 Y71.707
G1 F1063.7 X162.863 Y73.027 E19.90633
G0 F7500 X163.146 Y73.31
G1 F1063.7 X164.748 Y71.707 E19.9817
G0 F7500 X165.314 Y71.707
G1 F1063.7 X163.429 Y73.592 E20.07037
G0 F7500 X163.777 Y73.809
G1 F1063.7 X166.678 Y70.909 E20.2068
G0 F7500 X166.112 Y70.909
G1 F1063.7 X165.556 Y71.465 E20.23295
G0 F7500 X165.147 Y71.298
