;FLAVOR:Marlin
M73 P0
M73 R78
;TIME:4672
;Filament used: 4.30609m
;Layer height: 0.28
;MINX:76.5
;MINY:86.5
;MINZ:0.28
;MAXX:158.5
;MAXY:148.5
;MAXZ:24.08
;POSTPROCESSED
;Generated with Cura_SteamEngine 5.0.0
M140 S50
M105
M190 S50
M104 S189
M105
M109 S189
M82 ;absolute extrusion mode
; Ender 3 Custom Start G-code
G92 E0 ; Reset Extruder
G28 ; Home all axes
G1 Z2.0 F3000 ; Move Z Axis up little to prevent scratching of Heat Bed
G1 X0.1 Y20 Z0.3 F5000.0 ; Move to start position
G1 X0.1 Y200.0 Z0.3 F1500.0 E15 ; Draw the first line
G1 X0.4 Y200.0 Z0.3 F5000.0 ; Move to side a little
G1 X0.4 Y20 Z0.3 F1500.0 E30 ; Draw the second line
G92 E0 ; Reset Extruder
G1 Z2.0 F3000 ; Move Z Axis up little to prevent scratching of Heat Bed
G1 X5 Y20 Z0.3 F5000.0 ; Move over to prevent blob squish
G92 E0
G92 E0
G1 F2700 E-5
;LAYER_COUNT:86
;LAYER:0
M107
G0 F6000 X83.655 Y91.727 Z0.28
G0 X76.521 Y106.949
;TYPE:SKIRT
G1 F2700 E0
G1 F1200 X76.553 Y106.271 E0.03161
G1 X76.59 Y105.719 E0.05737
G1 X76.667 Y104.962 E0.0928
G1 X76.781 Y104.176 E0.12978
G1 X76.887 Y103.559 E0.15893
G1 X77.045 Y102.8 E0.19503
G1 X77.239 Y102.04 E0.23155
G1 X77.417 Y101.411 E0.26199
G1 X77.65 Y100.684 E0.29754
G1 X77.934 Y99.915 E0.33571
G1 X78.168 Y99.334 E0.36488
G1 X78.449 Y98.696 E0.39734
G1 X78.827 Y97.926 E0.43728
G1 X79.107 Y97.394 E0.46528
G1 X79.485 Y96.732 E0.50077
G1 X79.93 Y96.027 E0.53959
G1 X80.27 Y95.519 E0.56806
G1 X80.709 Y94.908 E0.60309
G1 X81.219 Y94.261 E0.64145
G1 X81.641 Y93.756 E0.6721
G1 X82.119 Y93.221 E0.7055
G1 X82.714 Y92.61 E0.74521
G1 X83.157 Y92.181 E0.77393
G1 X83.655 Y91.727 E0.80531
G1 X84.285 Y91.2 E0.84355
G1 X84.829 Y90.772 E0.87579
G1 X85.403 Y90.35 E0.90896
G1 X86.064 Y89.907 E0.94601
G1 X86.648 Y89.539 E0.97815
G1 X87.299 Y89.159 E1.01325
G1 X88.014 Y88.782 E1.05089
G1 X88.59 Y88.499 E1.08077
G1 X89.282 Y88.188 E1.1161
G1 X90.013 Y87.897 E1.15274
G1 X90.598 Y87.681 E1.18178
G1 X91.367 Y87.429 E1.21946
G1 X92.185 Y87.2 E1.25901
G1 X92.765 Y87.055 E1.28685
G1 X93.447 Y86.908 E1.31934
G1 X94.233 Y86.772 E1.35648
G1 X94.901 Y86.676 E1.3879
G1 X95.654 Y86.594 E1.42317
G1 X96.435 Y86.543 E1.45962
G1 X97.472 Y86.507 E1.50793
G1 X98.085 Y86.5 E1.53648
G1 X146.793 Y86.5 E3.80453
G1 X147.649 Y86.511 E3.84439
G1 X148.585 Y86.565 E3.88805
G1 X149.513 Y86.697 E3.93169
G1 X150.427 Y86.909 E3.97538
G1 X151.319 Y87.198 E4.01904
G1 X152.184 Y87.561 E4.06272
G1 X153.014 Y87.997 E4.10638
G1 X153.805 Y88.502 E4.15008
G1 X154.549 Y89.073 E4.19375
G1 X155.242 Y89.705 E4.23742
G1 X155.879 Y90.393 E4.28108
G1 X156.454 Y91.134 E4.32476
G1 X156.965 Y91.92 E4.36841
G1 X157.407 Y92.748 E4.41211
G1 X157.776 Y93.61 E4.45578
G1 X158.071 Y94.5 E4.49944
G1 X158.289 Y95.412 E4.5431
G1 X158.429 Y96.34 E4.5868
G1 X158.486 Y97.194 E4.62665
G1 X158.5 Y97.823 E4.65595
G1 X158.498 Y135.512 E6.41091
G1 X158.48 Y136.389 E6.45175
G1 X158.42 Y137.325 E6.49543
G1 X158.282 Y138.252 E6.53907
G1 X158.091 Y139.09 E6.57909
G1 X157.831 Y139.991 E6.62275
G1 X157.31 Y141.273 E6.68719
G1 X157.163 Y141.578 E6.70296
G1 X156.72 Y142.405 E6.74664
G1 X156.071 Y143.379 E6.80114
G1 X155.933 Y143.564 E6.81189
G1 X155.341 Y144.291 E6.85554
G1 X154.689 Y144.965 E6.89921
G1 X154.051 Y145.526 E6.93877
G1 X153.673 Y145.833 E6.96144
G1 X152.92 Y146.392 E7.00511
G1 X152.123 Y146.886 E7.04878
G1 X150.962 Y147.451 E7.1089
G1 X150.647 Y147.582 E7.12478
G1 X149.766 Y147.905 E7.16848
G1 X148.862 Y148.151 E7.2121
G1 X148.063 Y148.308 E7.25002
G1 X147.134 Y148.437 E7.29369
G1 X146.313 Y148.485 E7.33199
G1 X145.46 Y148.5 E7.37171
G1 X88.189 Y148.499 E10.03849
G1 X87.493 Y148.489 E10.0709
G1 X86.557 Y148.435 E10.11456
G1 X85.628 Y148.302 E10.15826
G1 X84.715 Y148.091 E10.20189
G1 X83.822 Y147.802 E10.24559
G1 X82.958 Y147.439 E10.28923
G1 X82.127 Y147.003 E10.33293
G1 X81.337 Y146.497 E10.37661
G1 X80.593 Y145.927 E10.42026
G1 X79.9 Y145.295 E10.46393
G1 X79.263 Y144.606 E10.50762
G1 X78.687 Y143.866 E10.55129
G1 X78.177 Y143.079 E10.59496
G1 X77.735 Y142.252 E10.63862
G1 X77.366 Y141.39 E10.68228
G1 X77.071 Y140.5 E10.72594
G1 X76.848 Y139.565 E10.7707
G1 X76.698 Y138.639 E10.81438
G1 X76.628 Y137.704 E10.85804
G1 X76.641 Y136.698 E10.90489
G1 X76.7 Y135.702 E10.95135
G1 X76.817 Y133.102 E11.07254
G1 X76.858 Y130.616 E11.18831
G1 X76.828 Y128.136 E11.3038
G1 X76.663 Y124.484 E11.47402
G1 X76.608 Y123.63 E11.51387
G1 X76.544 Y122.274 E11.57708
G1 X76.513 Y120.837 E11.64401
G1 X76.5 Y119.64 E11.69975
G1 X76.501 Y108.055 E12.2392
G1 X76.521 Y106.949 E12.29071
G0 F6000 X76.901 Y108.061
G1 F1200 X76.92 Y106.965 E12.34175
G1 X76.952 Y106.298 E12.37284
G1 X76.989 Y105.746 E12.3986
G1 X77.063 Y105.016 E12.43277
G1 X77.175 Y104.244 E12.46909
G1 X77.281 Y103.627 E12.49824
G1 X77.434 Y102.895 E12.53307
G1 X77.624 Y102.149 E12.56891
G1 X77.802 Y101.52 E12.59935
G1 X78.026 Y100.819 E12.63362
G1 X78.306 Y100.065 E12.67107
G1 X78.54 Y99.484 E12.70024
G1 X78.81 Y98.869 E12.73151
G1 X79.181 Y98.112 E12.77077
G1 X79.461 Y97.58 E12.79876
G1 X79.825 Y96.943 E12.83292
G1 X80.262 Y96.249 E12.87111
G1 X80.602 Y95.741 E12.89957
G1 X81.026 Y95.153 E12.93333
G1 X81.526 Y94.518 E12.97096
G1 X81.948 Y94.013 E13.00161
G1 X82.409 Y93.497 E13.03383
G1 X82.992 Y92.897 E13.07278
G1 X83.435 Y92.468 E13.1015
G1 X83.915 Y92.031 E13.13173
G1 X84.533 Y91.514 E13.16924
G1 X85.077 Y91.086 E13.20147
G1 X85.63 Y90.68 E13.23342
G1 X86.277 Y90.245 E13.26972
G1 X86.861 Y89.877 E13.30186
G1 X87.488 Y89.511 E13.33567
G1 X88.191 Y89.141 E13.37266
G1 X88.767 Y88.858 E13.40255
G1 X89.433 Y88.559 E13.43654
G1 X90.151 Y88.272 E13.47254
G1 X90.736 Y88.056 E13.50158
G1 X91.478 Y87.813 E13.53794
G1 X92.282 Y87.588 E13.57681
G1 X92.862 Y87.443 E13.60465
G1 X93.519 Y87.301 E13.63595
G1 X94.29 Y87.168 E13.67238
G1 X94.958 Y87.072 E13.70381
G1 X95.684 Y86.993 E13.73781
G1 X96.45 Y86.943 E13.77356
M73 P1
G1 X97.477 Y86.907 E13.82141
G1 X98.085 Y86.9 E13.84972
G1 X146.793 Y86.9 E16.11777
G1 X147.643 Y86.911 E16.15735
G1 X148.562 Y86.964 E16.20022
G1 X149.473 Y87.097 E16.24308
G1 X150.369 Y87.308 E16.28595
G1 X151.243 Y87.596 E16.3288
G1 X152.09 Y87.959 E16.37171
G1 X152.901 Y88.394 E16.41456
G1 X153.671 Y88.898 E16.45741
G1 X154.395 Y89.467 E16.50029
G1 X155.067 Y90.097 E16.54318
G1 X155.682 Y90.782 E16.58605
G1 X156.235 Y91.518 E16.62891
G1 X156.722 Y92.299 E16.67177
G1 X157.139 Y93.12 E16.71465
G1 X157.484 Y93.974 E16.75754
G1 X157.753 Y94.854 E16.80039
G1 X157.945 Y95.755 E16.84328
G1 X158.058 Y96.668 E16.88612
G1 X158.096 Y97.518 E16.92574
G1 X158.1 Y135.286 E18.68437
G1 X158.08 Y136.381 E18.73537
G1 X158.021 Y137.299 E18.77821
G1 X157.883 Y138.209 E18.82106
G1 X157.702 Y138.995 E18.85862
G1 X157.447 Y139.88 E18.90151
G1 X156.95 Y141.099 E18.9628
G1 X156.803 Y141.404 E18.97857
G1 X156.367 Y142.215 E19.02144
G1 X155.751 Y143.14 E19.07319
G1 X155.613 Y143.325 E19.08394
G1 X155.031 Y144.038 E19.1268
G1 X154.389 Y144.698 E19.16967
G1 X153.799 Y145.215 E19.2062
G1 X153.421 Y145.522 E19.22887
G1 X152.681 Y146.071 E19.27178
G1 X151.897 Y146.554 E19.31466
G1 X150.808 Y147.081 E19.37099
G1 X150.493 Y147.212 E19.38688
G1 X149.629 Y147.529 E19.42973
G1 X148.33 Y147.852 E19.49206
G1 X147.991 Y147.914 E19.50811
G1 X147.079 Y148.04 E19.55098
G1 X146.305 Y148.085 E19.58708
G1 X145.46 Y148.1 E19.62643
G1 X88.195 Y148.099 E22.29293
G1 X87.499 Y148.089 E22.32534
G1 X86.58 Y148.036 E22.3682
G1 X85.669 Y147.903 E22.41107
G1 X84.772 Y147.692 E22.45398
G1 X83.898 Y147.403 E22.49685
G1 X83.052 Y147.04 E22.53971
G1 X82.241 Y146.605 E22.58257
G1 X81.47 Y146.101 E22.62546
G1 X80.746 Y145.533 E22.66831
G1 X80.074 Y144.903 E22.7112
G1 X79.46 Y144.218 E22.75403
G1 X78.907 Y143.482 E22.7969
G1 X78.42 Y142.7 E22.8398
G1 X78.003 Y141.88 E22.88263
G1 X77.658 Y141.026 E22.92552
G1 X77.389 Y140.145 E22.96841
G1 X77.239 Y139.484 E22.99997
G1 X77.093 Y138.575 E23.04284
G1 X77.026 Y137.657 E23.0857
G1 X77.041 Y136.721 E23.12929
G1 X77.099 Y135.74 E23.17505
G1 X77.215 Y133.162 E23.29522
G1 X77.258 Y130.583 E23.41532
G1 X77.228 Y128.112 E23.53039
G1 X77.064 Y124.494 E23.69903
G1 X77.008 Y123.61 E23.74028
G1 X76.944 Y122.265 E23.80298
G1 X76.913 Y120.832 E23.86972
G1 X76.9 Y119.64 E23.92523
G1 X76.901 Y108.061 E24.46439
G0 F6000 X77.301 Y108.066
G1 F1200 X77.32 Y106.982 E24.51488
G1 X77.351 Y106.325 E24.5455
G1 X77.388 Y105.773 E24.57127
G1 X77.459 Y105.07 E24.60417
G1 X77.569 Y104.312 E24.63983
G1 X77.675 Y103.695 E24.66898
G1 X77.822 Y102.99 E24.70252
G1 X78.008 Y102.258 E24.73769
G1 X78.186 Y101.629 E24.76812
G1 X78.403 Y100.955 E24.8011
G1 X78.677 Y100.214 E24.83788
G1 X78.911 Y99.633 E24.86705
G1 X79.171 Y99.042 E24.89711
G1 X79.535 Y98.298 E24.93568
G1 X79.815 Y97.766 E24.96367
G1 X80.165 Y97.153 E24.99654
G1 X80.594 Y96.472 E25.03402
G1 X80.934 Y95.964 E25.06248
G1 X81.342 Y95.397 E25.09501
G1 X81.833 Y94.774 E25.13195
G1 X82.255 Y94.269 E25.16259
G1 X82.698 Y93.773 E25.19356
G1 X83.27 Y93.185 E25.23176
G1 X83.713 Y92.756 E25.26047
G1 X84.176 Y92.335 E25.28961
G1 X84.78 Y91.829 E25.3263
G1 X85.324 Y91.401 E25.35853
G1 X85.856 Y91.009 E25.3893
G1 X86.49 Y90.583 E25.42487
G1 X87.074 Y90.215 E25.45701
G1 X87.678 Y89.863 E25.48956
G1 X88.367 Y89.5 E25.52583
G1 X88.943 Y89.217 E25.55571
G1 X89.585 Y88.929 E25.58847
G1 X90.29 Y88.647 E25.62383
G1 X90.875 Y88.431 E25.65287
G1 X91.588 Y88.197 E25.68781
G1 X92.379 Y87.977 E25.72604
G1 X92.959 Y87.832 E25.75388
G1 X93.591 Y87.695 E25.78399
G1 X94.347 Y87.564 E25.81972
G1 X95.015 Y87.468 E25.85114
G1 X95.713 Y87.392 E25.88384
G1 X96.465 Y87.343 E25.91893
G1 X97.482 Y87.307 E25.96631
G1 X98.085 Y87.3 E25.99439
G1 X146.793 Y87.3 E28.26244
G1 X147.637 Y87.311 E28.30175
G1 X148.539 Y87.364 E28.34382
G1 X149.432 Y87.496 E28.38585
G1 X150.31 Y87.707 E28.4279
G1 X151.166 Y87.995 E28.46995
G1 X151.993 Y88.357 E28.51199
G1 X152.785 Y88.792 E28.55407
G1 X153.536 Y89.294 E28.59613
G1 X154.239 Y89.861 E28.63818
G1 X154.889 Y90.488 E28.68024
G1 X155.481 Y91.17 E28.72229
G1 X156.011 Y91.901 E28.76433
G1 X156.473 Y92.677 E28.80639
G1 X156.866 Y93.49 E28.84843
G1 X157.184 Y94.335 E28.89047
G1 X157.427 Y95.205 E28.93254
G1 X157.592 Y96.093 E28.97459
G1 X157.687 Y97.217 E29.02712
G1 X157.7 Y97.823 E29.05534
G1 X157.698 Y135.495 E30.80951
G1 X157.68 Y136.372 E30.85035
G1 X157.621 Y137.274 E30.89244
G1 X157.395 Y138.567 E30.95356
G1 X157.314 Y138.901 E30.96957
G1 X157.062 Y139.768 E31.01161
G1 X156.589 Y140.926 E31.06985
G1 X156.442 Y141.231 E31.08562
G1 X156.015 Y142.026 E31.12764
G1 X155.43 Y142.901 E31.17665
G1 X155.292 Y143.086 E31.1874
G1 X154.72 Y143.785 E31.22946
G1 X154.089 Y144.431 E31.2715
G1 X153.546 Y144.905 E31.30507
G1 X153.168 Y145.212 E31.32774
G1 X152.443 Y145.749 E31.36975
G1 X151.673 Y146.221 E31.41181
G1 X150.655 Y146.712 E31.46444
G1 X150.34 Y146.843 E31.48032
G1 X149.491 Y147.153 E31.52241
G1 X148.258 Y147.459 E31.58156
G1 X147.919 Y147.521 E31.59761
G1 X147.024 Y147.644 E31.63968
G1 X146.296 Y147.685 E31.67363
G1 X145.46 Y147.7 E31.71256
G1 X88.2 Y147.699 E34.37883
G1 X87.504 Y147.689 E34.41124
G1 X86.603 Y147.636 E34.45327
G1 X85.71 Y147.504 E34.4953
M73 P2
G1 X84.831 Y147.293 E34.53739
G1 X83.975 Y147.005 E34.57945
G1 X83.148 Y146.642 E34.6215
G1 X82.356 Y146.208 E34.66356
G1 X81.606 Y145.706 E34.70558
G1 X80.903 Y145.139 E34.74763
G1 X80.253 Y144.512 E34.78969
G1 X79.661 Y143.83 E34.83174
G1 X79.131 Y143.098 E34.87382
G1 X78.669 Y142.323 E34.91583
G1 X78.276 Y141.509 E34.95792
G1 X77.958 Y140.664 E34.99996
G1 X77.66 Y139.545 E35.05389
G1 X77.631 Y139.404 E35.06059
G1 X77.489 Y138.512 E35.10265
G1 X77.425 Y137.611 E35.14471
G1 X77.44 Y136.745 E35.18504
G1 X77.497 Y135.783 E35.22991
G1 X77.615 Y133.151 E35.35259
G1 X77.658 Y130.586 E35.47204
G1 X77.628 Y128.119 E35.58693
G1 X77.462 Y124.449 E35.75799
G1 X77.407 Y123.589 E35.79812
G1 X77.343 Y122.256 E35.86026
G1 X77.313 Y120.828 E35.92677
G1 X77.3 Y119.64 E35.98209
G1 X77.301 Y108.066 E36.52103
G1 F2700 E31.52103
;MESH:tape_holder.STL
G0 F6000 X86.835 Y108.066
G0 X87.93 Y108.066
G0 X88.33 Y122.653
G0 X88.481 Y124.762
G0 X88.721 Y126.856
G0 X89.05 Y128.934
G0 X90.304 Y135.772
G0 X89.394 Y136.715
G0 X129.715 Y136.71
G1 F2700 E36.52103
G0 F6000 X129.715 Y136.3
;TYPE:WALL-OUTER
G1 F1200 X129.56 Y136.228 E36.52898
G1 X128.824 Y135.332 E36.58298
G1 X128.182 Y134.369 E36.63687
G1 X127.644 Y133.365 E36.68991
G1 X127.194 Y132.277 E36.74473
G1 X126.859 Y131.17 E36.79859
G1 X126.633 Y130.032 E36.85261
G1 X126.522 Y128.9 E36.90558
G1 X126.522 Y127.72 E36.96052
G1 X126.636 Y126.568 E37.01443
G1 X126.863 Y125.429 E37.0685
G1 X127.197 Y124.331 E37.12195
G1 X127.643 Y123.254 E37.17622
G1 X128.191 Y122.233 E37.23018
G1 X128.834 Y121.27 E37.2841
G1 X129.571 Y120.378 E37.33798
G1 X130.392 Y119.558 E37.39201
G1 X131.278 Y118.828 E37.44547
G1 X132.249 Y118.181 E37.4998
G1 X133.252 Y117.644 E37.55277
G1 X134.34 Y117.194 E37.6076
G1 X135.449 Y116.858 E37.66156
G1 X136.587 Y116.633 E37.71557
G1 X137.72 Y116.522 E37.76858
G1 X138.898 Y116.522 E37.82343
G1 X140.052 Y116.636 E37.87743
G1 X141.189 Y116.864 E37.93143
G1 X142.279 Y117.195 E37.98447
G1 X143.365 Y117.644 E38.03919
G1 X144.386 Y118.192 E38.09315
G1 X145.348 Y118.836 E38.14705
G1 X146.228 Y119.56 E38.20012
G1 X146.3 Y119.715 E38.20808
G1 X146.3 Y135.6 E38.94775
G1 X146.274 Y135.782 E38.95631
G1 X146.16 Y136.022 E38.96868
G1 X145.966 Y136.198 E38.98088
G1 F1203 X145.71 Y136.287 E38.99347
G1 X145.65 Y136.297 E38.99629
G1 F1200 X129.715 Y136.3 E39.73829
G1 F2700 E34.73829
G0 F6000 X129.715 Y136.71
G0 X145.772 Y136.89
G1 F2700 E39.73829
G0 F6000 X145.772 Y137.3
G1 F1200 X146.131 Y137.285 E39.75502
G1 X146.471 Y137.204 E39.7713
G1 X146.758 Y137.053 E39.7864
G1 X147.053 Y136.758 E39.80582
G1 X147.185 Y136.528 E39.81817
G1 F1203 X147.271 Y136.269 E39.83085
G1 X147.3 Y135.99 E39.84388
G1 F1200 X147.3 Y107.111 E41.1886
G1 X147.3 Y97.7 E41.62682
G1 X97.507 Y97.7 E43.94539
G1 X96.478 Y97.755 E43.99337
G1 X95.464 Y97.915 E44.04117
G1 X94.486 Y98.177 E44.08832
G1 X93.516 Y98.549 E44.13669
G1 X92.6 Y99.015 E44.18455
G1 X91.741 Y99.572 E44.23222
G1 X90.943 Y100.22 E44.28009
G1 X90.218 Y100.945 E44.32783
G1 X89.572 Y101.741 E44.37556
G1 X89.013 Y102.602 E44.42337
G1 X88.548 Y103.516 E44.47112
G1 X88.174 Y104.486 E44.51952
G1 X87.915 Y105.464 E44.56663
G1 X87.755 Y106.478 E44.61443
G1 X87.7 Y107.506 E44.66237
G1 X87.7 Y120.178 E45.25243
G1 X87.748 Y122.354 E45.35378
G1 X87.89 Y124.518 E45.45476
G1 X88.127 Y126.679 E45.55599
G1 X88.458 Y128.826 E45.65715
G1 X88.882 Y130.958 E45.75836
G1 X89.414 Y133.128 E45.8624
G1 X89.962 Y135.178 E45.96121
G1 X89.957 Y135.296 E45.96671
G1 X89.91 Y135.372 E45.97087
G1 X87.982 Y137.3 E46.09783
G1 X145.772 Y137.3 E48.78878
G0 F6000 X145.772 Y136.794
;TYPE:WALL-INNER
G1 F789.5 X145.65 Y136.798 E48.79742
G1 F798.7 X141.666 Y136.798 E49.07615
G1 X137.682 Y136.799 E49.35488
G1 F800 X133.698 Y136.799 E49.63315
G1 X129.714 Y136.8 E49.91141
G0 F6000 X129.054 Y136.9
G1 F1066.7 X129.384 Y136.85 E49.9289
G1 F872.7 X129.715 Y136.8 E49.95033
G1 X129.483 Y136.641 E49.96834
G1 F1066.7 X129.251 Y136.482 E49.98307
G1 F1200 X128.527 Y135.602 E50.03613
G1 X128.491 Y135.554 E50.03893
G1 X127.86 Y134.608 E50.09188
G1 X127.829 Y134.558 E50.09462
G1 X127.292 Y133.554 E50.14763
G1 X127.266 Y133.5 E50.15043
G1 X126.831 Y132.448 E50.20343
G1 X126.811 Y132.393 E50.20616
G1 X126.481 Y131.305 E50.2591
G1 X126.467 Y131.248 E50.26183
G1 X126.244 Y130.13 E50.31492
G1 X126.235 Y130.071 E50.3177
G1 X126.124 Y128.939 E50.37066
G1 X126.122 Y128.88 E50.37341
G1 X126.122 Y127.74 E50.42649
G1 X126.124 Y127.681 E50.42924
G1 X126.239 Y126.518 E50.48366
G1 X126.466 Y125.371 E50.5381
G1 X126.48 Y125.313 E50.54088
