;FLAVOR:Marlin
M73 P0
M73 R23
;TIME:1364
;Filament used: 0.93667m
;Layer height: 0.2
;MINX:80.537
;MINY:69.602
;MINZ:0.2
;MAXX:168.515
;MAXY:157.58
;MAXZ:10.113
;POSTPROCESSED
;Generated with Cura_SteamEngine 5.0.0
M140 S50
M105
M190 S50
M104 S215
M105
M109 S215
M82 ;absolute extrusion mode
; Ender 3 Custom Start G-code
G92 E0 ; Reset Extruder
G28 ; Home all axes
G1 Z2.0 F3000 ; Move Z Axis up little to prevent scratching of Heat Bed
G1 X0.1 Y20 Z0.3 F5000.0 ; Move to start position
G1 X0.1 Y200.0 Z0.3 F1500.0 E15 ; Draw the first line
G1 X0.4 Y200.0 Z0.3 F5000.0 ; Move to side a little
G1 X0.4 Y20 Z0.3 F1500.0 E30 ; Draw the second line
G92 E0 ; Reset Extruder
G1 Z2.0 F3000 ; Move Z Axis up little to prevent scratching of Heat Bed
G1 X5 Y20 Z0.3 F5000.0 ; Move over to prevent blob squish
G92 E0
G92 E0
G1 F2700 E-5
;LAYER_COUNT:50
;LAYER:0
M107
G0 F6000 X92.706 Y83.275 Z0.2
G0 X92.204 Y83.887
;TYPE:SKIRT
G1 F2700 E0
G1 F1200 X92.706 Y83.275 E0.02633
G1 X93.562 Y82.346 E0.06834
G1 X94.332 Y81.601 E0.10398
G1 X95.27 Y80.79 E0.14522
G1 X96.336 Y79.973 E0.18989
G1 X101.026 Y76.509 E0.38382
G1 X101.665 Y76.053 E0.40993
G1 X102.702 Y75.397 E0.45074
G1 X103.623 Y74.884 E0.4858
G1 X104.754 Y74.337 E0.52759
G1 X105.983 Y73.828 E0.57183
G1 X111.483 Y71.667 E0.76838
G1 X112.125 Y71.426 E0.79118
G1 X113.318 Y71.054 E0.83275
G1 X114.376 Y70.789 E0.86902
G1 X115.604 Y70.554 E0.91061
G1 X116.904 Y70.384 E0.95421
G1 X122.789 Y69.719 E1.1512
G1 X123.485 Y69.652 E1.17445
G1 X124.713 Y69.602 E1.21533
G1 X125.787 Y69.619 E1.25106
G1 X127.028 Y69.709 E1.29244
G1 X128.342 Y69.882 E1.33652
G1 X134.133 Y70.753 E1.5313
G1 X134.865 Y70.874 E1.55597
G1 X136.093 Y71.15 E1.59784
G1 X137.136 Y71.448 E1.63391
G1 X138.306 Y71.855 E1.67512
G1 X139.538 Y72.365 E1.71946
G1 X144.927 Y74.714 E1.91499
G1 X145.589 Y75.015 E1.93918
G1 X146.706 Y75.603 E1.98116
G1 X147.637 Y76.163 E2.0173
G1 X148.644 Y76.848 E2.05781
G1 X149.667 Y77.631 E2.10065
G1 X154.258 Y81.289 E2.29589
G1 X154.839 Y81.766 E2.3209
G1 X155.768 Y82.623 E2.36293
G1 X156.523 Y83.404 E2.39906
G1 X157.326 Y84.333 E2.43991
G1 X158.125 Y85.373 E2.48353
G1 X161.638 Y90.13 E2.68021
G1 X162.033 Y90.68 E2.70273
G1 X162.713 Y91.753 E2.74499
G1 X163.241 Y92.703 E2.78113
G1 X163.782 Y93.821 E2.82244
G1 X164.28 Y95.025 E2.86578
G1 X166.442 Y100.527 E3.0624
G1 X166.683 Y101.165 E3.08508
G1 X167.066 Y102.391 E3.1278
G1 X167.33 Y103.45 E3.1641
G1 X167.56 Y104.654 E3.20487
G1 X167.736 Y105.989 E3.24966
G1 X168.393 Y111.801 E3.4442
G1 X168.464 Y112.526 E3.46843
G1 X168.515 Y113.771 E3.50987
G1 X168.498 Y114.851 E3.5458
G1 X168.408 Y116.093 E3.58721
G1 X168.235 Y117.407 E3.63129
G1 X167.365 Y123.191 E3.82583
G1 X167.245 Y123.92 E3.85041
G1 X166.969 Y125.152 E3.8924
G1 X166.671 Y126.196 E3.92851
G1 X166.262 Y127.371 E3.96989
G1 X165.752 Y128.603 E4.01424
G1 X163.403 Y133.992 E4.20977
G1 X163.102 Y134.654 E4.23395
G1 X162.518 Y135.765 E4.2757
G1 X161.96 Y136.694 E4.31174
G1 X161.267 Y137.713 E4.35273
G1 X160.483 Y138.734 E4.39555
G1 X156.787 Y143.372 E4.5928
G1 X156.351 Y143.903 E4.61565
G1 X155.495 Y144.832 E4.65766
G1 X154.716 Y145.585 E4.6937
G1 X153.782 Y146.392 E4.73475
G1 X152.716 Y147.209 E4.77942
G1 X148.026 Y150.673 E4.97335
G1 X147.387 Y151.129 E4.99946
G1 X146.343 Y151.789 E5.04054
G1 X145.415 Y152.305 E5.07586
G1 X144.303 Y152.843 E5.11694
G1 X143.097 Y153.344 E5.16038
G1 X137.58 Y155.51 E5.35751
G1 X136.922 Y155.757 E5.38089
G1 X135.733 Y156.128 E5.42231
G1 X134.685 Y156.391 E5.45825
G1 X133.462 Y156.625 E5.49966
G1 X132.128 Y156.801 E5.54442
G1 X126.307 Y157.458 E5.73925
G1 X125.576 Y157.529 E5.76368
G1 X124.339 Y157.58 E5.80486
G1 X123.266 Y157.563 E5.84055
G1 X122.017 Y157.472 E5.8822
G1 X120.71 Y157.299 E5.92605
G1 X114.91 Y156.427 E6.12113
G1 X114.2 Y156.31 E6.14506
G1 X112.99 Y156.039 E6.18631
G1 X111.935 Y155.74 E6.22278
G1 X110.73 Y155.322 E6.2652
G1 X109.54 Y154.828 E6.30805
G1 X104.125 Y152.468 E6.50452
G1 X103.463 Y152.167 E6.52871
G1 X102.355 Y151.585 E6.57033
G1 X101.427 Y151.028 E6.60633
G1 X100.399 Y150.328 E6.6477
G1 X99.375 Y149.542 E6.69063
M73 P1
G1 X94.761 Y145.864 E6.88689
G1 X94.172 Y145.377 E6.91231
G1 X93.285 Y144.558 E6.95246
G1 X92.543 Y143.793 E6.98791
G1 X91.721 Y142.842 E7.02971
G1 X90.908 Y141.781 E7.07417
G1 X87.444 Y137.091 E7.2681
G1 X86.988 Y136.452 E7.29421
G1 X86.332 Y135.414 E7.33505
G1 X85.818 Y134.491 E7.37019
G1 X85.272 Y133.364 E7.41184
G1 X84.764 Y132.138 E7.45598
G1 X82.603 Y126.636 E7.65258
G1 X82.357 Y125.979 E7.67592
G1 X81.991 Y124.804 E7.71685
G1 X81.726 Y123.75 E7.753
G1 X81.489 Y122.513 E7.79489
G1 X81.319 Y121.213 E7.83849
G1 X80.654 Y115.328 E8.03548
G1 X80.587 Y114.632 E8.05873
G1 X80.537 Y113.404 E8.09961
G1 X80.554 Y112.331 E8.1353
G1 X80.645 Y111.082 E8.17695
G1 X80.818 Y109.775 E8.2208
G1 X81.692 Y103.968 E8.41612
G1 X81.81 Y103.255 E8.44016
G1 X82.08 Y102.046 E8.48136
G1 X82.377 Y101 E8.51752
G1 X82.79 Y99.811 E8.55939
G1 X83.3 Y98.579 E8.60374
G1 X85.644 Y93.203 E8.7988
G1 X85.944 Y92.541 E8.82297
G1 X86.539 Y91.408 E8.86554
G1 X87.094 Y90.486 E8.90133
G1 X87.783 Y89.473 E8.94208
G1 X88.599 Y88.41 E8.98665
G1 X92.204 Y83.887 E9.17902
G0 F6000 X92.513 Y84.14
G1 F1200 X93.015 Y83.528 E9.20535
G1 X93.84 Y82.633 E9.24584
G1 X94.61 Y81.888 E9.28147
G1 X95.514 Y81.107 E9.32121
G1 X96.573 Y80.294 E9.36561
G1 X101.259 Y76.835 E9.55933
G1 X101.898 Y76.379 E9.58544
G1 X102.897 Y75.747 E9.62476
G1 X103.818 Y75.234 E9.65982
G1 X104.907 Y74.706 E9.70007
G1 X106.129 Y74.2 E9.74407
G1 X111.624 Y72.041 E9.94043
G1 X112.266 Y71.8 E9.96324
G1 X113.416 Y71.442 E10.0033
G1 X114.474 Y71.177 E10.03957
G1 X115.656 Y70.951 E10.0796
G1 X116.949 Y70.781 E10.12298
G1 X122.827 Y70.117 E10.31972
G1 X123.523 Y70.05 E10.34298
G1 X124.707 Y70.002 E10.38239
G1 X125.781 Y70.019 E10.41812
G1 X126.976 Y70.106 E10.45797
G1 X128.283 Y70.278 E10.50181
G1 X134.068 Y71.148 E10.69639
G1 X134.8 Y71.269 E10.72106
G1 X135.983 Y71.535 E10.76139
G1 X137.026 Y71.833 E10.79747
G1 X138.154 Y72.225 E10.83719
G1 X139.379 Y72.732 E10.88128
G1 X144.761 Y75.079 E11.07657
G1 X145.423 Y75.38 E11.10076
G1 X146.5 Y75.946 E11.14122
G1 X147.431 Y76.506 E11.17736
G1 X148.402 Y77.165 E11.21639
G1 X149.417 Y77.944 E11.25895
G1 X154.004 Y81.598 E11.454
G1 X154.585 Y82.075 E11.479
G1 X155.48 Y82.901 E11.51951
G1 X156.235 Y83.682 E11.55564
G1 X157.009 Y84.577 E11.595
G1 X157.803 Y85.611 E11.63836
G1 X161.313 Y90.364 E11.83488
G1 X161.708 Y90.914 E11.8574
G1 X162.363 Y91.948 E11.89811
G1 X162.891 Y92.898 E11.93426
G1 X163.412 Y93.974 E11.97402
G1 X163.908 Y95.171 E12.01712
G1 X166.068 Y100.668 E12.21355
G1 X166.309 Y101.306 E12.23624
G1 X166.678 Y102.488 E12.27742
G1 X166.942 Y103.547 E12.31372
G1 X167.164 Y104.707 E12.35301
G1 X167.339 Y106.034 E12.39752
G1 X167.995 Y111.84 E12.59186
G1 X168.066 Y112.565 E12.61609
G1 X168.115 Y113.765 E12.65604
G1 X168.098 Y114.845 E12.69196
G1 X168.011 Y116.041 E12.73184
G1 X167.839 Y117.348 E12.77569
G1 X166.97 Y123.126 E12.97003
G1 X166.85 Y123.855 E12.9946
G1 X166.584 Y125.042 E13.03506
G1 X166.286 Y126.086 E13.07117
G1 X165.892 Y127.218 E13.11104
G1 X165.385 Y128.444 E13.15516
G1 X163.038 Y133.826 E13.35045
G1 X162.737 Y134.488 E13.37464
G1 X162.175 Y135.559 E13.41486
G1 X161.617 Y136.488 E13.45091
G1 X160.949 Y137.47 E13.49041
G1 X160.17 Y138.485 E13.53297
G1 X156.478 Y143.119 E13.73003
G1 X156.042 Y143.65 E13.75288
G1 X155.217 Y144.544 E13.79334
G1 X154.438 Y145.297 E13.82938
M73 P2
G1 X153.538 Y146.075 E13.86895
G1 X152.479 Y146.888 E13.91335
G1 X147.793 Y150.347 E14.10707
G1 X147.154 Y150.803 E14.13318
G1 X146.148 Y151.439 E14.17277
G1 X145.22 Y151.955 E14.20808
G1 X144.149 Y152.474 E14.24767
G1 X142.95 Y152.972 E14.29085
G1 X137.439 Y155.136 E14.48777
G1 X136.781 Y155.383 E14.51115
G1 X135.636 Y155.74 E14.55104
G1 X134.588 Y156.003 E14.58697
G1 X133.41 Y156.229 E14.62687
G1 X132.083 Y156.404 E14.67139
G1 X126.269 Y157.06 E14.86599
G1 X125.538 Y157.131 E14.89042
G1 X124.345 Y157.18 E14.93013
G1 X123.272 Y157.163 E14.96582
G1 X122.069 Y157.075 E15.00594
G1 X120.769 Y156.903 E15.04956
G1 X114.975 Y156.032 E15.24443
G1 X114.265 Y155.915 E15.26836
G1 X113.099 Y155.654 E15.3081
G1 X112.044 Y155.355 E15.34458
G1 X110.883 Y154.952 E15.38545
G1 X109.7 Y154.461 E15.42805
G1 X104.291 Y152.103 E15.62431
G1 X103.629 Y151.802 E15.6485
G1 X102.561 Y151.242 E15.6886
G1 X101.633 Y150.685 E15.7246
G1 X100.642 Y150.011 E15.76446
G1 X99.624 Y149.229 E15.80716
G1 X95.015 Y145.555 E16.0032
G1 X94.426 Y145.068 E16.02862
G1 X93.572 Y144.279 E16.06729
G1 X92.83 Y143.514 E16.10274
G1 X92.038 Y142.598 E16.14301
G1 X91.229 Y141.544 E16.1872
G1 X87.77 Y136.858 E16.38092
G1 X87.314 Y136.219 E16.40703
G1 X86.681 Y135.219 E16.4464
G1 X86.167 Y134.296 E16.48154
G1 X85.641 Y133.21 E16.52167
G1 X85.136 Y131.992 E16.56553
G1 X82.978 Y126.496 E16.76191
G1 X82.732 Y125.839 E16.78524
G1 X82.379 Y124.707 E16.82468
G1 X82.114 Y123.653 E16.86083
G1 X81.886 Y122.461 E16.90119
G1 X81.716 Y121.168 E16.94457
G1 X81.052 Y115.29 E17.14132
G1 X80.985 Y114.594 E17.16457
G1 X80.937 Y113.41 E17.20398
G1 X80.954 Y112.337 E17.23968
G1 X81.042 Y111.134 E17.2798
G1 X81.214 Y109.834 E17.32341
G1 X82.086 Y104.033 E17.51852
G1 X82.204 Y103.32 E17.54256
G1 X82.465 Y102.156 E17.58223
G1 X82.762 Y101.11 E17.6184
G1 X83.16 Y99.964 E17.65875
G1 X83.667 Y98.738 E17.70287
G1 X86.008 Y93.368 E17.89771
G1 X86.308 Y92.706 E17.92189
G1 X86.881 Y91.614 E17.9629
G1 X87.436 Y90.692 E17.9987
G1 X88.1 Y89.717 E18.03793
G1 X88.912 Y88.659 E18.08229
G1 X92.513 Y84.14 E18.27448
G0 F6000 X92.823 Y84.394
G1 F1200 X93.325 Y83.782 E18.3008
G1 X94.118 Y82.92 E18.33976
G1 X94.888 Y82.175 E18.3754
G1 X95.758 Y81.424 E18.41362
G1 X96.811 Y80.616 E18.45777
G1 X101.491 Y77.16 E18.65127
G1 X102.13 Y76.704 E18.67738
G1 X103.092 Y76.096 E18.71523
G1 X104.013 Y75.583 E18.75029
G1 X105.061 Y75.075 E18.78903
G1 X106.276 Y74.572 E18.83277
G1 X111.764 Y72.416 E19.02888
G1 X112.406 Y72.175 E19.05169
G1 X113.513 Y71.83 E19.09025
G1 X114.571 Y71.565 E19.12653
G1 X115.709 Y71.347 E19.16507
G1 X116.994 Y71.179 E19.20817
G1 X122.866 Y70.515 E19.40472
G1 X123.562 Y70.448 E19.42797
G1 X124.7 Y70.402 E19.46585
G1 X125.774 Y70.419 E19.50158
G1 X126.925 Y70.503 E19.53996
G1 X128.223 Y70.673 E19.5835
G1 X134.002 Y71.543 E19.77788
G1 X134.734 Y71.664 E19.80256
G1 X135.873 Y71.919 E19.84138
G1 X136.916 Y72.217 E19.87746
G1 X138.001 Y72.595 E19.91567
G1 X139.219 Y73.099 E19.95951
G1 X144.596 Y75.443 E20.15461
G1 X145.258 Y75.744 E20.17879
G1 X146.294 Y76.288 E20.21771
G1 X147.225 Y76.848 E20.25385
G1 X148.159 Y77.483 E20.29141
G1 X149.168 Y78.257 E20.33371
G1 X153.75 Y81.908 E20.52857
G1 X154.331 Y82.385 E20.55357
G1 X155.193 Y83.179 E20.59255
G1 X155.948 Y83.96 E20.62868
G1 X156.692 Y84.821 E20.66653
G1 X157.481 Y85.849 E20.70963
G1 X160.988 Y90.597 E20.90596
G1 X161.383 Y91.147 E20.92848
M73 P3
G1 X162.014 Y92.142 E20.96767
G1 X162.542 Y93.092 E21.00382
G1 X163.043 Y94.128 E21.04209
G1 X163.536 Y95.317 E21.0849
G1 X165.694 Y100.81 E21.28119
G1 X165.935 Y101.448 E21.30388
G1 X166.29 Y102.585 E21.34349
G1 X166.554 Y103.644 E21.3798
G1 X166.767 Y104.76 E21.41758
G1 X166.941 Y106.079 E21.46183
G1 X167.596 Y111.879 E21.65597
G1 X167.667 Y112.604 E21.6802
G1 X167.715 Y113.759 E21.71865
G1 X167.698 Y114.839 E21.75457
G1 X167.614 Y115.99 E21.79296
G1 X167.444 Y117.288 E21.8365
G1 X166.576 Y123.061 E22.03067
G1 X166.456 Y123.79 E22.05524
G1 X166.199 Y124.933 E22.0942
G1 X165.901 Y125.977 E22.13031
G1 X165.523 Y127.066 E22.16865
G1 X165.018 Y128.284 E22.21251
G1 X162.674 Y133.661 E22.4076
G1 X162.373 Y134.323 E22.43179
G1 X161.832 Y135.353 E22.47049
G1 X161.274 Y136.282 E22.50653
G1 X160.631 Y137.227 E22.54455
G1 X159.857 Y138.236 E22.58684
G1 X156.169 Y142.865 E22.78369
G1 X155.733 Y143.396 E22.80655
G1 X154.939 Y144.257 E22.8455
G1 X154.16 Y145.01 E22.88154
G1 X153.294 Y145.758 E22.9196
G1 X152.241 Y146.566 E22.96374
G1 X147.561 Y150.022 E23.15724
G1 X146.922 Y150.478 E23.18335
G1 X145.954 Y151.09 E23.22144
G1 X145.026 Y151.606 E23.25676
G1 X143.995 Y152.105 E23.29485
G1 X142.804 Y152.599 E23.33774
G1 X137.299 Y154.761 E23.53445
G1 X136.641 Y155.008 E23.55783
G1 X135.539 Y155.352 E23.59622
G1 X134.491 Y155.615 E23.63216
G1 X133.357 Y155.832 E23.67056
G1 X132.038 Y156.006 E23.71481
G1 X126.23 Y156.662 E23.90922
G1 X125.499 Y156.733 E23.93364
G1 X124.351 Y156.78 E23.97186
G1 X123.278 Y156.763 E24.00755
G1 X122.12 Y156.678 E24.04617
G1 X120.829 Y156.508 E24.08948
G1 X115.041 Y155.637 E24.28416
G1 X114.331 Y155.52 E24.30809
G1 X113.208 Y155.269 E24.34636
G1 X112.153 Y154.97 E24.38283
G1 X111.036 Y154.583 E24.42215
G1 X109.86 Y154.094 E24.46451
G1 X104.456 Y151.739 E24.66058
G1 X103.794 Y151.438 E24.68476
G1 X102.767 Y150.899 E24.72334
G1 X101.839 Y150.342 E24.75934
G1 X100.885 Y149.693 E24.79772
G1 X99.874 Y148.916 E24.84013
G1 X95.27 Y145.247 E25.03593
G1 X94.681 Y144.76 E25.06135
G1 X93.859 Y144.001 E25.09856
G1 X93.117 Y143.236 E25.13401
G1 X92.355 Y142.354 E25.17278
G1 X91.551 Y141.306 E25.21671
G1 X88.095 Y136.626 E25.41021
G1 X87.639 Y135.987 E25.43632
G1 X87.031 Y135.025 E25.47417
G1 X86.517 Y134.102 E25.50931
G1 X86.01 Y133.057 E25.54794
G1 X85.509 Y131.846 E25.59153
G1 X83.353 Y126.356 E25.7877
G1 X83.107 Y125.699 E25.81104
G1 X82.767 Y124.609 E25.84901
G1 X82.502 Y123.555 E25.88516
G1 X82.282 Y122.408 E25.924
G1 X82.114 Y121.123 E25.96711
G1 X81.45 Y115.251 E26.16366
G1 X81.383 Y114.555 E26.18691
G1 X81.337 Y113.416 E26.22483
G1 X81.354 Y112.343 E26.26052
G1 X81.439 Y111.185 E26.29914
G1 X81.609 Y109.894 E26.34245
G1 X82.481 Y104.099 E26.53736
G1 X82.599 Y103.386 E26.5614
G1 X82.85 Y102.265 E26.5996
G1 X83.147 Y101.219 E26.63577
G1 X83.529 Y100.116 E26.67459
G1 X84.034 Y98.898 E26.71845
G1 X86.372 Y93.533 E26.9131
G1 X86.672 Y92.871 E26.93727
G1 X87.224 Y91.821 E26.97673
G1 X87.779 Y90.899 E27.01252
G1 X88.418 Y89.96 E27.0503
G1 X89.225 Y88.908 E27.09439
G1 X92.823 Y84.394 E27.28639
G1 F2700 E22.28639
;MESH:b28.stl
G0 F6000 X100.199 Y90.437
G0 X101.047 Y91.111
G0 X97.376 Y95.766
G1 F2700 E27.28639
G0 F6000 X96.909 Y95.954
G0 X97.364 Y95.809
G0 X101.903 Y97.15
G0 X98.934 Y102.239
G0 X96.035 Y98.035
G0 X95.986 Y97.503
M73 P4
;TYPE:WALL-OUTER
G1 F1200 X98.906 Y101.789 E27.45888
G1 X99.811 Y100.011 E27.52524
G1 X100.712 Y98.486 E27.58415
G1 X101.53 Y97.284 E27.63251
G1 X96.909 Y95.954 E27.79244
G1 X101.123 Y90.664 E28.01739
G1 X102.837 Y95.571 E28.19027
G1 X103.964 Y94.292 E28.24697
G1 X105.237 Y93.021 E28.3068
G1 X106.527 Y91.883 E28.36401
G1 X102.414 Y89.407 E28.52369
G1 X107.854 Y85.388 E28.74864
G1 X108.241 Y90.58 E28.92181
G1 X109.426 Y89.775 E28.96946
G1 X110.957 Y88.871 E29.02859
G1 X112.751 Y87.957 E29.09556
G1 X109.428 Y84.507 E29.25488
G1 X115.721 Y82.034 E29.47976
G1 X114.795 Y86.923 E29.64526
G1 X114.971 Y87.073 E29.65295
G1 X115.823 Y86.768 E29.68305
G1 X117.531 Y86.272 E29.74221
G1 X119.238 Y85.892 E29.80037
G1 X119.798 Y85.803 E29.81923
G1 X117.47 Y81.591 E29.9793
G1 X124.189 Y80.831 E30.2042
G1 X122.034 Y85.311 E30.36955
G1 X122.167 Y85.503 E30.37732
G1 X122.769 Y85.447 E30.39742
G1 X124.544 Y85.391 E30.45649
G1 X126.305 Y85.447 E30.51509
G1 X127.151 Y85.528 E30.54336
G1 X125.992 Y80.855 E30.70349
G1 X132.679 Y81.859 E30.92839
G1 X129.438 Y85.623 E31.0936
G1 X129.518 Y85.843 E31.10139
G1 X129.824 Y85.894 E31.1117
G1 X131.555 Y86.281 E31.1707
G1 X133.249 Y86.775 E31.22939
G1 X134.326 Y87.162 E31.26745
G1 X134.415 Y82.35 E31.42753
G1 X140.614 Y85.051 E31.65243
G1 X136.328 Y87.971 E31.82492
G1 X138.126 Y88.888 E31.89205
G1 X139.646 Y89.787 E31.95079
G1 X140.833 Y90.595 E31.99854
