;FLAVOR:Marlin
M73 P0
M73 R33
;TIME:1969
;Filament used: 0.864989m
;Layer height: 0.2
;MINX:24.681
;MINY:41.909
;MINZ:0.2
;MAXX:192.509
;MAXY:172.988
;MAXZ:12
;POSTPROCESSED
;Generated with Cura_SteamEngine 4.9.1
M140 S50
M105
M190 S50
M104 S215
M105
M109 S215
M82 ;absolute extrusion mode
; Ender 3 Custom Start G-code
G92 E0 ; Reset Extruder
G28 ; Home all axes
G1 Z2.0 F3000 ; Move Z Axis up little to prevent scratching of Heat Bed
G1 X0.1 Y20 Z0.3 F5000.0 ; Move to start position
G1 X0.1 Y200.0 Z0.3 F1500.0 E15 ; Draw the first line
G1 X0.4 Y200.0 Z0.3 F5000.0 ; Move to side a little
G1 X0.4 Y20 Z0.3 F1500.0 E30 ; Draw the second line
G92 E0 ; Reset Extruder
G1 Z2.0 F3000 ; Move Z Axis up little to prevent scratching of Heat Bed
G1 X5 Y20 Z0.3 F5000.0 ; Move over to prevent blob squish
G92 E0
G92 E0
G1 F2700 E-5
;LAYER_COUNT:35
;LAYER:0
M107
G0 F6000 X56.626 Y139.095 Z0.2
;TYPE:SKIRT
G1 F2700 E0
G1 F1200 X57.503 Y138.763 E0.03119
G1 X58.055 Y138.596 E0.05037
G1 X58.15 Y138.57 E0.05365
G1 X59.065 Y138.361 E0.08486
G1 X59.993 Y138.231 E0.11603
G1 X60.59 Y138.19 E0.13593
G1 X60.993 Y138.173 E0.14935
G1 X61.665 Y138.165 E0.1717
G1 X62.987 Y138.191 E0.21568
G1 X63.249 Y138.2 E0.2244
G1 X65.794 Y138.21 E0.30905
G1 X67.527 Y138.177 E0.3667
G1 X67.986 Y138.165 E0.38197
G1 X69.232 Y138.203 E0.42343
G1 X69.335 Y138.212 E0.42687
G1 X70.264 Y138.333 E0.45803
G1 X71.08 Y138.507 E0.48578
G1 X71.297 Y138.562 E0.49322
G1 X72.195 Y138.831 E0.5244
G1 X73.243 Y139.256 E0.56202
G1 X73.421 Y139.339 E0.56855
G1 X74.253 Y139.771 E0.59973
G1 X75.045 Y140.272 E0.6309
G1 X75.766 Y140.818 E0.66098
G1 X75.993 Y141.005 E0.67076
G1 X76.691 Y141.631 E0.70195
G1 X77.422 Y142.42 E0.73772
G1 X78.015 Y143.188 E0.76999
G1 X78.339 Y143.675 E0.78945
G1 X78.556 Y144.021 E0.80303
G1 X78.782 Y144.399 E0.81768
G1 X79.03 Y144.832 E0.83428
G1 X79.462 Y145.667 E0.86555
G1 X79.514 Y145.779 E0.86965
G1 X79.696 Y146.192 E0.88466
G1 X79.794 Y146.428 E0.89316
G1 X79.954 Y146.836 E0.90774
G1 X80.036 Y147.058 E0.91561
G1 X80.351 Y148.054 E0.95036
G1 X80.481 Y148.545 E0.96725
G1 X80.588 Y148.988 E0.98241
G1 X80.679 Y149.4 E0.99644
G1 X80.842 Y150.323 E1.02761
G1 X80.898 Y150.83 E1.04458
G1 X81.003 Y152.052 E1.08537
G1 X81.122 Y153.81 E1.14398
G1 X81.363 Y156.332 E1.22824
G1 X81.464 Y157.16 E1.25599
G1 X81.557 Y158.027 E1.28499
G1 X81.617 Y158.963 E1.31618
G1 X81.61 Y159.68 E1.34003
G1 X81.6 Y159.909 E1.34766
G1 X81.519 Y160.843 E1.37884
G1 X81.359 Y161.767 E1.41003
G1 X81.064 Y162.852 E1.44742
G1 X80.971 Y163.136 E1.45736
G1 X80.641 Y164.014 E1.48856
G1 X80.261 Y164.817 E1.51811
G1 X80.184 Y164.964 E1.52363
G1 X79.714 Y165.776 E1.55483
G1 X79.176 Y166.544 E1.58602
G1 X78.511 Y167.334 E1.62037
G1 X78.348 Y167.51 E1.62834
G1 X77.681 Y168.171 E1.65958
G1 X77.207 Y168.578 E1.68036
G1 X76.757 Y168.929 E1.69934
G1 X76.188 Y169.349 E1.72286
G1 X75.405 Y169.877 E1.75427
G1 X74.888 Y170.194 E1.77444
G1 X74.522 Y170.408 E1.78854
G1 X74.098 Y170.646 E1.80472
G1 X73.239 Y171.08 E1.83673
G1 X72.437 Y171.442 E1.86599
G1 X71.636 Y171.766 E1.89473
G1 X71.447 Y171.834 E1.90141
G1 X70.931 Y172.006 E1.9195
G1 X70.065 Y172.27 E1.94961
G1 X69.266 Y172.481 E1.9771
G1 X69.07 Y172.525 E1.98378
G1 X68.515 Y172.635 E2.0026
G1 X67.895 Y172.741 E2.02352
G1 X67.433 Y172.81 E2.03906
G1 X66.9 Y172.878 E2.05693
G1 X65.976 Y172.956 E2.08777
G1 X65.225 Y172.988 E2.11277
G1 X64.289 Y172.988 E2.1439
G1 X63.538 Y172.956 E2.1689
G1 X62.614 Y172.878 E2.19974
G1 X62.081 Y172.81 E2.21762
G1 X61.598 Y172.737 E2.23386
G1 X60.91 Y172.618 E2.25709
G1 X60.066 Y172.438 E2.28579
G1 X59.87 Y172.388 E2.29252
G1 X59.357 Y172.244 E2.31024
G1 X58.638 Y172.023 E2.33526
G1 X57.783 Y171.72 E2.36543
G1 X56.951 Y171.387 E2.39523
G1 X56.143 Y171.026 E2.42467
G1 X55.98 Y170.945 E2.43072
G1 X55.518 Y170.702 E2.44808
G1 X54.736 Y170.266 E2.47786
G1 X54.059 Y169.855 E2.5042
G1 X53.87 Y169.731 E2.51172
G1 X53.382 Y169.392 E2.53149
G1 X52.779 Y168.948 E2.55639
G1 X52.02 Y168.335 E2.58884
G1 X51.789 Y168.131 E2.59909
G1 X51.111 Y167.479 E2.63038
G1 X50.904 Y167.262 E2.64035
G1 X50.328 Y166.608 E2.66934
G1 X50.215 Y166.469 E2.6753
G1 X49.653 Y165.714 E2.7066
G1 X49.532 Y165.536 E2.71376
G1 X49.041 Y164.743 E2.74478
G1 X48.892 Y164.478 E2.75489
G1 X48.455 Y163.614 E2.7871
G1 X48.32 Y163.315 E2.79801
G1 X47.856 Y162.1 E2.84126
G1 X47.826 Y162.005 E2.84458
G1 X47.685 Y161.524 E2.86125
G1 X47.587 Y161.156 E2.87392
G1 X47.41 Y160.378 E2.90045
G1 X47.391 Y160.278 E2.90384
G1 X47.245 Y159.237 E2.9388
G1 X47.223 Y158.999 E2.94675
G1 X47.19 Y158.544 E2.96192
G1 X47.176 Y158.268 E2.97112
G1 X47.166 Y157.429 E2.99902
G1 X47.168 Y157.351 E3.00162
G1 X47.24 Y156.342 E3.03526
G1 X47.288 Y155.936 E3.04886
G1 X47.431 Y155.043 E3.07894
G1 X47.511 Y154.648 E3.09234
G1 X47.586 Y154.305 E3.10402
G1 X47.692 Y153.861 E3.1192
G1 X48.892 Y149.025 E3.28493
G1 X48.965 Y148.743 E3.29462
G1 X49.051 Y148.429 E3.30545
G1 X49.208 Y147.889 E3.32415
G1 X49.487 Y147.057 E3.35334
G1 X49.643 Y146.646 E3.36796
G1 X49.828 Y146.188 E3.38439
G1 X49.866 Y146.1 E3.38758
G1 X50.028 Y145.743 E3.40061
G1 X50.169 Y145.446 E3.41155
G1 X50.364 Y145.057 E3.42602
G1 X50.483 Y144.83 E3.43455
G1 X50.921 Y144.068 E3.46378
G1 X51.097 Y143.789 E3.47475
G1 X51.534 Y143.148 E3.50055
G1 X51.639 Y143.005 E3.50645
G1 X52.226 Y142.273 E3.53766
G1 X52.856 Y141.61 E3.56808
G1 X53.011 Y141.46 E3.57526
G1 X53.713 Y140.837 E3.60647
G1 X54.464 Y140.277 E3.63763
G1 X55.483 Y139.66 E3.67725
G1 X55.781 Y139.501 E3.68849
G1 X56.626 Y139.095 E3.71967
G0 F6000 X56.799 Y139.456
G1 F1200 X57.661 Y139.132 E3.7503
G1 X58.161 Y138.982 E3.76766
G1 X58.256 Y138.956 E3.77093
G1 X59.154 Y138.752 E3.80156
G1 X60.066 Y138.626 E3.83218
G1 X60.607 Y138.589 E3.85022
G1 X61.01 Y138.572 E3.86364
G1 X61.657 Y138.565 E3.88516
G1 X62.974 Y138.591 E3.92897
G1 X63.234 Y138.6 E3.93762
G1 X65.799 Y138.61 E4.02293
G1 X67.534 Y138.577 E4.08065
G1 X67.997 Y138.565 E4.09605
G1 X69.197 Y138.601 E4.13599
G1 X69.3 Y138.61 E4.13942
G1 X70.213 Y138.73 E4.17005
G1 X70.981 Y138.895 E4.19618
G1 X71.198 Y138.95 E4.20362
G1 X72.08 Y139.215 E4.23425
G1 X73.074 Y139.618 E4.26993
G1 X73.252 Y139.701 E4.27646
G1 X74.068 Y140.126 E4.30706
G1 X74.845 Y140.62 E4.33769
G1 X75.512 Y141.127 E4.36555
G1 X75.739 Y141.314 E4.37533
G1 X76.423 Y141.929 E4.40593
G1 X77.115 Y142.677 E4.43982
G1 X77.697 Y143.432 E4.47153
G1 X78 Y143.888 E4.48974
G1 X78.217 Y144.234 E4.50332
G1 X78.435 Y144.598 E4.51743
G1 X78.683 Y145.031 E4.53403
G1 X79.099 Y145.835 E4.56414
G1 X79.151 Y145.947 E4.56824
G1 X79.327 Y146.346 E4.58275
G1 X79.425 Y146.582 E4.59125
G1 X79.578 Y146.974 E4.60524
G1 X79.66 Y147.196 E4.61311
G1 X79.964 Y148.156 E4.64661
G1 X80.094 Y148.647 E4.6635
G1 X80.198 Y149.074 E4.67812
G1 X80.289 Y149.486 E4.69215
G1 X80.448 Y150.393 E4.72278
G1 X80.499 Y150.865 E4.73857
G1 X80.604 Y152.087 E4.77936
G1 X80.619 Y152.284 E4.78593
G1 X80.723 Y153.838 E4.83774
G1 X80.967 Y156.383 E4.92277
G1 X81.067 Y157.202 E4.95021
G1 X81.16 Y158.069 E4.97921
G1 X81.218 Y158.988 E5.00984
G1 X81.21 Y159.662 E5.03226
G1 X81.2 Y159.891 E5.03988
G1 X81.12 Y160.809 E5.07053
G1 X80.96 Y161.715 E5.10113
G1 X80.684 Y162.728 E5.13605
G1 X80.591 Y163.012 E5.14599
G1 X80.266 Y163.873 E5.1766
G1 X79.907 Y164.631 E5.2045
G1 X79.83 Y164.778 E5.21002
G1 X79.368 Y165.575 E5.24066
G1 X78.838 Y166.328 E5.27128
G1 X78.217 Y167.063 E5.30329
G1 X78.054 Y167.239 E5.31127
G1 X77.4 Y167.886 E5.34186
G1 X76.955 Y168.268 E5.36137
G1 X76.519 Y168.607 E5.37974
G1 X75.95 Y169.027 E5.40326
G1 X75.196 Y169.536 E5.43352
G1 X74.679 Y169.853 E5.45369
G1 X74.326 Y170.059 E5.46728
G1 X73.902 Y170.297 E5.48346
G1 X73.075 Y170.715 E5.51428
G1 X72.273 Y171.077 E5.54354
G1 X71.501 Y171.39 E5.57125
G1 X71.312 Y171.458 E5.57793
G1 X70.814 Y171.623 E5.59538
G1 X69.948 Y171.887 E5.62549
G1 X69.179 Y172.091 E5.65195
G1 X68.983 Y172.135 E5.65863
G1 X68.447 Y172.24 E5.6768
G1 X67.827 Y172.346 E5.69772
G1 X67.382 Y172.413 E5.71269
G1 X66.849 Y172.481 E5.73056
G1 X65.959 Y172.556 E5.76027
G1 X65.208 Y172.588 E5.78527
G1 X64.306 Y172.588 E5.81527
G1 X63.555 Y172.556 E5.84027
G1 X62.665 Y172.481 E5.86997
G1 X62.132 Y172.413 E5.88785
G1 X61.666 Y172.343 E5.90352
G1 X60.978 Y172.224 E5.92674
G1 X60.165 Y172.05 E5.95439
G1 X59.969 Y172 E5.96112
G1 X59.475 Y171.861 E5.97819
G1 X58.756 Y171.64 E6.00321
G1 X57.931 Y171.349 E6.03231
G1 X57.099 Y171.016 E6.06211
G1 X56.321 Y170.668 E6.09046
G1 X56.158 Y170.587 E6.09651
G1 X55.713 Y170.352 E6.11325
G1 X54.931 Y169.916 E6.14303
G1 X54.278 Y169.521 E6.16841
G1 X54.089 Y169.397 E6.17593
G1 X53.619 Y169.07 E6.19497
G1 X53.016 Y168.626 E6.21988
G1 X52.284 Y168.035 E6.25117
G1 X52.053 Y167.831 E6.26142
G1 X51.4 Y167.203 E6.29156
G1 X51.193 Y166.986 E6.30153
G1 X50.638 Y166.356 E6.32946
G1 X50.525 Y166.217 E6.33541
G1 X49.984 Y165.489 E6.36558
G1 X49.863 Y165.311 E6.37274
G1 X49.389 Y164.547 E6.40264
G1 X49.24 Y164.282 E6.41275
G1 X48.819 Y163.449 E6.4438
G1 X48.684 Y163.15 E6.45471
G1 X48.237 Y161.98 E6.49637
G1 X48.207 Y161.885 E6.49968
G1 X48.072 Y161.421 E6.51575
G1 X47.974 Y161.053 E6.52842
G1 X47.803 Y160.304 E6.55397
G1 X47.784 Y160.204 E6.55736
G1 X47.643 Y159.201 E6.59105
G1 X47.621 Y158.963 E6.599
G1 X47.59 Y158.524 E6.61363
G1 X47.576 Y158.248 E6.62282
G1 X47.565 Y157.439 E6.64973
G1 X47.567 Y157.361 E6.65233
G1 X47.637 Y156.388 E6.68478
G1 X47.685 Y155.982 E6.69837
G1 X47.823 Y155.123 E6.72731
G1 X47.903 Y154.728 E6.74071
G1 X47.975 Y154.397 E6.75198
G1 X48.08 Y153.958 E6.76699
G1 X49.279 Y149.126 E6.93258
G1 X49.352 Y148.844 E6.94227
G1 X49.435 Y148.541 E6.95272
G1 X49.592 Y148.001 E6.97142
G1 X49.861 Y147.198 E6.99959
G1 X50.017 Y146.787 E7.01421
G1 X50.196 Y146.347 E7.03001
G1 X50.389 Y145.915 E7.04575
G1 X50.53 Y145.618 E7.05668
G1 X50.718 Y145.242 E7.07066
G1 X50.837 Y145.015 E7.07919
G1 X51.26 Y144.282 E7.10734
G1 X51.436 Y144.003 E7.11831
G1 X51.857 Y143.384 E7.14321
G1 X51.962 Y143.241 E7.14911
G1 X52.539 Y142.524 E7.17972
G1 X53.135 Y141.898 E7.20847
G1 X53.29 Y141.748 E7.21564
G1 X53.978 Y141.137 E7.24624
G1 X54.717 Y140.588 E7.27686
G1 X55.671 Y140.013 E7.31391
G1 X55.969 Y139.854 E7.32515
G1 X56.799 Y139.456 E7.35576
G0 F6000 X56.972 Y139.817
G1 F1200 X57.818 Y139.502 E7.38579
G1 X58.266 Y139.368 E7.40134
G1 X58.361 Y139.342 E7.40462
G1 X59.242 Y139.142 E7.43466
G1 X60.137 Y139.021 E7.4647
G1 X60.624 Y138.989 E7.48093
G1 X61.027 Y138.972 E7.49435
G1 X61.649 Y138.965 E7.51504
G1 X62.96 Y138.991 E7.55865
G1 X63.218 Y139 E7.56724
G1 X65.805 Y139.011 E7.65328
G1 X67.472 Y138.978 E7.70874
G1 X68.007 Y138.964 E7.72654
G1 X69.162 Y139 E7.76497
G1 X69.265 Y139.009 E7.76841
G1 X70.16 Y139.127 E7.79844
G1 X70.883 Y139.283 E7.82304
G1 X71.1 Y139.338 E7.83048
G1 X71.965 Y139.598 E7.86052
G1 X72.905 Y139.981 E7.89428
G1 X73.083 Y140.064 E7.90082
G1 X73.883 Y140.481 E7.93082
G1 X74.644 Y140.968 E7.96087
G1 X75.257 Y141.435 E7.9865
G1 X75.484 Y141.622 E7.99629
G1 X76.155 Y142.227 E8.02634
G1 X76.809 Y142.934 E8.05837
G1 X77.38 Y143.676 E8.08951
G1 X77.661 Y144.101 E8.10646
G1 X77.878 Y144.447 E8.12004
G1 X78.088 Y144.797 E8.13361
G1 X78.336 Y145.23 E8.15021
G1 X78.736 Y146.004 E8.17919
G1 X78.788 Y146.116 E8.1833
G1 X78.957 Y146.499 E8.19722
G1 X79.055 Y146.735 E8.20572
G1 X79.203 Y147.113 E8.21922
G1 X79.285 Y147.335 E8.22709
G1 X79.577 Y148.258 E8.25929
G1 X79.707 Y148.749 E8.27618
G1 X79.807 Y149.16 E8.29025
G1 X79.898 Y149.572 E8.30429
G1 X80.101 Y150.899 E8.34894
G1 X80.206 Y152.121 E8.38973
G1 X80.325 Y153.87 E8.44804
G1 X80.57 Y156.434 E8.5337
G1 X80.669 Y157.245 E8.56088
G1 X80.762 Y158.112 E8.58988
G1 X80.818 Y159.013 E8.61991
G1 X80.81 Y159.645 E8.64093
G1 X80.8 Y159.874 E8.64855
G1 X80.721 Y160.774 E8.6786
G1 X80.562 Y161.663 E8.70864
G1 X80.304 Y162.603 E8.74106
G1 X80.211 Y162.887 E8.751
G1 X79.892 Y163.732 E8.78104
G1 X79.552 Y164.446 E8.80734
G1 X79.475 Y164.593 E8.81286
G1 X79.021 Y165.374 E8.84291
G1 X78.5 Y166.111 E8.87293
G1 X77.924 Y166.791 E8.90257
G1 X77.761 Y166.967 E8.91055
G1 X77.118 Y167.602 E8.9406
G1 X76.703 Y167.957 E8.95877
G1 X76.282 Y168.285 E8.97652
G1 X75.713 Y168.705 E9.00004
G1 X74.987 Y169.195 E9.02917
G1 X74.47 Y169.512 E9.04934
G1 X74.131 Y169.711 E9.06242
G1 X73.707 Y169.949 E9.07859
G1 X72.91 Y170.351 E9.10828
G1 X72.108 Y170.713 E9.13754
G1 X71.365 Y171.014 E9.16421
G1 X71.176 Y171.082 E9.17089
G1 X70.697 Y171.241 E9.18767
G1 X69.831 Y171.505 E9.21779
G1 X69.091 Y171.7 E9.24324
G1 X68.895 Y171.744 E9.24992
G1 X68.38 Y171.846 E9.26738
G1 X67.76 Y171.952 E9.2883
G1 X67.332 Y172.016 E9.3027
G1 X66.799 Y172.084 E9.32057
G1 X65.942 Y172.157 E9.34917
G1 X65.191 Y172.189 E9.37418
G1 X64.323 Y172.189 E9.40305
G1 X63.572 Y172.157 E9.42805
G1 X62.715 Y172.084 E9.45665
G1 X62.182 Y172.016 E9.47452
G1 X61.735 Y171.949 E9.48956
G1 X61.047 Y171.83 E9.51278
G1 X60.264 Y171.662 E9.53942
G1 X60.068 Y171.612 E9.54614
G1 X59.592 Y171.479 E9.56258
G1 X58.873 Y171.258 E9.5876
G1 X58.08 Y170.978 E9.61557
G1 X57.248 Y170.645 E9.64538
G1 X56.499 Y170.309 E9.67268
G1 X56.336 Y170.228 E9.67874
G1 X55.908 Y170.003 E9.69482
G1 X55.126 Y169.567 E9.7246
G1 X54.498 Y169.186 E9.74903
G1 X54.309 Y169.062 E9.75655
G1 X53.856 Y168.748 E9.77488
G1 X53.253 Y168.304 E9.79978
G1 X52.549 Y167.735 E9.82989
G1 X52.318 Y167.531 E9.84014
G1 X51.689 Y166.926 E9.86917
G1 X51.482 Y166.709 E9.87914
G1 X50.948 Y166.103 E9.90601
G1 X50.835 Y165.964 E9.91197
G1 X50.314 Y165.264 E9.94099
G1 X50.193 Y165.086 E9.94815
G1 X49.738 Y164.351 E9.9769
G1 X49.589 Y164.086 E9.98701
G1 X49.184 Y163.284 E10.01689
G1 X49.049 Y162.985 E10.02781
G1 X48.618 Y161.86 E10.06787
G1 X48.588 Y161.765 E10.07119
G1 X48.459 Y161.318 E10.08666
G1 X48.361 Y160.95 E10.09933
G1 X48.196 Y160.229 E10.12393
G1 X48.177 Y160.129 E10.12731
G1 X48.041 Y159.164 E10.15973
G1 X48.019 Y158.926 E10.16768
G1 X47.989 Y158.504 E10.18175
G1 X47.975 Y158.228 E10.19094
G1 X47.965 Y157.45 E10.21682
G1 X47.967 Y157.372 E10.21941
G1 X48.035 Y156.435 E10.25066
G1 X48.083 Y156.029 E10.26426
G1 X48.215 Y155.202 E10.29211
G1 X48.295 Y154.807 E10.30552
G1 X48.365 Y154.489 E10.31635
G1 X48.468 Y154.054 E10.33122
G1 X49.666 Y149.226 E10.49667
G1 X49.739 Y148.944 E10.50635
G1 X49.82 Y148.652 E10.51643
G1 X49.977 Y148.112 E10.53514
G1 X50.235 Y147.34 E10.56221
G1 X50.391 Y146.929 E10.57683
G1 X50.563 Y146.505 E10.59205
G1 X50.601 Y146.417 E10.59524
G1 X50.751 Y146.087 E10.60729
G1 X50.892 Y145.79 E10.61823
G1 X51.072 Y145.428 E10.63168
G1 X51.191 Y145.201 E10.6402
G1 X51.598 Y144.495 E10.6673
G1 X51.774 Y144.216 E10.67828
G1 X52.179 Y143.621 E10.70221
G1 X52.284 Y143.478 E10.70812
G1 X52.851 Y142.775 E10.73815
G1 X53.413 Y142.185 E10.76526
G1 X53.568 Y142.035 E10.77243
G1 X54.244 Y141.437 E10.80245
G1 X54.97 Y140.9 E10.83248
G1 X55.859 Y140.366 E10.86698
G1 X56.157 Y140.207 E10.87821
G1 X56.972 Y139.817 E10.90826
G1 F2700 E5.90826
;MESH:holder2.stl(3)
G0 F6000 X57.541 Y158.402
G0 X57.813 Y159.272
G0 X58.392 Y160.164
G0 X59.152 Y160.83
G0 X60.512 Y161.667
G0 X61.997 Y162.263
G0 X63.559 Y162.599
G0 X65.156 Y162.667
G0 X66.742 Y162.465
G0 X68.271 Y161.997
G0 X69.698 Y161.278
G0 X70.845 Y160.432
G0 X71.16 Y159.958
G0 X71.297 Y159.39
G0 X71.185 Y158.681
G0 X70.881 Y158.185
G0 X70.303 Y157.764
G0 X69.844 Y157.654
G0 X60.82 Y157.669
G0 X60.346 Y156.593
G0 X60.051 Y156.841
G0 X59.851 Y157.142
G0 X59.732 Y157.49
G0 X59.71 Y157.85
G0 X59.763 Y158.155
G0 X59.909 Y158.489
G0 X60.231 Y158.853
G0 X61.248 Y159.539
G0 X62.361 Y160.041
G0 X63.546 Y160.347
G0 X64.761 Y160.451
G0 X66.278 Y160.289
G0 X68.98 Y159.488
G0 X69.562 Y159.085
G0 X69.825 Y159.202
G0 X69.34 Y160.005
;TYPE:WALL-INNER
