;FLAVOR:Marlin
M73 P0
M73 R201
;TIME:12073
;Filament used: 10.0679m
;Layer height: 0.2
;MINX:62.254
;MINY:76.504
;MINZ:0.2
;MAXX:172.749
;MAXY:158.499
;MAXZ:38
;POSTPROCESSED
;Generated with Cura_SteamEngine 5.0.0
M140 S50
M105
M190 S50
M104 S189
M105
M109 S189
M82 ;absolute extrusion mode
; Ender 3 Custom Start G-code
G92 E0 ; Reset Extruder
G28 ; Home all axes
G1 Z2.0 F3000 ; Move Z Axis up little to prevent scratching of Heat Bed
G1 X0.1 Y20 Z0.3 F5000.0 ; Move to start position
G1 X0.1 Y200.0 Z0.3 F1500.0 E15 ; Draw the first line
G1 X0.4 Y200.0 Z0.3 F5000.0 ; Move to side a little
G1 X0.4 Y20 Z0.3 F1500.0 E30 ; Draw the second line
G92 E0 ; Reset Extruder
G1 Z2.0 F3000 ; Move Z Axis up little to prevent scratching of Heat Bed
G1 X5 Y20 Z0.3 F5000.0 ; Move over to prevent blob squish
G92 E0
G92 E0
G1 F2700 E-5
;LAYER_COUNT:190
;LAYER:0
M107
G0 F6000 X68.087 Y80.702 Z0.2
G0 X62.257 Y93.782
;TYPE:SKIRT
G1 F2700 E0
G1 F1200 X62.275 Y93.001 E0.02598
G1 X62.303 Y92.424 E0.0452
G1 X62.368 Y91.652 E0.07096
G1 X62.419 Y91.225 E0.08527
G1 X62.561 Y90.342 E0.11501
G1 X62.644 Y89.933 E0.12889
G1 X62.829 Y89.163 E0.15523
G1 X62.97 Y88.658 E0.17267
G1 X63.376 Y87.47 E0.21443
G1 X63.636 Y86.831 E0.23737
G1 X64.069 Y85.896 E0.27165
G1 X64.37 Y85.318 E0.29332
G1 X64.838 Y84.506 E0.32449
G1 X65.111 Y84.096 E0.34087
G1 X65.571 Y83.438 E0.36758
G1 X66.299 Y82.507 E0.40689
G1 X66.608 Y82.153 E0.42251
G1 X67.133 Y81.593 E0.44805
G1 X67.377 Y81.35 E0.4595
G1 X68.087 Y80.702 E0.49147
G1 X68.646 Y80.235 E0.5157
G1 X69.518 Y79.577 E0.55203
G1 X69.92 Y79.304 E0.56819
G1 X70.721 Y78.809 E0.59951
G1 X71.158 Y78.564 E0.61617
G1 X71.819 Y78.222 E0.64093
G1 X72.52 Y77.9 E0.66658
G1 X72.744 Y77.805 E0.67468
G1 X73.534 Y77.505 E0.70278
G1 X74.013 Y77.344 E0.71959
G1 X74.712 Y77.135 E0.74386
G1 X75.404 Y76.962 E0.76758
G1 X75.962 Y76.839 E0.78659
G1 X76.802 Y76.688 E0.81497
G1 X77.532 Y76.597 E0.83944
G1 X77.79 Y76.573 E0.84806
G1 X78.608 Y76.528 E0.87531
G1 X79.901 Y76.506 E0.91832
G1 X155.464 Y76.504 E3.43155
G1 X155.943 Y76.514 E3.44749
G1 X156.884 Y76.555 E3.47882
G1 X157.88 Y76.644 E3.51207
G1 X158.146 Y76.68 E3.521
G1 X159.055 Y76.843 E3.55172
G1 X159.699 Y76.986 E3.57366
G1 X160.635 Y77.237 E3.60589
G1 X161.213 Y77.42 E3.62606
G1 X162.007 Y77.705 E3.65411
G1 X162.255 Y77.805 E3.66301
G1 X162.962 Y78.12 E3.68875
G1 X163.407 Y78.337 E3.70522
G1 X164.009 Y78.654 E3.72785
G1 X164.624 Y79.012 E3.75152
G1 X165.289 Y79.44 E3.77782
G1 X165.506 Y79.59 E3.78659
G1 X166.178 Y80.094 E3.81453
G1 X166.569 Y80.411 E3.83127
G1 X167.092 Y80.863 E3.85426
G1 X167.507 Y81.245 E3.87302
G1 X168.088 Y81.821 E3.90024
G1 X168.618 Y82.408 E3.92654
G1 X168.815 Y82.641 E3.93669
G1 X169.435 Y83.447 E3.97051
G1 X169.895 Y84.106 E3.99724
G1 X170.624 Y85.307 E4.04397
G1 X170.924 Y85.881 E4.06551
G1 X171.342 Y86.777 E4.09839
G1 X171.584 Y87.363 E4.11948
G1 X171.925 Y88.309 E4.15293
G1 X172.016 Y88.603 E4.16316
G1 X172.24 Y89.443 E4.19208
G1 X172.354 Y89.95 E4.20936
G1 X172.498 Y90.716 E4.23529
G1 X172.576 Y91.231 E4.25261
G1 X172.668 Y92.039 E4.27966
G1 X172.711 Y92.601 E4.2984
G1 X172.742 Y93.331 E4.32271
G1 X172.749 Y94.048 E4.34655
G1 X172.743 Y141.218 E5.91544
G1 X172.725 Y142.009 E5.94175
G1 X172.697 Y142.584 E5.9609
G1 X172.633 Y143.345 E5.9863
G1 X172.586 Y143.741 E5.99956
G1 X172.422 Y144.734 E6.03304
G1 X172.295 Y145.331 E6.05334
G1 X172.042 Y146.3 E6.08665
G1 X171.895 Y146.774 E6.10315
G1 X171.579 Y147.659 E6.13441
G1 X171.394 Y148.114 E6.15074
G1 X171.048 Y148.879 E6.17867
G1 X170.87 Y149.236 E6.19194
G1 X170.392 Y150.096 E6.22466
G1 X170.097 Y150.575 E6.24337
G1 X169.737 Y151.123 E6.26518
G1 X169.42 Y151.575 E6.28354
G1 X168.701 Y152.493 E6.32233
G1 X168.392 Y152.847 E6.33796
G1 X167.883 Y153.391 E6.36273
G1 X167.645 Y153.629 E6.37393
G1 X166.919 Y154.293 E6.40665
G1 X166.354 Y154.765 E6.43114
G1 X165.494 Y155.415 E6.46699
G1 X165.099 Y155.684 E6.48289
G1 X164.288 Y156.186 E6.51461
G1 X163.844 Y156.435 E6.53154
G1 X163.181 Y156.778 E6.55637
G1 X162.903 Y156.91 E6.56661
G1 X162.34 Y157.158 E6.58707
G1 X162.036 Y157.282 E6.59799
G1 X161.203 Y157.583 E6.62745
G1 X160.638 Y157.762 E6.64716
G1 X159.69 Y158.017 E6.67981
G1 X159.043 Y158.16 E6.70185
G1 X158.204 Y158.311 E6.7302
G1 X157.984 Y158.342 E6.73759
G1 X157.307 Y158.416 E6.76024
G1 X156.898 Y158.448 E6.77389
G1 X156.291 Y158.479 E6.7941
G1 X155.295 Y158.499 E6.82724
G1 X79.536 Y158.494 E9.34699
G1 X78.85 Y158.484 E9.36981
G1 X78.217 Y158.456 E9.39088
G1 X77.954 Y158.437 E9.39966
G1 X77.293 Y158.37 E9.42175
G1 X76.888 Y158.316 E9.43534
G1 X76.174 Y158.199 E9.45941
G1 X75.34 Y158.023 E9.48776
G1 X74.602 Y157.832 E9.51311
G1 X74.109 Y157.686 E9.53021
G1 X73.198 Y157.372 E9.56226
G1 X72.919 Y157.262 E9.57224
G1 X72.264 Y156.979 E9.59597
G1 X71.556 Y156.636 E9.62213
G1 X71.059 Y156.377 E9.64077
G1 X70.299 Y155.941 E9.66992
G1 X69.611 Y155.49 E9.69728
G1 X69.327 Y155.289 E9.70885
G1 X68.615 Y154.739 E9.73877
G1 X68.058 Y154.272 E9.76295
G1 X67.238 Y153.511 E9.80016
G1 X66.888 Y153.151 E9.81686
G1 X66.358 Y152.565 E9.84314
G1 X66.167 Y152.338 E9.853
G1 X65.561 Y151.548 E9.88612
G1 X65.098 Y150.884 E9.91304
G1 X64.595 Y150.092 E9.94425
G1 X64.366 Y149.675 E9.96007
G1 X64.069 Y149.105 E9.98145
G1 X63.657 Y148.221 E10.01389
G1 X63.415 Y147.635 E10.03498
G1 X63.062 Y146.651 E10.06975
G1 X62.97 Y146.35 E10.08021
G1 X62.757 Y145.544 E10.10794
G1 X62.645 Y145.045 E10.12495
G1 X62.502 Y144.283 E10.15074
G1 X62.424 Y143.768 E10.16806
G1 X62.314 Y142.669 E10.2048
G1 X62.268 Y141.747 E10.2355
G1 X62.254 Y141.199 E10.25374
G1 X62.257 Y93.782 E11.83083
G0 F6000 X62.657 Y93.788
G1 F1200 X62.674 Y93.02 E11.85638
G1 X62.702 Y92.443 E11.87559
G1 X62.765 Y91.7 E11.9004
G1 X62.816 Y91.273 E11.9147
G1 X62.953 Y90.422 E11.94337
G1 X63.036 Y90.013 E11.95725
G1 X63.214 Y89.27 E11.98266
G1 X63.355 Y88.765 E12.0001
G1 X63.747 Y87.621 E12.04032
G1 X64.007 Y86.982 E12.06327
G1 X64.423 Y86.081 E12.09627
G1 X64.724 Y85.503 E12.11795
G1 X65.438 Y84.326 E12.16373
G1 X65.898 Y83.668 E12.19044
G1 X66.6 Y82.77 E12.22835
G1 X66.909 Y82.416 E12.24398
G1 X67.415 Y81.876 E12.26859
G1 X67.659 Y81.633 E12.28004
G1 X68.343 Y81.009 E12.31084
G1 X68.902 Y80.542 E12.33507
G1 X69.743 Y79.908 E12.37009
G1 X70.145 Y79.635 E12.38626
G1 X70.916 Y79.158 E12.41641
G1 X71.353 Y78.913 E12.43307
G1 X71.99 Y78.584 E12.45692
G1 X72.676 Y78.268 E12.48204
G1 X72.9 Y78.173 E12.49013
G1 X73.662 Y77.884 E12.51724
G1 X74.141 Y77.723 E12.53405
G1 X74.814 Y77.522 E12.55741
G1 X75.49 Y77.353 E12.58058
G1 X76.048 Y77.23 E12.59959
G1 X76.858 Y77.084 E12.62696
G1 X77.569 Y76.996 E12.65079
G1 X77.827 Y76.972 E12.65941
G1 X78.615 Y76.928 E12.68566
G1 X79.901 Y76.906 E12.72844
G1 X155.464 Y76.904 E15.24167
G1 X155.925 Y76.914 E15.25701
G1 X156.866 Y76.955 E15.28834
G1 X157.827 Y77.041 E15.32043
G1 X158.093 Y77.077 E15.32936
G1 X158.969 Y77.233 E15.35895
G1 X159.613 Y77.376 E15.38089
G1 X160.515 Y77.618 E15.41195
G1 X161.093 Y77.801 E15.43212
G1 X161.857 Y78.076 E15.45913
G1 X162.105 Y78.176 E15.46802
G1 X162.787 Y78.479 E15.49284
G1 X163.232 Y78.696 E15.50931
G1 X163.812 Y79.002 E15.53112
G1 X164.413 Y79.352 E15.55425
G1 X165.061 Y79.769 E15.57988
M73 P1
G1 X165.278 Y79.919 E15.58865
G1 X165.927 Y80.405 E15.61562
G1 X166.318 Y80.722 E15.63236
G1 X166.821 Y81.157 E15.65448
G1 X167.236 Y81.539 E15.67324
G1 X167.796 Y82.094 E15.69946
G1 X168.313 Y82.666 E15.72511
G1 X168.51 Y82.899 E15.73526
G1 X169.107 Y83.676 E15.76785
G1 X169.567 Y84.335 E15.79458
G1 X170.269 Y85.492 E15.83959
G1 X170.569 Y86.066 E15.86113
G1 X170.972 Y86.93 E15.89284
G1 X171.214 Y87.516 E15.91393
G1 X171.543 Y88.428 E15.94617
G1 X171.634 Y88.722 E15.95641
G1 X171.85 Y89.531 E15.98426
G1 X171.964 Y90.038 E16.00154
G1 X172.102 Y90.776 E16.02652
G1 X172.18 Y91.291 E16.04384
G1 X172.269 Y92.069 E16.06988
G1 X172.312 Y92.631 E16.08863
G1 X172.342 Y93.335 E16.11207
G1 X172.349 Y94.048 E16.13578
G1 X172.343 Y141.212 E17.70446
G1 X172.325 Y141.99 E17.73035
G1 X172.297 Y142.565 E17.7495
G1 X172.236 Y143.298 E17.77396
G1 X172.189 Y143.694 E17.78722
G1 X172.031 Y144.651 E17.81948
G1 X171.904 Y145.248 E17.83978
G1 X171.66 Y146.182 E17.87189
G1 X171.513 Y146.656 E17.8884
G1 X171.208 Y147.508 E17.9185
G1 X171.023 Y147.963 E17.93483
G1 X170.69 Y148.701 E17.96176
G1 X170.512 Y149.058 E17.97503
G1 X170.052 Y149.887 E18.00656
G1 X169.757 Y150.366 E18.02527
G1 X169.409 Y150.893 E18.04628
G1 X169.092 Y151.345 E18.06464
G1 X168.4 Y152.23 E18.10201
G1 X168.091 Y152.584 E18.11763
G1 X167.6 Y153.108 E18.14152
G1 X167.362 Y153.346 E18.15271
G1 X166.663 Y153.986 E18.18423
G1 X166.098 Y154.458 E18.20872
G1 X165.269 Y155.084 E18.24327
G1 X164.874 Y155.353 E18.25917
G1 X164.092 Y155.837 E18.28976
G1 X163.648 Y156.086 E18.30669
G1 X163.01 Y156.416 E18.33058
G1 X162.732 Y156.548 E18.34081
G1 X162.188 Y156.788 E18.36059
G1 X161.884 Y156.912 E18.37151
G1 X161.082 Y157.202 E18.39987
G1 X160.517 Y157.381 E18.41959
G1 X159.604 Y157.626 E18.45103
G1 X158.957 Y157.769 E18.47307
G1 X158.148 Y157.915 E18.50041
G1 X157.276 Y158.018 E18.52961
G1 X156.867 Y158.05 E18.54326
G1 X156.282 Y158.079 E18.56274
G1 X155.295 Y158.099 E18.59557
G1 X79.541 Y158.094 E21.11516
G1 X78.855 Y158.084 E21.13798
G1 X78.246 Y158.057 E21.15826
G1 X77.983 Y158.038 E21.16703
G1 X77.346 Y157.973 E21.18832
G1 X76.474 Y157.846 E21.21763
G1 X75.814 Y157.719 E21.23999
G1 X75.427 Y157.633 E21.25317
G1 X74.716 Y157.449 E21.2776
G1 X74.223 Y157.303 E21.2947
G1 X73.345 Y157 E21.32559
G1 X73.066 Y156.89 E21.33557
G1 X72.435 Y156.617 E21.35843
G1 X71.741 Y156.281 E21.38408
G1 X71.244 Y156.022 E21.40272
G1 X70.511 Y155.602 E21.43082
G1 X69.842 Y155.163 E21.45743
G1 X69.558 Y154.962 E21.469
G1 X68.872 Y154.433 E21.49782
G1 X68.315 Y153.966 E21.52199
G1 X67.525 Y153.232 E21.55786
G1 X67.175 Y152.872 E21.57456
G1 X66.664 Y152.308 E21.59987
G1 X66.473 Y152.081 E21.60974
G1 X65.889 Y151.319 E21.64167
G1 X65.426 Y150.655 E21.66859
G1 X64.721 Y149.49 E21.71388
G1 X64.424 Y148.92 E21.73526
G1 X64.027 Y148.068 E21.76652
G1 X63.785 Y147.482 E21.78761
G1 X63.445 Y146.534 E21.82111
G1 X63.353 Y146.233 E21.83158
G1 X63.147 Y145.456 E21.85831
G1 X63.035 Y144.957 E21.87532
G1 X62.898 Y144.223 E21.90016
G1 X62.82 Y143.708 E21.91748
G1 X62.713 Y142.649 E21.95288
G1 X62.667 Y141.727 E21.98359
G1 X62.654 Y141.199 E22.00115
G1 X62.657 Y93.788 E23.57805
G0 F6000 X63.057 Y93.793
G1 F1200 X63.074 Y93.04 E23.6031
G1 X63.102 Y92.463 E23.62232
G1 X63.162 Y91.747 E23.64621
G1 X63.213 Y91.32 E23.66052
G1 X63.345 Y90.501 E23.68811
G1 X63.428 Y90.092 E23.70199
G1 X63.6 Y89.378 E23.72642
G1 X63.741 Y88.873 E23.74385
G1 X64.117 Y87.772 E23.78255
G1 X64.377 Y87.133 E23.8055
G1 X64.778 Y86.266 E23.83727
G1 X65.079 Y85.688 E23.85894
G1 X65.766 Y84.555 E23.90301
G1 X66.226 Y83.897 E23.92971
G1 X66.902 Y83.033 E23.9662
G1 X67.211 Y82.679 E23.98183
G1 X67.697 Y82.16 E24.00548
G1 X67.941 Y81.917 E24.01693
G1 X68.599 Y81.316 E24.04657
G1 X69.158 Y80.849 E24.0708
G1 X69.968 Y80.239 E24.10453
G1 X70.37 Y79.966 E24.12069
G1 X71.112 Y79.507 E24.14971
G1 X71.549 Y79.262 E24.16637
G1 X72.162 Y78.945 E24.18932
G1 X72.832 Y78.637 E24.21385
G1 X73.056 Y78.542 E24.22194
G1 X73.789 Y78.264 E24.24802
G1 X74.268 Y78.103 E24.26482
G1 X74.916 Y77.908 E24.28733
G1 X75.576 Y77.743 E24.30996
G1 X76.134 Y77.62 E24.32896
G1 X76.913 Y77.48 E24.35529
G1 X77.606 Y77.394 E24.37851
G1 X77.864 Y77.37 E24.38713
G1 X78.622 Y77.328 E24.41238
G1 X79.901 Y77.306 E24.45493
G1 X155.464 Y77.304 E26.96816
G1 X155.908 Y77.314 E26.98293
G1 X156.849 Y77.355 E27.01426
G1 X157.773 Y77.437 E27.04512
G1 X158.039 Y77.473 E27.05404
G1 X158.882 Y77.624 E27.08253
G1 X159.526 Y77.767 E27.10447
G1 X160.394 Y78 E27.13436
G1 X160.972 Y78.183 E27.15453
G1 X161.707 Y78.447 E27.1805
G1 X161.955 Y78.547 E27.18939
G1 X162.612 Y78.839 E27.21331
G1 X163.057 Y79.056 E27.22977
G1 X163.615 Y79.35 E27.25075
G1 X164.202 Y79.692 E27.27335
G1 X164.834 Y80.098 E27.29833
G1 X165.051 Y80.248 E27.30711
G1 X165.675 Y80.716 E27.33305
G1 X166.066 Y81.033 E27.34979
G1 X166.55 Y81.451 E27.37106
G1 X166.965 Y81.833 E27.38982
G1 X167.504 Y82.368 E27.41508
G1 X168.007 Y82.924 E27.44002
G1 X168.204 Y83.157 E27.45017
G1 X168.779 Y83.905 E27.48155
G1 X169.239 Y84.564 E27.50828
G1 X169.915 Y85.677 E27.55159
G1 X170.215 Y86.251 E27.57313
G1 X170.603 Y87.083 E27.60366
G1 X170.845 Y87.669 E27.62475
G1 X171.161 Y88.546 E27.65575
G1 X171.252 Y88.84 E27.66599
G1 X171.46 Y89.618 E27.69278
G1 X171.574 Y90.125 E27.71006
G1 X171.707 Y90.836 E27.73412
G1 X171.785 Y91.351 E27.75144
G1 X171.87 Y92.1 E27.77651
G1 X171.913 Y92.662 E27.79526
G1 X171.943 Y93.339 E27.8178
G1 X171.949 Y94.048 E27.84138
G1 X171.943 Y141.206 E29.40986
G1 X171.926 Y141.97 E29.43528
G1 X171.898 Y142.545 E29.45443
G1 X171.839 Y143.251 E29.47799
G1 X171.792 Y143.647 E29.49125
G1 X171.64 Y144.567 E29.52227
G1 X171.513 Y145.164 E29.54257
G1 X171.278 Y146.063 E29.57348
G1 X171.131 Y146.537 E29.58998
G1 X170.838 Y147.358 E29.61897
G1 X170.653 Y147.813 E29.63531
G1 X170.332 Y148.522 E29.6612
G1 X170.154 Y148.879 E29.67446
G1 X169.711 Y149.677 E29.70482
G1 X169.416 Y150.156 E29.72353
G1 X169.082 Y150.664 E29.74375
G1 X168.765 Y151.116 E29.76212
G1 X168.098 Y151.967 E29.79808
G1 X167.789 Y152.321 E29.81371
G1 X167.317 Y152.825 E29.83667
G1 X167.079 Y153.063 E29.84787
G1 X166.406 Y153.679 E29.87821
G1 X165.841 Y154.151 E29.9027
G1 X165.043 Y154.754 E29.93597
G1 X164.648 Y155.023 E29.95186
G1 X163.896 Y155.488 E29.98127
G1 X163.452 Y155.737 E29.9982
G1 X162.838 Y156.055 E30.0212
G1 X162.56 Y156.187 E30.03143
G1 X162.037 Y156.418 E30.05045
G1 X161.733 Y156.542 E30.06137
G1 X160.962 Y156.821 E30.08864
G1 X160.397 Y157 E30.10835
G1 X159.517 Y157.236 E30.13866
G1 X158.87 Y157.379 E30.16069
G1 X158.092 Y157.519 E30.18699
G1 X157.245 Y157.619 E30.21535
M73 P2
G1 X156.836 Y157.651 E30.229
G1 X156.273 Y157.679 E30.24775
G1 X155.295 Y157.699 E30.28028
G1 X79.547 Y157.694 E32.79967
G1 X78.861 Y157.684 E32.82249
G1 X78.012 Y157.639 E32.85077
G1 X77.399 Y157.577 E32.87126
G1 X76.994 Y157.523 E32.88485
G1 X76.315 Y157.411 E32.90774
G1 X75.513 Y157.242 E32.935
G1 X74.83 Y157.065 E32.95847
G1 X74.337 Y156.919 E32.97557
G1 X73.492 Y156.628 E33.00529
G1 X73.213 Y156.518 E33.01527
G1 X72.605 Y156.255 E33.0373
G1 X71.926 Y155.926 E33.06239
G1 X71.429 Y155.667 E33.08103
G1 X70.724 Y155.263 E33.10806
G1 X70.073 Y154.837 E33.13394
G1 X69.789 Y154.636 E33.14551
G1 X69.129 Y154.126 E33.17325
G1 X68.572 Y153.659 E33.19743
G1 X67.812 Y152.953 E33.23193
G1 X67.462 Y152.593 E33.24863
G1 X66.97 Y152.05 E33.273
G1 X66.779 Y151.823 E33.28287
G1 X66.217 Y151.09 E33.31359
G1 X65.754 Y150.426 E33.34051
G1 X65.075 Y149.305 E33.3841
G1 X64.778 Y148.735 E33.40548
G1 X64.396 Y147.915 E33.43557
G1 X64.154 Y147.329 E33.45665
G1 X63.827 Y146.417 E33.48888
G1 X63.735 Y146.116 E33.49935
G1 X63.538 Y145.369 E33.52504
G1 X63.426 Y144.87 E33.54205
G1 X63.293 Y144.163 E33.56598
G1 X63.215 Y143.648 E33.5833
G1 X63.113 Y142.629 E33.61736
G1 X63.067 Y141.707 E33.64807
G1 X63.054 Y141.199 E33.66497
G1 X63.057 Y93.793 E35.2417
G1 F2700 E30.2417
;MESH:SC17_0 (1).stl
G0 F6000 X72.59 Y93.796
G0 X73.685 Y93.796
G0 X74.049 Y142.077
G0 X74.325 Y143.282
G0 X74.89 Y144.395
G0 X75.621 Y145.276
G0 X76.541 Y145.981
G0 X77.463 Y146.425
G0 X78.683 Y146.703
G0 X155.121 Y146.89
G1 F2700 E35.2417
G0 F6000 X155.143 Y147.3
;TYPE:WALL-OUTER
G1 F1200 X156.001 Y147.294 E35.27024
G1 X156.253 Y147.277 E35.27864
G1 X156.505 Y147.25 E35.28707
G1 X156.754 Y147.212 E35.29544
G1 X157.25 Y147.103 E35.31234
G1 X157.491 Y147.032 E35.32069
G1 X157.73 Y146.951 E35.32909
