;FLAVOR:Marlin
M73 P0
M73 R74
;TIME:4432
;Filament used: 3.63442m
;Layer height: 0.2
;MINX:52
;MINY:81.735
;MINZ:0.2
;MAXX:194
;MAXY:150.61
;MAXZ:3
;POSTPROCESSED
;Generated with Cura_SteamEngine 5.0.0
M140 S50
M105
M190 S50
M104 S215
M105
M109 S215
M82 ;absolute extrusion mode
; Ender 3 Custom Start G-code
G92 E0 ; Reset Extruder
G28 ; Home all axes
G1 Z2.0 F3000 ; Move Z Axis up little to prevent scratching of Heat Bed
G1 X0.1 Y20 Z0.3 F5000.0 ; Move to start position
G1 X0.1 Y200.0 Z0.3 F1500.0 E15 ; Draw the first line
G1 X0.4 Y200.0 Z0.3 F5000.0 ; Move to side a little
G1 X0.4 Y20 Z0.3 F1500.0 E30 ; Draw the second line
G92 E0 ; Reset Extruder
G1 Z2.0 F3000 ; Move Z Axis up little to prevent scratching of Heat Bed
G1 X5 Y20 Z0.3 F5000.0 ; Move over to prevent blob squish
G92 E0
G92 E0
G1 F2700 E-5
;LAYER_COUNT:15
;LAYER:0
M107
G0 F6000 X56.626 Y83.786 Z0.2
G0 X52.001 Y93.26
;TYPE:SKIRT
G1 F2700 E0
G1 F1200 X52.01 Y92.595 E0.02212
G1 X52.063 Y91.659 E0.0533
G1 X52.195 Y90.73 E0.08451
G1 X52.406 Y89.816 E0.11571
G1 X52.694 Y88.924 E0.14689
G1 X53.057 Y88.059 E0.17809
G1 X53.492 Y87.228 E0.20928
G1 X53.996 Y86.438 E0.24045
G1 X54.566 Y85.693 E0.27165
G1 X55.198 Y84.999 E0.30287
G1 X55.886 Y84.362 E0.33405
G1 X56.626 Y83.786 E0.36524
G1 X57.412 Y83.274 E0.39644
G1 X58.239 Y82.832 E0.42763
G1 X59.101 Y82.462 E0.45883
G1 X59.991 Y82.166 E0.49003
G1 X60.903 Y81.948 E0.52122
G1 X61.83 Y81.807 E0.5524
G1 X62.701 Y81.748 E0.58144
G1 X63.33 Y81.735 E0.60236
G1 X182.293 Y81.735 E4.55909
G1 X183.149 Y81.746 E4.58756
G1 X184.085 Y81.8 E4.61875
G1 X185.013 Y81.932 E4.64992
G1 X185.927 Y82.144 E4.68113
G1 X186.819 Y82.433 E4.71231
G1 X187.684 Y82.796 E4.74352
G1 X188.514 Y83.232 E4.7747
G1 X189.305 Y83.737 E4.80591
G1 X190.049 Y84.308 E4.8371
G1 X190.742 Y84.94 E4.8683
G1 X191.379 Y85.628 E4.89948
G1 X191.954 Y86.369 E4.93068
G1 X192.465 Y87.155 E4.96186
G1 X192.907 Y87.983 E4.99308
G1 X193.276 Y88.845 E5.02427
G1 X193.571 Y89.735 E5.05545
G1 X193.789 Y90.647 E5.08664
G1 X193.929 Y91.575 E5.11785
G1 X193.987 Y92.436 E5.14656
G1 X194 Y93.065 E5.16748
G1 X193.999 Y139.01 E6.69562
G1 X193.99 Y139.737 E6.7198
G1 X193.939 Y140.674 E6.75101
G1 X193.807 Y141.602 E6.78219
G1 X193.598 Y142.516 E6.81337
M73 P1
G1 X193.311 Y143.409 E6.84457
G1 X192.949 Y144.275 E6.87579
G1 X192.515 Y145.106 E6.90697
G1 X192.011 Y145.897 E6.93816
G1 X191.442 Y146.642 E6.96934
G1 X190.811 Y147.337 E7.00057
G1 X190.124 Y147.975 E7.03175
G1 X189.385 Y148.552 E7.06293
G1 X188.599 Y149.064 E7.09413
G1 X187.773 Y149.507 E7.12531
G1 X186.911 Y149.879 E7.15653
G1 X186.022 Y150.175 E7.1877
G1 X185.11 Y150.395 E7.2189
G1 X184.183 Y150.536 E7.25009
G1 X183.299 Y150.597 E7.27956
G1 X182.67 Y150.61 E7.30048
G1 X63.565 Y150.609 E11.26193
G1 X62.867 Y150.6 E11.28515
G1 X61.931 Y150.548 E11.31633
G1 X61.002 Y150.416 E11.34754
G1 X60.088 Y150.206 E11.37873
G1 X59.195 Y149.919 E11.40993
G1 X58.33 Y149.556 E11.44113
G1 X57.499 Y149.122 E11.47231
G1 X56.708 Y148.618 E11.50351
G1 X55.963 Y148.048 E11.5347
G1 X55.269 Y147.417 E11.5659
G1 X54.632 Y146.73 E11.59706
G1 X54.055 Y145.99 E11.62827
G1 X53.543 Y145.204 E11.65947
G1 X53.1 Y144.377 E11.69068
G1 X52.729 Y143.516 E11.72186
G1 X52.433 Y142.626 E11.75305
G1 X52.214 Y141.714 E11.78425
G1 X52.073 Y140.787 E11.81544
G1 X52.013 Y139.898 E11.84507
G1 X52 Y139.268 E11.86603
G1 X52.001 Y93.26 E13.39626
G0 F6000 X52.401 Y93.266
G1 F1200 X52.41 Y92.601 E13.41838
G1 X52.462 Y91.681 E13.44903
G1 X52.594 Y90.77 E13.47965
G1 X52.805 Y89.874 E13.51026
G1 X53.092 Y88.999 E13.54089
G1 X53.455 Y88.153 E13.57151
G1 X53.889 Y87.341 E13.60213
G1 X54.392 Y86.57 E13.63275
G1 X54.961 Y85.846 E13.66338
G1 X55.589 Y85.174 E13.69397
G1 X56.274 Y84.558 E13.72461
G1 X57.01 Y84.005 E13.75523
M73 P2
G1 X57.791 Y83.517 E13.78586
G1 X58.611 Y83.099 E13.81647
G1 X59.465 Y82.754 E13.84711
G1 X60.345 Y82.484 E13.87772
G1 X61.245 Y82.292 E13.90833
G1 X62.159 Y82.178 E13.93897
G1 X62.712 Y82.148 E13.95739
G1 X63.33 Y82.135 E13.97795
G1 X182.293 Y82.135 E17.93467
G1 X183.143 Y82.146 E17.96294
G1 X184.062 Y82.199 E17.99356
G1 X184.973 Y82.332 E18.02418
G1 X185.869 Y82.543 E18.0548
G1 X186.743 Y82.831 E18.08541
G1 X187.59 Y83.194 E18.11605
G1 X188.401 Y83.629 E18.14666
G1 X189.171 Y84.133 E18.17727
G1 X189.895 Y84.702 E18.2079
G1 X190.567 Y85.332 E18.23854
G1 X191.182 Y86.017 E18.26915
G1 X191.735 Y86.753 E18.29977
G1 X192.222 Y87.534 E18.33039
G1 X192.639 Y88.355 E18.36101
G1 X192.984 Y89.209 E18.39165
G1 X193.253 Y90.089 E18.42225
G1 X193.445 Y90.99 E18.45289
G1 X193.558 Y91.903 E18.48349
G1 X193.596 Y92.767 E18.51226
G1 X193.599 Y139.005 E20.05014
G1 X193.59 Y139.732 E20.07432
G1 X193.539 Y140.651 E20.10493
G1 X193.408 Y141.563 E20.13558
G1 X193.198 Y142.459 E20.16619
G1 X192.912 Y143.334 E20.19681
G1 X192.551 Y144.181 E20.22743
G1 X192.117 Y144.993 E20.25805
G1 X191.615 Y145.765 E20.28868
G1 X191.047 Y146.49 E20.31931
G1 X190.419 Y147.163 E20.34993
G1 X189.735 Y147.779 E20.38054
G1 X189 Y148.333 E20.41116
G1 X188.22 Y148.822 E20.44178
G1 X187.4 Y149.241 E20.4724
G1 X186.547 Y149.587 E20.50302
G1 X185.667 Y149.858 E20.53364
G1 X184.767 Y150.051 E20.56426
G1 X183.853 Y150.166 E20.5949
G1 X183.288 Y150.197 E20.61372
G1 X182.67 Y150.21 E20.63428
G1 X63.57 Y150.209 E24.59556
G1 X62.872 Y150.2 E24.61878
M73 P3
G1 X61.953 Y150.148 E24.64939
G1 X61.042 Y150.017 E24.68
G1 X60.146 Y149.807 E24.71061
G1 X59.271 Y149.52 E24.74124
G1 X58.424 Y149.158 E24.77188
G1 X57.612 Y148.724 E24.8025
G1 X56.841 Y148.222 E24.8331
G1 X56.116 Y147.654 E24.86373
G1 X55.443 Y147.025 E24.89437
G1 X54.828 Y146.341 E24.92497
G1 X54.274 Y145.606 E24.95558
G1 X53.786 Y144.825 E24.98621
G1 X53.367 Y144.005 E25.01684
G1 X53.021 Y143.152 E25.04745
G1 X52.751 Y142.272 E25.07807
G1 X52.558 Y141.371 E25.10871
G1 X52.444 Y140.458 E25.13932
G1 X52.413 Y139.887 E25.15834
G1 X52.4 Y139.268 E25.17893
G1 X52.401 Y93.266 E26.70896
G0 F6000 X52.801 Y93.271
G1 F1200 X52.81 Y92.606 E26.73108
G1 X52.862 Y91.704 E26.76113
G1 X52.994 Y90.811 E26.79116
G1 X53.204 Y89.933 E26.82118
G1 X53.491 Y89.076 E26.85124
G1 X53.853 Y88.249 E26.88127
G1 X54.286 Y87.457 E26.91129
G1 X54.788 Y86.706 E26.94134
G1 X55.355 Y86.002 E26.9714
G1 X55.981 Y85.352 E27.00142
G1 X56.662 Y84.759 E27.03145
G1 X57.394 Y84.229 E27.06151
G1 X58.169 Y83.766 E27.09153
G1 X58.982 Y83.373 E27.12157
G1 X59.827 Y83.053 E27.15162
G1 X60.696 Y82.81 E27.18163
G1 X61.584 Y82.644 E27.21168
G1 X62.723 Y82.548 E27.2497
G1 X63.33 Y82.535 E27.26989
G1 X182.293 Y82.535 E31.22662
G1 X183.137 Y82.546 E31.25469
G1 X184.039 Y82.599 E31.28474
G1 X184.932 Y82.731 E31.31477
G1 X185.81 Y82.942 E31.3448
G1 X186.666 Y83.23 E31.37484
G1 X187.493 Y83.592 E31.40486
G1 X188.285 Y84.027 E31.43492
G1 X189.036 Y84.529 E31.46496
G1 X189.739 Y85.096 E31.495
G1 X190.389 Y85.723 E31.52504
M73 P4
G1 X190.981 Y86.405 E31.55508
G1 X191.511 Y87.136 E31.58511
G1 X191.973 Y87.912 E31.61515
G1 X192.366 Y88.725 E31.64518
G1 X192.684 Y89.57 E31.67521
G1 X192.927 Y90.44 E31.70525
G1 X193.092 Y91.328 E31.73529
G1 X193.187 Y92.458 E31.77301
G1 X193.2 Y93.065 E31.7932
G1 X193.199 Y139 E33.32101
G1 X193.19 Y139.727 E33.34519
G1 X193.139 Y140.629 E33.37524
G1 X193.008 Y141.523 E33.40529
G1 X192.799 Y142.401 E33.43531
G1 X192.513 Y143.258 E33.46536
G1 X192.152 Y144.086 E33.4954
G1 X191.72 Y144.878 E33.52541
G1 X191.219 Y145.63 E33.55546
G1 X190.653 Y146.334 E33.58551
G1 X190.028 Y146.985 E33.61552
G1 X189.347 Y147.579 E33.64558
G1 X188.616 Y148.11 E33.67563
G1 X187.842 Y148.574 E33.70564
G1 X187.029 Y148.968 E33.73569
G1 X186.185 Y149.288 E33.76571
G1 X185.315 Y149.533 E33.79577
G1 X184.428 Y149.699 E33.82579
G1 X183.277 Y149.797 E33.86421
G1 X182.67 Y149.81 E33.8844
G1 X63.575 Y149.809 E37.84552
G1 X62.877 Y149.8 E37.86874
G1 X61.976 Y149.749 E37.89875
G1 X61.082 Y149.617 E37.92881
G1 X60.204 Y149.408 E37.95883
G1 X59.347 Y149.121 E37.98889
G1 X58.52 Y148.76 E38.0189
G1 X57.727 Y148.327 E38.04895
G1 X56.976 Y147.826 E38.07898
G1 X56.272 Y147.26 E38.10902
G1 X55.621 Y146.634 E38.13906
G1 X55.028 Y145.953 E38.16909
G1 X54.498 Y145.222 E38.19912
G1 X54.034 Y144.447 E38.22917
G1 X53.64 Y143.634 E38.25922
G1 X53.32 Y142.79 E38.28924
G1 X53.076 Y141.92 E38.31929
G1 X52.91 Y141.032 E38.34934
G1 X52.813 Y139.877 E38.38789
G1 X52.8 Y139.268 E38.40815
G1 X52.801 Y93.271 E39.93801
G1 F2700 E34.93801
M73 P5
;MESH:graded.png(1)
G0 F6000 X62.335 Y93.936
G0 X64.201 Y93.936
G0 X181.828 Y93.908
G0 X182.29 Y116.173
G1 F2700 E39.93801
G0 F6000 X182.8 Y116.173
;TYPE:WALL-OUTER
G1 F1200 X182.8 Y92.936 E40.71088
G1 X63.201 Y92.936 E44.68876
G1 X63.201 Y139.41 E46.23449
G1 X182.8 Y139.41 E50.21237
G1 X182.8 Y116.173 E50.98524
G0 F6000 X182.29 Y116.173
G0 X182.32 Y138.93
G0 X182.4 Y139.01
;TYPE:WALL-INNER
G1 F1200 X182.4 Y116.173 E51.7448
G1 X182.4 Y93.336 E52.50436
G1 X63.601 Y93.336 E56.45563
G1 X63.601 Y139.01 E57.97475
G1 X182.4 Y139.01 E61.92602
G0 F6000 X182 Y138.61
G1 F1200 X182 Y116.173 E62.67228
G1 X182 Y93.736 E63.41854
G1 X64.001 Y93.736 E67.3432
G1 X64.001 Y138.61 E68.83572
G1 X182 Y138.61 E72.76038
G0 F6000 X181.9 Y116.173
G0 X181.64 Y116.173
;TYPE:SKIN
G1 F1200 X181.64 Y94.096 E73.49466
G1 X64.361 Y94.096 E77.39538
G1 X64.361 Y138.25 E78.86395
G1 X181.64 Y138.25 E82.76466
G1 X181.64 Y116.173 E83.49895
G0 F6000 X181.9 Y116.173
G0 X181.9 Y94.889
G0 X181.439 Y94.889
G1 F1200 X180.845 Y94.295 E83.52689
G0 F6000 X180.279 Y94.295
G1 F1200 X181.439 Y95.455 E83.58145
G0 F6000 X181.439 Y96.02
G1 F1200 X179.714 Y94.295 E83.66259
G0 F6000 X179.148 Y94.295
G1 F1200 X181.439 Y96.586 E83.77035
G0 F6000 X181.439 Y97.152
G1 F1200 X178.582 Y94.295 E83.90473
G0 F6000 X178.016 Y94.295
G1 F1200 X181.439 Y97.717 E84.06572
G0 F6000 X181.439 Y98.283
M73 P6
G1 F1200 X177.451 Y94.295 E84.2533
G0 F6000 X176.885 Y94.295
G1 F1200 X181.439 Y98.849 E84.46751
G0 F6000 X181.439 Y99.414
G1 F1200 X176.319 Y94.295 E84.70831
G0 F6000 X175.754 Y94.295
G1 F1200 X181.439 Y99.98 E84.97572
G0 F6000 X181.439 Y100.546
G1 F1200 X175.188 Y94.295 E85.26975
G0 F6000 X174.622 Y94.295
G1 F1200 X181.439 Y101.112 E85.5904
G0 F6000 X181.439 Y101.677
G1 F1200 X174.057 Y94.295 E85.93762
G0 F6000 X173.491 Y94.295
G1 F1200 X181.439 Y102.243 E86.31147
G0 F6000 X181.439 Y102.809
G1 F1200 X172.925 Y94.295 E86.71195
G0 F6000 X172.36 Y94.295
G1 F1200 X181.439 Y103.374 E87.13899
G0 F6000 X181.439 Y103.94
G1 F1200 X171.794 Y94.295 E87.59267
G0 F6000 X171.228 Y94.295
G1 F1200 X181.439 Y104.506 E88.07296
G0 F6000 X181.439 Y105.071
G1 F1200 X170.663 Y94.295 E88.57983
G0 F6000 X170.097 Y94.295
G1 F1200 X181.439 Y105.637 E89.11332
G0 F6000 X181.439 Y106.203
G1 F1200 X169.531 Y94.295 E89.67344
G0 F6000 X168.965 Y94.295
G1 F1200 X181.439 Y106.768 E90.26015
G0 F6000 X181.439 Y107.334
G1 F1200 X168.4 Y94.295 E90.87347
G0 F6000 X167.834 Y94.295
G1 F1200 X181.439 Y107.9 E91.51341
G0 F6000 X181.439 Y108.465
G1 F1200 X167.268 Y94.295 E92.17994
G0 F6000 X166.703 Y94.295
G1 F1200 X181.439 Y109.031 E92.87308
G0 F6000 X181.439 Y109.597
G1 F1200 X166.137 Y94.295 E93.59284
G0 F6000 X165.571 Y94.295
G1 F1200 X181.439 Y110.162 E94.3392
G0 F6000 X181.439 Y110.728
G1 F1200 X165.006 Y94.295 E95.11215
G0 F6000 X164.44 Y94.295
G1 F1200 X181.439 Y111.294 E95.91173
G0 F6000 X181.439 Y111.86
G1 F1200 X163.874 Y94.295 E96.73794
G0 F6000 X163.309 Y94.295
G1 F1200 X181.439 Y112.425 E97.59072
M73 P7
G0 F6000 X181.439 Y112.991
G1 F1200 X162.743 Y94.295 E98.47012
G0 F6000 X162.177 Y94.295
G1 F1200 X181.439 Y113.557 E99.37615
G0 F6000 X181.439 Y114.122
G1 F1200 X161.612 Y94.295 E100.30875
G0 F6000 X161.046 Y94.295
G1 F1200 X181.439 Y114.688 E101.26797
G0 F6000 X181.439 Y115.254
G1 F1200 X160.48 Y94.295 E102.25382
G0 F6000 X159.915 Y94.295
G1 F1200 X181.439 Y115.819 E103.26624
G0 F6000 X181.439 Y116.385
G1 F1200 X159.349 Y94.295 E104.30529
G0 F6000 X158.783 Y94.295
G1 F1200 X181.439 Y116.951 E105.37096
G0 F6000 X181.439 Y117.516
G1 F1200 X158.217 Y94.295 E106.46322
G0 F6000 X157.652 Y94.295
G1 F1200 X181.439 Y118.082 E107.58209
G0 F6000 X181.439 Y118.648
G1 F1200 X157.086 Y94.295 E108.72758
G0 F6000 X156.52 Y94.295
G1 F1200 X181.439 Y119.213 E109.89967
G0 F6000 X181.439 Y119.779
G1 F1200 X155.955 Y94.295 E111.09836
G0 F6000 X155.389 Y94.295
G1 F1200 X181.439 Y120.345 E112.32367
G0 F6000 X181.439 Y120.911
G1 F1200 X154.823 Y94.295 E113.57561
G0 F6000 X154.258 Y94.295
G1 F1200 X181.439 Y121.476 E114.85412
G0 F6000 X181.439 Y122.042
G1 F1200 X153.692 Y94.295 E116.15925
G0 F6000 X153.126 Y94.295
G1 F1200 X181.439 Y122.608 E117.49101
G0 F6000 X181.439 Y123.173
G1 F1200 X152.561 Y94.295 E118.84934
G0 F6000 X151.995 Y94.295
G1 F1200 X181.439 Y123.739 E120.2343
G0 F6000 X181.439 Y124.305
G1 F1200 X151.429 Y94.295 E121.64588
G0 F6000 X150.864 Y94.295
G1 F1200 X181.439 Y124.87 E123.08403
G0 F6000 X181.439 Y125.436
G1 F1200 X150.298 Y94.295 E124.54881
G0 F6000 X149.732 Y94.295
G1 F1200 X181.439 Y126.002 E126.04021
G0 F6000 X181.439 Y126.567
G1 F1200 X149.167 Y94.295 E127.55818
G0 F6000 X148.601 Y94.295
M73 P8
G1 F1200 X181.439 Y127.133 E129.10278
G0 F6000 X181.439 Y127.699
G1 F1200 X148.035 Y94.295 E130.674
G0 F6000 X147.469 Y94.295
G1 F1200 X181.439 Y128.264 E132.27183
G0 F6000 X181.439 Y128.83
G1 F1200 X146.904 Y94.295 E133.89625
G0 F6000 X146.338 Y94.295
G1 F1200 X181.439 Y129.396 E135.54729
G0 F6000 X181.439 Y129.961
G1 F1200 X145.772 Y94.295 E137.22493
G0 F6000 X145.207 Y94.295
G1 F1200 X181.439 Y130.527 E138.92917
G0 F6000 X181.439 Y131.093
G1 F1200 X144.641 Y94.295 E140.66004
G0 F6000 X144.075 Y94.295
G1 F1200 X181.439 Y131.659 E142.41753
G0 F6000 X181.439 Y132.224
G1 F1200 X143.51 Y94.295 E144.20159
G0 F6000 X142.944 Y94.295
G1 F1200 X181.439 Y132.79 E146.01228
G0 F6000 X181.439 Y133.356
G1 F1200 X142.378 Y94.295 E147.84959
G0 F6000 X141.813 Y94.295
G1 F1200 X181.439 Y133.921 E149.71347
G0 F6000 X181.439 Y134.487
G1 F1200 X141.247 Y94.295 E151.60398
G0 F6000 X140.681 Y94.295
G1 F1200 X181.439 Y135.053 E153.52111
G0 F6000 X181.439 Y135.618
G1 F1200 X140.116 Y94.295 E155.46482
G0 F6000 X139.55 Y94.295
G1 F1200 X181.439 Y136.184 E157.43515
G0 F6000 X181.439 Y136.75
G1 F1200 X138.984 Y94.295 E159.4321
G0 F6000 X138.418 Y94.295
G1 F1200 X181.439 Y137.315 E161.45566
G0 F6000 X181.439 Y137.881
G1 F1200 X137.853 Y94.295 E163.50581
G0 F6000 X137.287 Y94.295
G1 F1200 X181.041 Y138.049 E165.56386
G0 F6000 X180.475 Y138.049
G1 F1200 X136.721 Y94.295 E167.62192
G0 F6000 X136.156 Y94.295
G1 F1200 X179.909 Y138.049 E169.67995
G0 F6000 X179.344 Y138.049
G1 F1200 X135.59 Y94.295 E171.738
G0 F6000 X135.024 Y94.295
G1 F1200 X178.778 Y138.049 E173.79605
G0 F6000 X178.212 Y138.049
G1 F1200 X134.459 Y94.295 E175.85409
G0 F6000 X133.893 Y94.295
M73 P9
G1 F1200 X177.647 Y138.049 E177.91214
G0 F6000 X177.081 Y138.049
G1 F1200 X133.327 Y94.295 E179.97019
G0 F6000 X132.762 Y94.295
G1 F1200 X176.515 Y138.049 E182.02822
G0 F6000 X175.95 Y138.049
G1 F1200 X132.196 Y94.295 E184.08628
G0 F6000 X131.63 Y94.295
G1 F1200 X175.384 Y138.049 E186.14433
G0 F6000 X174.818 Y138.049
G1 F1200 X131.065 Y94.295 E188.20236
G0 F6000 X130.499 Y94.295
G1 F1200 X174.253 Y138.049 E190.26042
G0 F6000 X173.687 Y138.049
G1 F1200 X129.933 Y94.295 E192.31847
G0 F6000 X129.368 Y94.295
G1 F1200 X173.121 Y138.049 E194.3765
G0 F6000 X172.555 Y138.049
G1 F1200 X128.802 Y94.295 E196.43453
G0 F6000 X128.236 Y94.295
G1 F1200 X171.99 Y138.049 E198.49259
G0 F6000 X171.424 Y138.049
G1 F1200 X127.67 Y94.295 E200.55064
G0 F6000 X127.105 Y94.295
G1 F1200 X170.858 Y138.049 E202.60867
G0 F6000 X170.293 Y138.049
G1 F1200 X126.539 Y94.295 E204.66672
G0 F6000 X125.973 Y94.295
G1 F1200 X169.727 Y138.049 E206.72478
