;FLAVOR:Marlin
M73 P0
M73 R6
;TIME:340
;Filament used: 0.0995395m
;Layer height: 0.2
;MINX:92.435
;MINY:104.987
;MINZ:0.2
;MAXX:142.585
;MAXY:130.002
;MAXZ:4.4
;POSTPROCESSED
;Generated with Cura_SteamEngine 5.0.0
M140 S50
M105
M190 S50
M104 S215
M105
M109 S215
M82 ;absolute extrusion mode
; Ender 3 Custom Start G-code
G92 E0 ; Reset Extruder
G28 ; Home all axes
G1 Z2.0 F3000 ; Move Z Axis up little to prevent scratching of Heat Bed
G1 X0.1 Y20 Z0.3 F5000.0 ; Move to start position
G1 X0.1 Y200.0 Z0.3 F1500.0 E15 ; Draw the first line
G1 X0.4 Y200.0 Z0.3 F5000.0 ; Move to side a little
G1 X0.4 Y20 Z0.3 F1500.0 E30 ; Draw the second line
G92 E0 ; Reset Extruder
G1 Z2.0 F3000 ; Move Z Axis up little to prevent scratching of Heat Bed
G1 X5 Y20 Z0.3 F5000.0 ; Move over to prevent blob squish
G92 E0
G92 E0
G1 F2700 E-5
;LAYER_COUNT:22
;LAYER:0
M107
G0 F6000 X95.842 Y108.027 Z0.2
G0 X92.435 Y115.527
;TYPE:SKIRT
G1 F2700 E0
G1 F1200 X92.515 Y114.593 E0.03118
G1 X92.674 Y113.669 E0.06236
G1 X92.911 Y112.761 E0.09357
G1 X93.225 Y111.877 E0.12478
G1 X93.613 Y111.024 E0.15594
G1 X94.072 Y110.206 E0.18714
G1 X94.6 Y109.43 E0.21836
G1 X95.191 Y108.702 E0.24955
G1 X95.842 Y108.027 E0.28074
G1 X96.548 Y107.41 E0.31192
G1 X97.305 Y106.856 E0.34312
G1 X98.106 Y106.368 E0.37432
G1 X98.945 Y105.95 E0.4055
G1 X99.817 Y105.604 E0.4367
G1 X100.716 Y105.335 E0.46791
G1 X101.634 Y105.143 E0.4991
G1 X102.565 Y105.03 E0.5303
G1 X103.255 Y104.997 E0.55327
G1 X104.009 Y104.987 E0.57835
G1 X130.891 Y104.987 E1.47245
G1 X131.745 Y104.998 E1.50086
G1 X132.681 Y105.052 E1.53204
G1 X133.61 Y105.185 E1.56325
G1 X134.523 Y105.396 E1.59442
G1 X135.416 Y105.685 E1.62564
G1 X136.28 Y106.048 E1.65681
G1 X137.111 Y106.484 E1.68802
G1 X137.901 Y106.99 E1.71922
G1 X138.645 Y107.56 E1.7504
G1 X139.338 Y108.192 E1.78159
G1 X139.975 Y108.881 E1.8128
G1 X140.551 Y109.621 E1.84399
G1 X141.061 Y110.408 E1.87518
G1 X141.503 Y111.235 E1.90637
G1 X141.872 Y112.097 E1.93756
G1 X142.167 Y112.987 E1.96874
G1 X142.385 Y113.9 E1.99996
G1 X142.525 Y114.827 E2.03115
G1 X142.585 Y115.763 E2.06234
G1 X142.564 Y116.701 E2.09355
G1 X142.465 Y117.633 E2.12472
G1 X142.361 Y118.217 E2.14445
G1 X142.273 Y118.644 E2.15895
G1 X142.044 Y119.554 E2.19016
G1 X141.739 Y120.441 E2.22136
G1 X141.36 Y121.299 E2.25255
G1 X140.909 Y122.121 E2.28374
G1 X140.389 Y122.902 E2.31495
G1 X139.805 Y123.635 E2.34612
G1 X139.161 Y124.317 E2.37732
G1 X138.461 Y124.941 E2.40851
G1 X137.844 Y125.413 E2.43434
G1 X137.066 Y125.937 E2.46554
G1 X136.246 Y126.393 E2.49675
G1 X135.391 Y126.778 E2.52794
G1 X134.895 Y126.962 E2.54553
G1 X134.234 Y127.189 E2.56878
G1 X132.567 Y127.736 E2.62713
G1 X131.254 Y128.125 E2.67268
G1 X130.229 Y128.4 E2.70797
G1 X128.706 Y128.759 E2.76002
G1 X127.232 Y129.067 E2.8101
G1 X125.47 Y129.379 E2.86962
G1 X124.931 Y129.46 E2.88775
G1 X123.309 Y129.661 E2.94211
M73 P1
G1 X122.943 Y129.714 E2.95441
G1 X122.217 Y129.784 E2.97867
G1 X120.354 Y129.923 E3.0408
G1 X119.445 Y129.964 E3.07107
G1 X117.802 Y130.002 E3.12573
G1 X117.313 Y130.002 E3.14199
G1 X115.578 Y129.962 E3.19971
G1 X114.587 Y129.918 E3.23271
G1 X113.291 Y129.825 E3.27592
G1 X112.486 Y129.758 E3.30279
G1 X112.021 Y129.709 E3.31834
G1 X110.167 Y129.475 E3.38049
G1 X109.648 Y129.397 E3.39795
G1 X107.894 Y129.09 E3.45717
G1 X107.513 Y129.017 E3.47008
G1 X106.092 Y128.714 E3.5184
G1 X105.088 Y128.479 E3.5527
G1 X104.635 Y128.362 E3.56826
G1 X102.556 Y127.777 E3.64009
G1 X101.934 Y127.584 E3.66175
G1 X100.277 Y127.024 E3.71993
G1 X99.534 Y126.747 E3.7463
G1 X98.677 Y126.367 E3.77748
G1 X97.855 Y125.915 E3.80868
G1 X97.075 Y125.394 E3.83988
G1 X96.341 Y124.809 E3.8711
G1 X95.661 Y124.164 E3.90227
G1 X95.038 Y123.463 E3.93346
G1 X94.476 Y122.712 E3.96466
G1 X93.981 Y121.915 E3.99587
G1 X93.556 Y121.08 E4.02703
G1 X93.13 Y119.999 E4.06567
G1 X93.015 Y119.655 E4.07774
G1 X92.755 Y118.753 E4.10896
G1 X92.537 Y117.571 E4.14894
G1 X92.515 Y117.4 E4.15467
G1 X92.435 Y116.465 E4.18588
G1 X92.435 Y115.527 E4.21708
G0 F6000 X92.834 Y116.431
G1 F1200 X92.836 Y115.511 E4.24768
G1 X92.918 Y114.594 E4.2783
G1 X93.08 Y113.687 E4.30895
G1 X93.319 Y112.798 E4.33956
G1 X93.634 Y111.933 E4.37018
G1 X94.024 Y111.099 E4.4008
G1 X94.484 Y110.302 E4.43141
G1 X95.012 Y109.547 E4.46205
G1 X95.603 Y108.842 E4.49265
G1 X96.254 Y108.19 E4.5233
G1 X96.958 Y107.597 E4.55391
G1 X97.711 Y107.068 E4.58452
G1 X98.507 Y106.606 E4.61513
G1 X99.341 Y106.214 E4.64578
G1 X100.205 Y105.897 E4.67639
G1 X101.093 Y105.656 E4.70699
G1 X102 Y105.492 E4.73765
G1 X103.262 Y105.397 E4.77974
G1 X104.009 Y105.387 E4.80459
G1 X130.891 Y105.387 E5.69869
G1 X131.739 Y105.398 E5.7269
G1 X132.658 Y105.451 E5.75751
G1 X133.569 Y105.584 E5.78813
G1 X134.466 Y105.795 E5.81878
G1 X135.34 Y106.084 E5.8494
G1 X136.186 Y106.447 E5.88002
G1 X136.997 Y106.882 E5.91063
G1 X137.768 Y107.386 E5.94127
G1 X138.492 Y107.954 E5.97187
G1 X139.164 Y108.584 E6.00251
G1 X139.778 Y109.269 E6.0331
M73 P2
G1 X140.331 Y110.005 E6.06372
G1 X140.818 Y110.787 E6.09436
G1 X141.235 Y111.607 E6.12496
G1 X141.58 Y112.461 E6.1556
G1 X141.849 Y113.342 E6.18623
G1 X142.041 Y114.242 E6.21684
G1 X142.154 Y115.156 E6.24747
G1 X142.187 Y116.076 E6.27809
G1 X142.14 Y116.995 E6.3087
G1 X141.969 Y118.137 E6.3471
G1 X141.881 Y118.564 E6.36161
G1 X141.656 Y119.456 E6.3922
G1 X141.355 Y120.326 E6.42282
G1 X140.979 Y121.167 E6.45346
G1 X140.531 Y121.971 E6.48407
G1 X140.016 Y122.734 E6.51469
G1 X139.436 Y123.45 E6.54534
G1 X138.797 Y124.112 E6.57594
G1 X137.793 Y124.953 E6.6195
G1 X137.606 Y125.091 E6.62723
G1 X136.842 Y125.605 E6.65786
G1 X136.037 Y126.051 E6.68847
G1 X134.764 Y126.584 E6.73437
G1 X134.109 Y126.809 E6.7574
G1 X132.442 Y127.356 E6.81576
G1 X131.141 Y127.741 E6.86088
G1 X130.127 Y128.013 E6.8958
G1 X128.833 Y128.321 E6.94004
G1 X127.525 Y128.602 E6.98454
G1 X127.162 Y128.673 E6.99684
G1 X125.4 Y128.985 E7.05636
G1 X124.881 Y129.063 E7.07381
G1 X122.902 Y129.316 E7.14017
G1 X122.188 Y129.385 E7.16403
G1 X120.325 Y129.524 E7.22616
G1 X119.43 Y129.565 E7.25596
G1 X117.793 Y129.602 E7.31042
G1 X117.322 Y129.602 E7.32609
G1 X115.594 Y129.563 E7.38358
G1 X114.616 Y129.519 E7.41614
G1 X113.324 Y129.426 E7.45922
G1 X112.519 Y129.359 E7.48609
G1 X112.071 Y129.313 E7.50107
G1 X110.217 Y129.079 E7.56322
G1 X109.716 Y129.003 E7.58008
G1 X107.962 Y128.696 E7.6393
G1 X106.405 Y128.373 E7.69219
G1 X105.179 Y128.089 E7.73405
G1 X104.743 Y127.977 E7.74902
G1 X102.675 Y127.395 E7.82047
G1 X102.053 Y127.202 E7.84213
G1 X100.405 Y126.645 E7.89999
G1 X99.68 Y126.375 E7.92572
G1 X98.839 Y126.001 E7.95634
G1 X98.034 Y125.555 E7.98695
G1 X97.27 Y125.041 E8.01757
G1 X96.553 Y124.463 E8.0482
G1 X95.89 Y123.825 E8.07881
G1 X95.284 Y123.132 E8.10943
G1 X94.741 Y122.388 E8.14006
G1 X94.264 Y121.601 E8.17067
G1 X93.857 Y120.775 E8.2013
G1 X93.509 Y119.872 E8.23348
G1 X93.394 Y119.528 E8.24555
G1 X93.14 Y118.643 E8.27617
G1 X92.934 Y117.52 E8.31414
G1 X92.912 Y117.349 E8.31988
G1 X92.834 Y116.431 E8.35052
G0 F6000 X93.233 Y116.398
G1 F1200 X93.237 Y115.495 E8.38056
M73 P3
G1 X93.322 Y114.595 E8.41062
G1 X93.485 Y113.707 E8.44065
G1 X93.727 Y112.837 E8.47069
G1 X94.044 Y111.991 E8.50074
G1 X94.435 Y111.177 E8.53077
G1 X94.896 Y110.401 E8.56079
G1 X95.425 Y109.669 E8.59083
G1 X96.016 Y108.986 E8.62087
G1 X96.665 Y108.358 E8.65091
G1 X97.367 Y107.79 E8.68094
G1 X98.117 Y107.286 E8.711
G1 X98.908 Y106.851 E8.74102
G1 X99.734 Y106.487 E8.77104
G1 X100.59 Y106.198 E8.80109
G1 X101.468 Y105.986 E8.83113
G1 X102.361 Y105.852 E8.86117
G1 X103.268 Y105.797 E8.89139
G1 X104.009 Y105.787 E8.91604
G1 X130.891 Y105.787 E9.81014
G1 X131.734 Y105.798 E9.83818
G1 X132.635 Y105.851 E9.8682
G1 X133.528 Y105.983 E9.89822
G1 X134.407 Y106.194 E9.92829
G1 X135.263 Y106.482 E9.95833
G1 X136.09 Y106.845 E9.98837
G1 X136.882 Y107.279 E10.0184
G1 X137.632 Y107.781 E10.04842
G1 X138.335 Y108.348 E10.07846
G1 X138.985 Y108.975 E10.1085
G1 X139.577 Y109.657 E10.13854
G1 X140.107 Y110.389 E10.16859
G1 X140.569 Y111.164 E10.1986
G1 X140.962 Y111.978 E10.22867
G1 X141.28 Y112.823 E10.2587
G1 X141.523 Y113.693 E10.28874
G1 X141.688 Y114.58 E10.31875
G1 X141.774 Y115.479 E10.34878
G1 X141.78 Y116.383 E10.37885
G1 X141.706 Y117.283 E10.40889
G1 X141.577 Y118.056 E10.43495
G1 X141.489 Y118.483 E10.44945
G1 X141.268 Y119.358 E10.47947
G1 X140.97 Y120.211 E10.50952
G1 X140.598 Y121.034 E10.53956
G1 X140.154 Y121.821 E10.56962
G1 X139.643 Y122.565 E10.59964
G1 X139.068 Y123.261 E10.62966
G1 X138.434 Y123.904 E10.6597
G1 X137.556 Y124.631 E10.69761
G1 X137.369 Y124.769 E10.70534
G1 X136.619 Y125.273 E10.7354
G1 X135.828 Y125.708 E10.76542
G1 X134.634 Y126.206 E10.80845
G1 X133.984 Y126.429 E10.8313
G1 X132.317 Y126.976 E10.88966
G1 X131.029 Y127.357 E10.93433
G1 X130.025 Y127.626 E10.9689
G1 X128.539 Y127.977 E11.01969
G1 X127.092 Y128.279 E11.06885
G1 X125.33 Y128.591 E11.12837
G1 X124.831 Y128.666 E11.14515
G1 X122.862 Y128.918 E11.21117
G1 X122.158 Y128.986 E11.2347
G1 X120.295 Y129.125 E11.29683
G1 X119.414 Y129.165 E11.32617
G1 X117.784 Y129.202 E11.38039
G1 X117.331 Y129.203 E11.39546
G1 X115.61 Y129.163 E11.45272
G1 X114.644 Y129.12 E11.48488
G1 X113.357 Y129.028 E11.52779
M73 P4
G1 X112.552 Y128.961 E11.55466
G1 X112.121 Y128.916 E11.56907
G1 X110.267 Y128.682 E11.63123
G1 X109.785 Y128.609 E11.64744
G1 X108.031 Y128.302 E11.70667
G1 X106.488 Y127.982 E11.75908
G1 X105.27 Y127.7 E11.80066
G1 X104.851 Y127.592 E11.81505
G1 X102.793 Y127.013 E11.88616
G1 X102.171 Y126.82 E11.90782
G1 X100.532 Y126.266 E11.96536
G1 X99.827 Y126.003 E11.99039
G1 X99.002 Y125.635 E12.02044
G1 X98.213 Y125.196 E12.05047
G1 X97.466 Y124.689 E12.08049
G1 X96.766 Y124.117 E12.11056
G1 X96.12 Y123.486 E12.1406
G1 X95.532 Y122.801 E12.17062
G1 X95.007 Y122.066 E12.20066
G1 X94.549 Y121.287 E12.23072
G1 X94.162 Y120.472 E12.26073
G1 X93.888 Y119.745 E12.28657
G1 X93.773 Y119.401 E12.29863
G1 X93.525 Y118.533 E12.32866
G1 X93.33 Y117.469 E12.36464
G1 X93.308 Y117.298 E12.37037
G1 X93.233 Y116.398 E12.40041
G1 F2700 E7.40041
;MESH:pulpart1.stl
G0 F6000 X102.822 Y116.46
G0 X103.905 Y116.234
;TYPE:WALL-OUTER
G1 F2700 E12.40041
G1 F764.3 X103.828 Y116.234 E12.40443
G1 X103.789 Y116.301 E12.40848
G1 X103.827 Y116.368 E12.4125
G1 X103.905 Y116.368 E12.41657
G1 X103.944 Y116.301 E12.42062
G1 F2700 E7.42062
G0 F6000 X104.671 Y116.893
G0 X104.865 Y117.523
G0 X105.112 Y117.752
G0 X105.628 Y117.921
G0 X105.936 Y117.938
G0 X106.59 Y117.485
G0 X106.944 Y116.4
G0 X111.595 Y117.44
G0 X112.78 Y117.535
G0 X114.018 Y117.824
G0 X114.42 Y117.703
G0 X114.836 Y117.757
G0 X115.525 Y118.251
G1 F2700 E12.42062
G0 F6000 X115.617 Y118.752
G1 F1200 X115.884 Y118.368 E12.43618
G1 X116.096 Y118.179 E12.44562
G1 X116.322 Y118.074 E12.45391
G1 X116.627 Y118.063 E12.46406
G1 X116.888 Y118.156 E12.47328
G1 X117.095 Y118.341 E12.48251
G1 X117.331 Y118.716 E12.49725
G1 X117.411 Y118.81 E12.50135
G1 X117.624 Y118.786 E12.50848
G1 X117.867 Y118.393 E12.52385
G1 X118.134 Y118.15 E12.53586
G1 X118.453 Y118.055 E12.54693
G1 X118.764 Y118.102 E12.55739
G1 X119.031 Y118.273 E12.56794
G1 X119.33 Y118.679 E12.58471
G1 X119.415 Y118.767 E12.58878
M73 P5
G1 X119.603 Y118.756 E12.59504
G1 X119.874 Y118.283 E12.61317
G1 X120.07 Y118.087 E12.62239
G1 X120.378 Y117.963 E12.63343
G1 X120.728 Y117.991 E12.64511
G1 X121.022 Y118.166 E12.65649
G1 X121.318 Y118.535 E12.67222
G1 X121.407 Y118.62 E12.67632
G1 X121.596 Y118.596 E12.68265
G1 X121.828 Y118.139 E12.6997
G1 X122.021 Y117.917 E12.70948
G1 F1203 X122.332 Y117.772 E12.72087
G1 X122.582 Y117.769 E12.72916
G1 F1200 X122.751 Y117.802 E12.73489
G1 X122.994 Y117.947 E12.7443
G1 X123.296 Y118.296 E12.75965
G1 X123.388 Y118.375 E12.76369
G1 X123.589 Y118.329 E12.77054
G1 X123.787 Y117.874 E12.78705
G1 X124.028 Y117.596 E12.79929
G1 F1203 X124.307 Y117.473 E12.8094
G1 X124.608 Y117.47 E12.81939
G1 F1200 X124.886 Y117.593 E12.8295
G1 X125.264 Y117.959 E12.847
G1 X125.341 Y118.035 E12.8506
G1 X125.552 Y117.984 E12.85782
G1 X125.729 Y117.518 E12.8744
G1 X125.906 Y117.268 E12.88459
G1 F1203 X126.19 Y117.098 E12.89557
G1 X126.515 Y117.066 E12.9064
G1 F1200 X126.84 Y117.185 E12.91791
G1 X127.211 Y117.522 E12.93458
G1 X127.305 Y117.594 E12.93852
G1 X127.506 Y117.527 E12.94557
G1 X127.673 Y117.012 E12.96358
G1 X127.861 Y116.758 E12.97409
G1 F1197 X128.106 Y116.609 E12.98365
G1 F1209.1 X128.449 Y116.577 E12.99502
G1 F1134.8 X128.759 Y116.65 E13.00622
G1 F948.6 X128.986 Y116.759 E13.01682
G1 F857.1 X129.234 Y116.972 E13.03204
G1 X129.354 Y116.934 E13.0379
G1 X129.474 Y116.495 E13.05909
G1 X129.589 Y116.268 E13.07094
G1 X129.169 Y116.268 E13.0905
G1 F948.6 X128.845 Y116.213 E13.10432
G1 F1134.8 X128.461 Y116.183 E13.11787
G1 F1209.1 X128.003 Y116.189 E13.13299
G1 F1197 X127.184 Y116.187 E13.1603
G1 F1200 X123.185 Y116.187 E13.29331
G1 X122.728 Y116.187 E13.30851
G1 X112.799 Y116.188 E13.63875
G1 X106.823 Y116.188 E13.83751
G1 F1212.1 X106.538 Y116.183 E13.84689
G1 F1132.1 X106.142 Y116.216 E13.8609
G1 F944.9 X105.828 Y116.267 E13.87434
G1 F855.6 X105.408 Y116.268 E13.89393
G1 X105.513 Y116.455 E13.90394
G1 X105.642 Y116.931 E13.92694
G1 X105.767 Y116.973 E13.93309
G1 X106.012 Y116.76 E13.94824
G1 F944.9 X106.23 Y116.654 E13.95848
G1 F1126.8 X106.504 Y116.577 E13.96856
G1 F1206 X106.812 Y116.588 E13.97876
G1 F1200 X107.098 Y116.725 E13.98931
G1 X107.299 Y116.961 E13.99962
G1 X107.463 Y117.436 E14.01633
G1 X107.498 Y117.537 E14.01989
G1 X107.709 Y117.592 E14.02714
G1 X108.086 Y117.235 E14.04441
M73 P6
G1 F1203 X108.336 Y117.1 E14.05383
G1 X108.66 Y117.066 E14.06464
G1 F1200 X108.979 Y117.178 E14.07589
G1 X109.215 Y117.417 E14.08706
G1 X109.406 Y117.889 E14.10399
G1 X109.46 Y117.994 E14.10792
G1 X109.677 Y118.019 E14.11519
G1 X109.995 Y117.682 E14.1306
G1 X110.119 Y117.582 E14.13589
G1 X110.377 Y117.47 E14.14525
G1 X110.66 Y117.468 E14.15466
G1 X110.955 Y117.584 E14.16521
G1 X111.173 Y117.809 E14.17563
G1 X111.371 Y118.245 E14.19155
G1 X111.432 Y118.347 E14.1955
G1 X111.645 Y118.359 E14.2026
G1 X111.947 Y118.005 E14.21808
G1 X112.167 Y117.839 E14.22724
G1 X112.493 Y117.755 E14.23844
G1 X112.835 Y117.828 E14.25007
G1 X113.087 Y118.022 E14.26065
G1 X113.353 Y118.505 E14.27899
G1 X113.401 Y118.597 E14.28244
G1 X113.625 Y118.609 E14.2899
G1 X113.913 Y118.235 E14.3056
G1 X114.15 Y118.053 E14.31554
G1 X114.326 Y117.975 E14.32194
G1 X114.587 Y117.957 E14.33064
G1 X114.86 Y118.044 E14.34017
G1 X115.097 Y118.245 E14.35051
G1 X115.341 Y118.661 E14.36655
G1 X115.411 Y118.756 E14.37048
G1 X115.617 Y118.752 E14.37733
G0 F6000 X115.525 Y118.251
G0 X115.174 Y117.757
G0 X115.168 Y117.765
;TYPE:WALL-INNER
G1 F1200 X115.371 Y117.953 E14.38653
G1 X115.529 Y118.179 E14.3957
G1 X115.698 Y117.976 E14.40449
G1 X115.902 Y117.829 E14.41285
G1 X116.236 Y117.682 E14.42499
G1 X116.511 Y117.656 E14.43418
G1 X116.749 Y117.682 E14.44214
G1 X117.117 Y117.828 E14.45531
G1 X117.351 Y118.033 E14.46565
G1 X117.499 Y118.228 E14.4738
G1 X117.654 Y118.018 E14.48248
G1 X117.902 Y117.824 E14.49295
G1 X118.139 Y117.714 E14.50164
G1 X118.392 Y117.659 E14.51025
G1 X118.618 Y117.663 E14.51777
G1 X119.056 Y117.798 E14.53301
G1 X119.279 Y117.959 E14.54216
G1 X119.469 Y118.184 E14.55196
G1 X119.639 Y117.942 E14.56179
G1 X119.832 Y117.764 E14.57053
G1 X120.248 Y117.585 E14.58559
G1 X120.53 Y117.559 E14.59501
G1 X120.785 Y117.595 E14.60357
G1 X121.025 Y117.685 E14.6121
G1 X121.27 Y117.852 E14.62196
G1 X121.434 Y118.03 E14.63001
G1 X121.592 Y117.793 E14.63948
G1 X121.756 Y117.617 E14.64748
G1 F1081.1 X122.166 Y117.359 E14.66537
G1 F888.9 X122.287 Y117.27 E14.67211
G1 F810.8 X122.621 Y117.275 E14.68856
