;FLAVOR:Marlin
M73 P0
M73 R32
;TIME:1892
;Filament used: 1.24361m
;Layer height: 0.2
;MINX:70.513
;MINY:74.513
;MINZ:0.2
;MAXX:158.487
;MAXY:162.487
;MAXZ:12.113
;POSTPROCESSED
;Generated with Cura_SteamEngine 5.0.0
M140 S50
M105
M190 S50
M104 S215
M105
M109 S215
M82 ;absolute extrusion mode
; Ender 3 Custom Start G-code
G92 E0 ; Reset Extruder
G28 ; Home all axes
G1 Z2.0 F3000 ; Move Z Axis up little to prevent scratching of Heat Bed
G1 X0.1 Y20 Z0.3 F5000.0 ; Move to start position
G1 X0.1 Y200.0 Z0.3 F1500.0 E15 ; Draw the first line
G1 X0.4 Y200.0 Z0.3 F5000.0 ; Move to side a little
G1 X0.4 Y20 Z0.3 F1500.0 E30 ; Draw the second line
G92 E0 ; Reset Extruder
G1 Z2.0 F3000 ; Move Z Axis up little to prevent scratching of Heat Bed
G1 X5 Y20 Z0.3 F5000.0 ; Move over to prevent blob squish
G92 E0
G92 E0
G1 F2700 E-5
;LAYER_COUNT:60
;LAYER:0
M107
G0 F6000 X82.628 Y88.219 Z0.2
G0 X80.05 Y91.199
;TYPE:SKIRT
G1 F2700 E0
G1 F1200 X80.468 Y90.645 E0.02308
G1 X80.955 Y90.045 E0.04878
G1 X81.719 Y89.168 E0.08747
G1 X82.158 Y88.692 E0.10901
G1 X82.628 Y88.219 E0.13119
G1 X85.283 Y85.66 E0.25383
G1 X85.744 Y85.227 E0.27487
G1 X86.35 Y84.699 E0.3016
G1 X87.299 Y83.93 E0.34223
G1 X87.889 Y83.484 E0.36683
G1 X88.475 Y83.073 E0.39063
G1 X91.375 Y81.121 E0.5069
G1 X92.001 Y80.712 E0.53177
G1 X92.702 Y80.291 E0.55897
G1 X93.74 Y79.718 E0.5984
G1 X94.317 Y79.421 E0.61999
G1 X94.919 Y79.138 E0.64211
G1 X98.264 Y77.653 E0.76384
G1 X98.892 Y77.385 E0.78655
G1 X99.628 Y77.102 E0.81278
G1 X100.772 Y76.708 E0.85302
G1 X101.466 Y76.494 E0.87717
G1 X102.11 Y76.321 E0.89935
G1 X105.609 Y75.454 E1.01925
G1 X106.306 Y75.292 E1.04305
G1 X107.1 Y75.137 E1.06996
G1 X108.273 Y74.954 E1.10944
G1 X108.919 Y74.873 E1.1311
G1 X109.575 Y74.814 E1.153
G1 X113.166 Y74.567 E1.27272
G1 X113.906 Y74.527 E1.29737
G1 X114.692 Y74.513 E1.32352
G1 X115.896 Y74.534 E1.36357
G1 X116.551 Y74.565 E1.38538
G1 X117.141 Y74.614 E1.40507
G1 X120.838 Y75.005 E1.52872
G1 X121.552 Y75.091 E1.55264
G1 X122.336 Y75.214 E1.57903
G1 X123.504 Y75.441 E1.61861
G1 X124.192 Y75.598 E1.64208
G1 X124.781 Y75.755 E1.66235
G1 X128.35 Y76.783 E1.78588
G1 X128.992 Y76.978 E1.8082
G1 X129.763 Y77.244 E1.83533
G1 X130.898 Y77.683 E1.8758
G1 X131.564 Y77.966 E1.89987
G1 X132.153 Y78.242 E1.92151
G1 X135.364 Y79.812 E2.04039
G1 X135.985 Y80.127 E2.06355
G1 X136.695 Y80.521 E2.09055
G1 X137.725 Y81.143 E2.13057
G1 X138.253 Y81.482 E2.15144
G1 X138.772 Y81.843 E2.17247
G1 X141.801 Y84.05 E2.29712
G1 X142.355 Y84.468 E2.3202
G1 X142.951 Y84.951 E2.34572
G1 X143.822 Y85.709 E2.38412
G1 X144.304 Y86.154 E2.40594
G1 X144.781 Y86.628 E2.42831
G1 X147.34 Y89.283 E2.55095
G1 X147.773 Y89.744 E2.57199
G1 X148.304 Y90.353 E2.59886
G1 X149.07 Y91.299 E2.63935
G1 X149.504 Y91.872 E2.66326
G1 X149.927 Y92.475 E2.68775
G1 X151.877 Y95.373 E2.80393
G1 X152.283 Y95.994 E2.82861
G1 X152.704 Y96.693 E2.85575
G1 X153.277 Y97.73 E2.89515
G1 X153.574 Y98.308 E2.91677
G1 X153.862 Y98.919 E2.93923
G1 X155.347 Y102.264 E3.06096
G1 X155.615 Y102.892 E3.08367
G1 X155.901 Y103.636 E3.11018
G1 X156.292 Y104.774 E3.1502
G1 X156.494 Y105.428 E3.17297
G1 X156.679 Y106.11 E3.19647
G1 X157.542 Y109.589 E3.31569
G1 X157.699 Y110.259 E3.33858
G1 X157.855 Y111.054 E3.36553
G1 X158.042 Y112.239 E3.40543
G1 X158.127 Y112.919 E3.42822
G1 X158.186 Y113.576 E3.45016
G1 X158.433 Y117.166 E3.56984
G1 X158.473 Y117.904 E3.59443
G1 X158.487 Y118.691 E3.62061
G1 X158.466 Y119.891 E3.66053
G1 X158.433 Y120.573 E3.68324
G1 X158.376 Y121.244 E3.70563
G1 X157.995 Y124.836 E3.82577
G1 X157.91 Y125.543 E3.84946
G1 X157.786 Y126.333 E3.87605
G1 X157.557 Y127.509 E3.9159
G1 X157.411 Y128.154 E3.9379
G1 X157.251 Y128.757 E3.95865
G1 X156.222 Y132.334 E4.08245
G1 X156.022 Y132.991 E4.10529
G1 X155.763 Y133.743 E4.13174
G1 X155.323 Y134.885 E4.17245
G1 X155.03 Y135.575 E4.19738
G1 X154.758 Y136.154 E4.21866
G1 X153.188 Y139.366 E4.33757
G1 X152.878 Y139.977 E4.36035
G1 X152.487 Y140.681 E4.38714
G1 X151.867 Y141.709 E4.42707
G1 X151.529 Y142.236 E4.44789
G1 X151.168 Y142.755 E4.46892
G1 X148.95 Y145.801 E4.59424
G1 X148.532 Y146.355 E4.61732
G1 X148.045 Y146.955 E4.64303
G1 X147.281 Y147.832 E4.68171
G1 X146.842 Y148.308 E4.70325
G1 X146.372 Y148.781 E4.72543
G1 X143.717 Y151.34 E4.84807
G1 X143.256 Y151.773 E4.86911
G1 X142.645 Y152.306 E4.89608
G1 X141.691 Y153.078 E4.93689
G1 X141.115 Y153.514 E4.96092
G1 X140.525 Y153.927 E4.98487
G1 X137.627 Y155.877 E5.10105
G1 X137.006 Y156.283 E5.12573
G1 X136.305 Y156.705 E5.15294
G1 X135.262 Y157.281 E5.19257
G1 X134.688 Y157.577 E5.21405
G1 X134.094 Y157.856 E5.23588
G1 X130.736 Y159.347 E5.35808
G1 X130.108 Y159.615 E5.38079
G1 X129.372 Y159.898 E5.40702
G1 X128.228 Y160.292 E5.44726
G1 X127.534 Y160.506 E5.47142
G1 X126.89 Y160.679 E5.49359
G1 X123.391 Y161.546 E5.61349
G1 X122.694 Y161.708 E5.63729
G1 X121.9 Y161.863 E5.6642
G1 X120.727 Y162.046 E5.70368
G1 X120.081 Y162.127 E5.72534
G1 X119.425 Y162.186 E5.74725
G1 X115.834 Y162.433 E5.86696
G1 X115.094 Y162.473 E5.89161
G1 X114.307 Y162.487 E5.91779
G1 X113.11 Y162.466 E5.95761
G1 X112.406 Y162.431 E5.98106
G1 X111.719 Y162.372 E6.00399
G1 X108.162 Y161.995 E6.12296
G1 X107.448 Y161.909 E6.14688
G1 X106.664 Y161.786 E6.17327
G1 X105.496 Y161.559 E6.21285
G1 X104.808 Y161.402 E6.23632
G1 X104.219 Y161.245 E6.25659
G1 X100.65 Y160.217 E6.38012
G1 X100.008 Y160.022 E6.40244
G1 X99.237 Y159.756 E6.42957
G1 X98.102 Y159.317 E6.47004
G1 X97.436 Y159.034 E6.49411
G1 X96.847 Y158.758 E6.51575
G1 X93.642 Y157.191 E6.6344
G1 X93.02 Y156.876 E6.65759
G1 X92.303 Y156.479 E6.68485
G1 X91.283 Y155.863 E6.72448
G1 X90.783 Y155.542 E6.74425
G1 X90.228 Y155.158 E6.76669
G1 X87.189 Y152.943 E6.89177
G1 X86.635 Y152.524 E6.91487
G1 X86.044 Y152.045 E6.94017
G1 X85.166 Y151.28 E6.97891
G1 X84.707 Y150.856 E6.99969
G1 X84.218 Y150.372 E7.02257
G1 X81.643 Y147.7 E7.146
G1 X81.21 Y147.237 E7.16708
G1 X80.697 Y146.647 E7.19308
G1 X79.925 Y145.694 E7.23388
G1 X79.482 Y145.109 E7.25828
G1 X79.073 Y144.525 E7.282
G1 X77.121 Y141.624 E7.39829
G1 X76.714 Y141.001 E7.42304
G1 X76.294 Y140.303 E7.45014
G1 X75.719 Y139.262 E7.48969
G1 X75.421 Y138.683 E7.51135
G1 X75.138 Y138.081 E7.53348
G1 X73.649 Y134.726 E7.65556
G1 X73.38 Y134.094 E7.67841
G1 X73.102 Y133.371 E7.70417
G1 X72.709 Y132.231 E7.74428
G1 X72.494 Y131.534 E7.76854
G1 X72.321 Y130.889 E7.79075
G1 X71.451 Y127.379 E7.91102
G1 X71.292 Y126.695 E7.93438
G1 X71.137 Y125.9 E7.96132
G1 X70.954 Y124.727 E8.0008
G1 X70.873 Y124.078 E8.02256
G1 X70.814 Y123.424 E8.0444
G1 X70.567 Y119.834 E8.16408
G1 X70.527 Y119.096 E8.18867
G1 X70.513 Y118.309 E8.21485
G1 X70.534 Y117.104 E8.25493
G1 X70.57 Y116.385 E8.27887
G1 X70.628 Y115.719 E8.30111
G1 X71.005 Y112.162 E8.42008
G1 X71.091 Y111.448 E8.444
G1 X71.215 Y110.661 E8.4705
G1 X71.443 Y109.49 E8.51018
G1 X71.597 Y108.811 E8.53333
G1 X71.755 Y108.219 E8.55371
G1 X72.783 Y104.65 E8.67724
M73 P1
G1 X72.978 Y104.008 E8.69956
G1 X73.244 Y103.237 E8.72669
G1 X73.683 Y102.102 E8.76716
G1 X73.966 Y101.436 E8.79123
G1 X74.242 Y100.847 E8.81287
G1 X75.812 Y97.636 E8.93175
G1 X76.127 Y97.015 E8.95491
G1 X76.521 Y96.305 E8.98191
G1 X77.143 Y95.275 E9.02193
G1 X77.482 Y94.747 E9.0428
G1 X77.843 Y94.228 E9.06383
G1 X80.05 Y91.199 E9.18848
G1 F2700 E4.18848
G0 F6000 X76.525 Y97.998
G1 F2700 E9.18848
G1 F1200 X76.84 Y97.377 E9.21164
G1 X77.206 Y96.718 E9.23671
G1 X77.828 Y95.688 E9.27673
G1 X78.142 Y95.199 E9.29606
G1 X78.49 Y94.699 E9.31632
G1 X80.689 Y91.681 E9.44052
G1 X81.107 Y91.127 E9.4636
G1 X81.558 Y90.57 E9.48744
G1 X82.322 Y89.693 E9.52613
G1 X82.73 Y89.252 E9.54611
G1 X83.184 Y88.795 E9.56753
G1 X85.831 Y86.243 E9.68983
G1 X86.292 Y85.81 E9.71086
G1 X86.853 Y85.32 E9.73564
G1 X87.802 Y84.551 E9.77626
G1 X88.349 Y84.138 E9.79906
G1 X88.922 Y83.737 E9.82232
G1 X91.813 Y81.791 E9.93823
G1 X92.439 Y81.382 E9.9631
G1 X93.089 Y80.991 E9.98833
G1 X94.127 Y80.418 E10.02776
G1 X94.662 Y80.143 E10.04777
G1 X95.244 Y79.869 E10.06917
G1 X98.578 Y78.389 E10.19049
G1 X99.206 Y78.121 E10.2132
G1 X99.889 Y77.858 E10.23754
G1 X101.033 Y77.464 E10.27779
G1 X101.676 Y77.266 E10.30016
G1 X102.303 Y77.098 E10.32175
G1 X105.79 Y76.233 E10.44125
G1 X106.487 Y76.071 E10.46505
G1 X107.224 Y75.928 E10.49002
G1 X108.397 Y75.745 E10.5295
G1 X108.995 Y75.67 E10.54955
G1 X109.63 Y75.612 E10.57076
G1 X113.209 Y75.366 E10.69008
G1 X113.949 Y75.326 E10.71472
G1 X114.678 Y75.313 E10.73897
G1 X115.882 Y75.334 E10.77903
G1 X116.489 Y75.362 E10.79924
G1 X117.057 Y75.41 E10.8182
G1 X120.743 Y75.799 E10.94147
G1 X121.457 Y75.885 E10.96539
G1 X122.183 Y75.999 E10.98984
G1 X123.351 Y76.226 E11.02941
G1 X123.989 Y76.372 E11.05118
G1 X124.559 Y76.524 E11.0708
G1 X128.117 Y77.548 E11.19394
G1 X128.759 Y77.743 E11.21626
G1 X129.475 Y77.99 E11.24145
G1 X130.61 Y78.429 E11.28193
G1 X131.227 Y78.691 E11.30422
G1 X131.802 Y78.96 E11.32533
G1 X135.002 Y80.525 E11.44381
G1 X135.623 Y80.84 E11.46697
G1 X136.282 Y81.206 E11.49205
G1 X137.312 Y81.828 E11.53207
G1 X137.801 Y82.142 E11.55139
G1 X138.301 Y82.49 E11.57166
G1 X141.319 Y84.689 E11.69585
G1 X141.873 Y85.107 E11.71894
G1 X142.426 Y85.555 E11.74261
G1 X143.297 Y86.313 E11.78101
G1 X143.744 Y86.725 E11.80123
G1 X144.205 Y87.184 E11.82287
G1 X146.757 Y89.831 E11.94516
G1 X147.19 Y90.292 E11.9662
G1 X147.682 Y90.856 E11.99109
G1 X148.448 Y91.802 E12.03158
G1 X148.851 Y92.334 E12.05377
G1 X149.263 Y92.922 E12.07765
G1 X151.207 Y95.81 E12.19344
G1 X151.613 Y96.431 E12.21812
G1 X152.004 Y97.08 E12.24332
G1 X152.577 Y98.117 E12.28273
G1 X152.853 Y98.653 E12.30278
G1 X153.131 Y99.244 E12.3245
G1 X154.611 Y102.578 E12.44583
G1 X154.879 Y103.206 E12.46854
G1 X155.144 Y103.896 E12.49312
G1 X155.535 Y105.034 E12.53314
G1 X155.723 Y105.64 E12.55424
G1 X155.902 Y106.303 E12.57708
G1 X156.763 Y109.772 E12.69597
G1 X156.92 Y110.442 E12.71885
G1 X157.064 Y111.179 E12.74383
G1 X157.251 Y112.364 E12.78373
G1 X157.331 Y112.994 E12.80485
G1 X157.388 Y113.631 E12.82612
G1 X157.634 Y117.209 E12.94541
G1 X157.674 Y117.947 E12.96999
G1 X157.687 Y118.677 E12.99428
G1 X157.666 Y119.877 E13.03419
G1 X157.636 Y120.509 E13.05524
G1 X157.581 Y121.16 E13.07697
G1 X157.201 Y124.741 E13.19674
G1 X157.116 Y125.448 E13.22042
G1 X157.001 Y126.18 E13.24507
G1 X156.772 Y127.356 E13.28492
G1 X156.637 Y127.954 E13.30531
G1 X156.482 Y128.537 E13.32537
G1 X155.457 Y132.101 E13.44872
G1 X155.257 Y132.758 E13.47156
G1 X155.017 Y133.455 E13.49608
G1 X154.577 Y134.597 E13.53678
G1 X154.305 Y135.237 E13.55991
G1 X154.04 Y135.803 E13.5807
G1 X152.474 Y139.004 E13.69922
G1 X152.164 Y139.615 E13.72201
G1 X151.802 Y140.268 E13.74684
G1 X151.182 Y141.296 E13.78677
G1 X150.869 Y141.784 E13.80605
G1 X150.521 Y142.285 E13.82634
G1 X148.311 Y145.319 E13.95119
G1 X147.893 Y145.873 E13.97427
G1 X147.442 Y146.43 E13.99811
G1 X146.678 Y147.307 E14.03679
G1 X146.27 Y147.748 E14.05677
G1 X145.816 Y148.205 E14.0782
G1 X143.169 Y150.757 E14.20049
G1 X142.708 Y151.19 E14.22153
G1 X142.141 Y151.684 E14.24654
G1 X141.187 Y152.456 E14.28736
G1 X140.653 Y152.86 E14.30963
G1 X140.078 Y153.263 E14.33298
G1 X137.19 Y155.207 E14.44877
G1 X136.569 Y155.613 E14.47345
G1 X135.918 Y156.005 E14.49872
G1 X134.875 Y156.581 E14.53835
G1 X134.343 Y156.855 E14.55826
G1 X133.769 Y157.125 E14.57935
G1 X130.422 Y158.611 E14.70115
G1 X129.794 Y158.879 E14.72386
G1 X129.111 Y159.142 E14.74821
G1 X127.967 Y159.536 E14.78845
G1 X127.324 Y159.734 E14.81083
G1 X126.697 Y159.902 E14.83242
G1 X123.21 Y160.767 E14.95191
G1 X122.513 Y160.929 E14.97571
G1 X121.776 Y161.072 E15.00068
G1 X120.603 Y161.255 E15.04017
G1 X120.005 Y161.33 E15.06021
G1 X119.37 Y161.388 E15.08142
G1 X115.791 Y161.634 E15.20074
G1 X115.051 Y161.674 E15.22539
G1 X114.321 Y161.687 E15.24967
G1 X113.124 Y161.666 E15.28949
G1 X112.472 Y161.634 E15.3112
G1 X111.803 Y161.577 E15.33353
G1 X108.257 Y161.201 E15.45213
G1 X107.543 Y161.115 E15.47605
G1 X106.817 Y161.001 E15.5005
G1 X105.649 Y160.774 E15.54007
G1 X105.011 Y160.628 E15.56184
G1 X104.441 Y160.476 E15.58146
G1 X100.883 Y159.452 E15.7046
G1 X100.241 Y159.257 E15.72692
G1 X99.525 Y159.01 E15.75211
G1 X98.39 Y158.571 E15.79259
G1 X97.773 Y158.309 E15.81488
G1 X97.198 Y158.04 E15.836
G1 X94.004 Y156.478 E15.95425
G1 X93.382 Y156.163 E15.97744
G1 X92.717 Y155.794 E16.00274
G1 X91.697 Y155.178 E16.04237
G1 X91.233 Y154.88 E16.06071
G1 X90.699 Y154.511 E16.0823
G1 X87.671 Y152.305 E16.2069
G1 X87.117 Y151.886 E16.23001
G1 X86.569 Y151.441 E16.25348
G1 X85.691 Y150.676 E16.29222
G1 X85.266 Y150.283 E16.31147
G1 X84.794 Y149.816 E16.33355
G1 X82.227 Y147.153 E16.45658
G1 X81.794 Y146.69 E16.47766
G1 X81.318 Y146.143 E16.50178
G1 X80.546 Y145.19 E16.54257
G1 X80.136 Y144.648 E16.56517
G1 X79.737 Y144.078 E16.58831
G1 X77.791 Y141.187 E16.70422
G1 X77.384 Y140.564 E16.72898
G1 X76.994 Y139.917 E16.7541
G1 X76.419 Y138.876 E16.79366
G1 X76.143 Y138.338 E16.81377
G1 X75.869 Y137.756 E16.83516
G1 X74.385 Y134.413 E16.95681
G1 X74.116 Y133.781 E16.97966
G1 X73.858 Y133.11 E17.00357
G1 X73.465 Y131.97 E17.04368
G1 X73.266 Y131.324 E17.06616
G1 X73.098 Y130.697 E17.08775
G1 X72.23 Y127.197 E17.20769
G1 X72.071 Y126.513 E17.23104
G1 X71.928 Y125.776 E17.25601
G1 X71.745 Y124.603 E17.2955
M73 P2
G1 X71.669 Y124.002 E17.31565
G1 X71.612 Y123.369 E17.33679
G1 X71.366 Y119.791 E17.45607
G1 X71.326 Y119.053 E17.48065
G1 X71.313 Y118.323 E17.50494
G1 X71.334 Y117.118 E17.54502
G1 X71.367 Y116.451 E17.56723
G1 X71.423 Y115.803 E17.58887
G1 X71.799 Y112.257 E17.70747
G1 X71.885 Y111.543 E17.73139
G1 X72 Y110.814 E17.75593
G1 X72.228 Y109.643 E17.79561
G1 X72.371 Y109.014 E17.81707
G1 X72.524 Y108.441 E17.83679
G1 X73.548 Y104.883 E17.95994
G1 X73.743 Y104.241 E17.98225
G1 X73.99 Y103.525 E18.00744
G1 X74.429 Y102.39 E18.04792
G1 X74.691 Y101.773 E18.07021
G1 X74.96 Y101.198 E18.09133
G1 X76.525 Y97.998 E18.20981
G1 F2700 E13.20981
G0 F6000 X73.166 Y104.766
G1 F2700 E18.20981
G1 F1200 X73.361 Y104.124 E18.23212
G1 X73.617 Y103.381 E18.25826
G1 X74.056 Y102.246 E18.29874
G1 X74.328 Y101.605 E18.3219
G1 X74.601 Y101.023 E18.34328
G1 X76.169 Y97.817 E18.46198
G1 X76.484 Y97.196 E18.48514
G1 X76.863 Y96.511 E18.51118
G1 X77.485 Y95.481 E18.5512
G1 X77.812 Y94.973 E18.57129
G1 X78.167 Y94.463 E18.59196
G1 X80.369 Y91.44 E18.71635
G1 X80.787 Y90.886 E18.73943
G1 X81.256 Y90.307 E18.76422
G1 X82.02 Y89.43 E18.8029
G1 X82.444 Y88.972 E18.82366
G1 X82.906 Y88.507 E18.84546
G1 X85.557 Y85.952 E18.96792
G1 X86.018 Y85.519 E18.98896
G1 X86.602 Y85.009 E19.01474
G1 X87.551 Y84.24 E19.05537
G1 X88.119 Y83.811 E19.07904
G1 X88.699 Y83.405 E19.10259
G1 X91.594 Y81.456 E19.21867
G1 X92.22 Y81.047 E19.24354
G1 X92.895 Y80.641 E19.26974
G1 X93.933 Y80.068 E19.30917
G1 X94.49 Y79.782 E19.33
G1 X95.082 Y79.504 E19.35175
G1 X98.421 Y78.021 E19.47327
G1 X99.049 Y77.753 E19.49598
G1 X99.758 Y77.48 E19.52125
G1 X100.902 Y77.086 E19.56149
G1 X101.571 Y76.88 E19.58477
G1 X102.206 Y76.71 E19.60664
G1 X105.699 Y75.843 E19.72634
G1 X106.396 Y75.681 E19.75014
G1 X107.162 Y75.533 E19.77609
G1 X108.335 Y75.35 E19.81557
G1 X108.957 Y75.271 E19.83643
G1 X109.602 Y75.213 E19.85797
G1 X113.188 Y74.966 E19.97752
G1 X113.928 Y74.926 E20.00217
G1 X114.685 Y74.913 E20.02735
G1 X115.889 Y74.934 E20.0674
G1 X116.52 Y74.963 E20.08841
G1 X117.099 Y75.012 E20.10774
G1 X120.791 Y75.402 E20.23122
G1 X121.505 Y75.488 E20.25514
G1 X122.259 Y75.607 E20.28052
G1 X123.427 Y75.834 E20.3201
G1 X124.091 Y75.985 E20.34275
G1 X124.67 Y76.14 E20.36268
G1 X128.234 Y77.166 E20.48604
G1 X128.876 Y77.361 E20.50835
G1 X129.619 Y77.617 E20.53449
G1 X130.754 Y78.056 E20.57497
