;FLAVOR:Marlin
M73 P0
M73 R21
;TIME:1240
;Filament used: 0.67281m
;Layer height: 0.2
;MINX:43.243
;MINY:64.919
;MINZ:0.2
;MAXX:191.597
;MAXY:186.911
;MAXZ:7
;POSTPROCESSED
;Generated with Cura_SteamEngine 4.11.0
M140 S50
M105
M190 S50
M104 S215
M105
M109 S215
M82 ;absolute extrusion mode
; Ender 3 Custom Start G-code
G92 E0 ; Reset Extruder
G28 ; Home all axes
G1 Z2.0 F3000 ; Move Z Axis up little to prevent scratching of Heat Bed
G1 X0.1 Y20 Z0.3 F5000.0 ; Move to start position
G1 X0.1 Y200.0 Z0.3 F1500.0 E15 ; Draw the first line
G1 X0.4 Y200.0 Z0.3 F5000.0 ; Move to side a little
G1 X0.4 Y20 Z0.3 F1500.0 E30 ; Draw the second line
G92 E0 ; Reset Extruder
G1 Z2.0 F3000 ; Move Z Axis up little to prevent scratching of Heat Bed
G1 X5 Y20 Z0.3 F5000.0 ; Move over to prevent blob squish
G92 E0
G92 E0
G1 F2700 E-5
;LAYER_COUNT:10
;LAYER:0
M107
G0 F6000 X138.71 Y72.432 Z0.2
;TYPE:SKIRT
G1 F2700 E0
G1 F1200 X139.146 Y71.601 E0.03121
G1 X139.651 Y70.811 E0.0624
G1 X140.221 Y70.067 E0.09357
G1 X140.579 Y69.66 E0.1116
G1 X140.676 Y69.555 E0.11635
G1 X140.906 Y69.313 E0.12746
G1 X141.312 Y68.901 E0.1467
G1 X141.698 Y68.517 E0.16481
G1 X142.197 Y68.033 E0.18793
G1 X142.898 Y67.409 E0.21914
G1 X143.649 Y66.848 E0.25032
G1 X144.445 Y66.352 E0.28151
G1 X145.28 Y65.926 E0.31269
G1 X146.149 Y65.572 E0.3439
G1 X147.045 Y65.294 E0.3751
G1 X147.961 Y65.093 E0.40629
G1 X148.891 Y64.971 E0.43749
G1 X149.505 Y64.935 E0.45795
G1 X149.917 Y64.924 E0.47166
G1 X150.391 Y64.919 E0.48742
G1 X152.552 Y64.919 E0.5593
G1 X153.408 Y64.93 E0.58777
G1 X154.302 Y64.979 E0.61755
G1 X155.738 Y65.117 E0.66553
G1 X156.218 Y65.169 E0.68159
G1 X158.711 Y65.371 E0.76478
G1 X161.249 Y65.505 E0.84931
G1 X163.762 Y65.565 E0.93292
G1 X166.292 Y65.555 E1.01707
G1 X168.77 Y65.475 E1.09953
G1 X171.304 Y65.32 E1.18397
G1 X173.864 Y65.092 E1.26945
G1 X174.561 Y65.015 E1.29277
G1 X175.01 Y64.973 E1.30777
G1 X175.618 Y64.935 E1.32803
G1 X175.797 Y64.929 E1.33399
G1 X176.42 Y64.92 E1.35471
G1 X178.687 Y64.919 E1.43011
G1 X179.546 Y64.93 E1.45869
G1 X180.482 Y64.983 E1.48987
G1 X181.41 Y65.116 E1.52105
G1 X182.324 Y65.328 E1.55226
G1 X183.217 Y65.616 E1.58346
G1 X184.081 Y65.98 E1.61465
G1 X184.912 Y66.416 E1.64586
G1 X185.702 Y66.921 E1.67704
G1 X186.446 Y67.491 E1.70822
G1 X186.858 Y67.854 E1.72648
G1 X187.188 Y68.164 E1.74154
G1 X187.535 Y68.503 E1.75767
G1 X187.919 Y68.886 E1.77571
G1 X188.464 Y69.445 E1.80168
G1 X189.09 Y70.144 E1.83289
G1 X189.653 Y70.893 E1.86405
G1 X190.151 Y71.688 E1.89526
G1 X190.579 Y72.523 E1.92646
G1 X190.935 Y73.391 E1.95767
G1 X191.215 Y74.286 E1.98886
G1 X191.419 Y75.201 E2.02004
G1 X191.543 Y76.131 E2.05124
G1 X191.583 Y76.801 E2.07357
G1 X191.59 Y77.093 E2.08328
G1 X191.597 Y77.721 E2.10417
G1 X191.596 Y99.169 E2.81753
G1 X191.586 Y99.871 E2.84088
G1 X191.533 Y100.807 E2.87207
G1 X191.4 Y101.735 E2.90325
G1 X191.188 Y102.649 E2.93445
G1 X190.9 Y103.542 E2.96566
G1 X190.536 Y104.406 E2.99684
G1 X190.1 Y105.237 E3.02806
G1 X189.595 Y106.027 E3.05924
G1 X189.025 Y106.771 E3.09042
G1 X188.667 Y107.178 E3.10844
G1 X188.57 Y107.283 E3.1132
G1 X188.349 Y107.515 E3.12386
G1 X187.985 Y107.886 E3.14114
G1 X187.556 Y108.314 E3.1613
G1 X187.044 Y108.81 E3.18501
G1 X186.343 Y109.433 E3.2162
G1 X185.592 Y109.994 E3.24738
G1 X184.795 Y110.489 E3.27858
G1 X183.959 Y110.915 E3.30979
G1 X183.09 Y111.268 E3.34099
G1 X182.195 Y111.545 E3.37215
G1 X181.278 Y111.746 E3.40337
G1 X180.348 Y111.867 E3.43456
G1 X179.741 Y111.903 E3.45479
G1 X179.329 Y111.914 E3.4685
G1 X178.855 Y111.919 E3.48426
G1 X150.402 Y111.918 E4.43061
G1 X149.7 Y111.908 E4.45396
G1 X148.764 Y111.855 E4.48515
G1 X147.836 Y111.722 E4.51633
G1 X146.922 Y111.51 E4.54753
G1 X146.029 Y111.222 E4.57874
G1 X145.165 Y110.858 E4.60992
G1 X144.334 Y110.422 E4.64114
G1 X143.544 Y109.917 E4.67232
G1 X142.8 Y109.347 E4.70349
G1 X142.372 Y108.97 E4.72246
G1 X142.232 Y108.84 E4.72882
G1 X142.022 Y108.639 E4.73849
G1 X141.669 Y108.293 E4.75493
G1 X141.287 Y107.911 E4.7729
G1 X140.77 Y107.379 E4.79757
G1 X140.146 Y106.679 E4.82876
G1 X139.584 Y105.929 E4.85993
G1 X139.087 Y105.133 E4.89114
G1 X138.66 Y104.298 E4.92233
G1 X138.306 Y103.43 E4.95351
G1 X138.027 Y102.534 E4.98473
G1 X137.825 Y101.618 E5.01592
G1 X137.702 Y100.689 E5.04709
G1 X137.668 Y100.148 E5.06512
G1 X137.656 Y99.745 E5.07853
G1 X137.649 Y99.117 E5.09942
G1 X137.65 Y77.669 E5.81278
G1 X137.66 Y76.967 E5.83613
G1 X137.713 Y76.031 E5.86732
G1 X137.846 Y75.103 E5.8985
G1 X138.058 Y74.189 E5.9297
G1 X138.346 Y73.296 E5.96091
G1 X138.71 Y72.432 E5.99209
G0 F6000 X139.108 Y72.526
G1 F1200 X139.543 Y71.715 E6.0227
G1 X140.047 Y70.944 E6.05334
G1 X140.873 Y69.931 E6.09681
M73 P1
G1 X140.97 Y69.826 E6.10157
G1 X141.191 Y69.594 E6.11222
G1 X141.594 Y69.184 E6.13135
G1 X141.977 Y68.804 E6.14929
G1 X142.476 Y68.32 E6.17241
G1 X143.164 Y67.708 E6.20304
G1 X143.903 Y67.159 E6.23366
G1 X144.686 Y66.675 E6.26427
G1 X145.508 Y66.262 E6.29487
G1 X146.364 Y65.921 E6.32552
G1 X147.245 Y65.656 E6.35612
G1 X148.147 Y65.468 E6.38676
G1 X149.518 Y65.334 E6.43258
G1 X149.922 Y65.324 E6.44602
G1 X150.391 Y65.319 E6.46162
G1 X152.552 Y65.319 E6.53349
G1 X153.402 Y65.33 E6.56177
G1 X154.264 Y65.378 E6.59048
G1 X155.842 Y65.53 E6.64321
G1 X156.175 Y65.567 E6.65435
G1 X158.73 Y65.773 E6.73961
G1 X161.218 Y65.904 E6.82248
G1 X163.755 Y65.965 E6.90688
G1 X166.271 Y65.955 E6.99056
G1 X168.841 Y65.872 E7.07609
G1 X171.328 Y65.72 E7.15896
G1 X173.899 Y65.491 E7.24481
G1 X174.605 Y65.413 E7.26843
G1 X175.045 Y65.371 E7.28314
G1 X175.632 Y65.335 E7.3027
G1 X176.052 Y65.324 E7.31667
G1 X176.538 Y65.319 E7.33283
G1 X178.838 Y65.32 E7.40933
G1 X179.54 Y65.33 E7.43268
G1 X180.459 Y65.383 E7.4633
G1 X181.37 Y65.516 E7.49392
G1 X182.266 Y65.727 E7.52454
G1 X183.141 Y66.015 E7.55518
G1 X183.987 Y66.378 E7.5858
G1 X184.798 Y66.813 E7.61641
G1 X185.569 Y67.317 E7.64704
G1 X186.587 Y68.148 E7.69075
G1 X186.909 Y68.45 E7.70543
G1 X187.254 Y68.787 E7.72147
G1 X187.633 Y69.165 E7.73928
G1 X188.178 Y69.724 E7.76524
G1 X188.791 Y70.411 E7.79587
G1 X189.343 Y71.148 E7.82649
G1 X189.828 Y71.93 E7.8571
G1 X190.244 Y72.752 E7.88774
G1 X190.587 Y73.606 E7.91835
G1 X190.855 Y74.487 E7.94898
G1 X191.045 Y75.388 E7.9796
G1 X191.156 Y76.302 E8.01023
G1 X191.183 Y76.812 E8.02721
G1 X191.19 Y77.098 E8.03673
G1 X191.197 Y77.721 E8.05745
G1 X191.196 Y99.163 E8.77061
G1 X191.186 Y99.865 E8.79397
G1 X191.133 Y100.784 E8.82458
G1 X191 Y101.695 E8.8552
G1 X190.789 Y102.591 E8.88582
G1 X190.501 Y103.466 E8.91646
G1 X190.138 Y104.312 E8.94708
G1 X189.703 Y105.123 E8.97769
G1 X189.199 Y105.894 E9.00832
G1 X188.373 Y106.907 E9.0518
G1 X188.064 Y107.235 E9.06678
G1 X187.781 Y107.524 E9.08024
G1 X187.277 Y108.026 E9.1039
G1 X186.765 Y108.522 E9.12761
G1 X186.077 Y109.134 E9.15823
G1 X185.338 Y109.683 E9.18885
G1 X184.554 Y110.166 E9.21948
G1 X183.732 Y110.579 E9.25008
G1 X182.876 Y110.919 E9.28071
G1 X181.994 Y111.184 E9.31134
G1 X181.093 Y111.371 E9.34195
G1 X179.728 Y111.504 E9.38756
G1 X179.324 Y111.514 E9.401
G1 X178.855 Y111.519 E9.4166
G1 X150.408 Y111.518 E10.36275
G1 X149.706 Y111.508 E10.38611
G1 X148.787 Y111.455 E10.41672
G1 X147.876 Y111.322 E10.44734
G1 X146.98 Y111.111 E10.47796
G1 X146.105 Y110.823 E10.5086
G1 X145.259 Y110.46 E10.53922
G1 X144.448 Y110.025 E10.56983
G1 X143.677 Y109.521 E10.60046
G1 X142.644 Y108.677 E10.64483
G1 X142.504 Y108.547 E10.65119
G1 X142.302 Y108.354 E10.66048
G1 X141.951 Y108.01 E10.67682
G1 X141.574 Y107.632 E10.69458
G1 X141.057 Y107.1 E10.71925
G1 X140.445 Y106.413 E10.74985
G1 X139.895 Y105.675 E10.78047
G1 X139.41 Y104.892 E10.8111
G1 X138.996 Y104.07 E10.84171
G1 X138.654 Y103.215 E10.87234
G1 X138.388 Y102.334 E10.90295
G1 X138.199 Y101.432 E10.9336
G1 X138.067 Y100.132 E10.97706
G1 X138.056 Y99.74 E10.99011
G1 X138.049 Y99.117 E11.01083
G1 X138.05 Y77.675 E11.72399
G1 X138.06 Y76.973 E11.74734
G1 X138.113 Y76.054 E11.77796
G1 X138.246 Y75.143 E11.80858
G1 X138.457 Y74.247 E11.8392
G1 X138.745 Y73.372 E11.86984
G1 X139.108 Y72.526 E11.90045
G0 F6000 X139.506 Y72.622
G1 F1200 X139.94 Y71.83 E11.93049
G1 X140.443 Y71.08 E11.96053
G1 X141.167 Y70.203 E11.99835
G1 X141.477 Y69.874 E12.01339
G1 X141.876 Y69.468 E12.03232
G1 X142.255 Y69.091 E12.0501
G1 X142.754 Y68.607 E12.07322
G1 X143.43 Y68.008 E12.10326
G1 X144.156 Y67.47 E12.13332
G1 X144.926 Y66.999 E12.16334
G1 X145.735 Y66.598 E12.19337
G1 X146.577 Y66.27 E12.22342
G1 X147.444 Y66.018 E12.25345
G1 X148.33 Y65.844 E12.28349
G1 X149.531 Y65.734 E12.3236
G1 X149.926 Y65.724 E12.33674
G1 X150.391 Y65.719 E12.35221
G1 X152.552 Y65.719 E12.42408
M73 P2
G1 X153.396 Y65.73 E12.45216
G1 X154.226 Y65.776 E12.47981
G1 X155.799 Y65.928 E12.53237
G1 X156.136 Y65.965 E12.54364
G1 X158.679 Y66.171 E12.6285
G1 X161.22 Y66.305 E12.71313
G1 X163.747 Y66.365 E12.7972
G1 X166.286 Y66.355 E12.88165
G1 X168.845 Y66.272 E12.96681
G1 X171.352 Y66.12 E13.05035
G1 X173.93 Y65.89 E13.13643
G1 X174.649 Y65.81 E13.16049
G1 X175.081 Y65.769 E13.17493
G1 X175.645 Y65.735 E13.19372
G1 X176.056 Y65.724 E13.20739
G1 X176.538 Y65.719 E13.22343
G1 X178.832 Y65.72 E13.29972
G1 X179.534 Y65.73 E13.32308
G1 X180.436 Y65.783 E13.35313
G1 X181.329 Y65.915 E13.38315
G1 X182.207 Y66.126 E13.41319
G1 X183.063 Y66.414 E13.44322
G1 X183.891 Y66.776 E13.47328
G1 X184.683 Y67.21 E13.50332
G1 X185.433 Y67.713 E13.53335
G1 X186.315 Y68.441 E13.57139
G1 X186.629 Y68.736 E13.58572
G1 X186.972 Y69.071 E13.60167
G1 X187.227 Y69.324 E13.61362
G1 X187.891 Y70.004 E13.64523
G1 X188.493 Y70.677 E13.67526
G1 X189.032 Y71.402 E13.70531
G1 X189.505 Y72.171 E13.73533
G1 X189.908 Y72.979 E13.76537
G1 X190.238 Y73.82 E13.79541
G1 X190.492 Y74.687 E13.82546
G1 X190.669 Y75.572 E13.85548
G1 X190.784 Y76.824 E13.8973
G1 X190.79 Y77.102 E13.90655
G1 X190.797 Y77.721 E13.92714
G1 X190.796 Y99.157 E14.6401
G1 X190.786 Y99.859 E14.66345
G1 X190.733 Y100.761 E14.6935
G1 X190.601 Y101.654 E14.72353
G1 X190.39 Y102.532 E14.75356
G1 X190.102 Y103.388 E14.7836
G1 X189.74 Y104.216 E14.81366
G1 X189.306 Y105.008 E14.84369
G1 X188.803 Y105.758 E14.87373
G1 X188.079 Y106.635 E14.91155
G1 X187.778 Y106.955 E14.92617
G1 X187.495 Y107.244 E14.93962
G1 X186.999 Y107.739 E14.96293
G1 X186.487 Y108.235 E14.98664
G1 X185.811 Y108.834 E15.01668
G1 X185.085 Y109.371 E15.04671
G1 X184.314 Y109.842 E15.07676
G1 X183.505 Y110.242 E15.10678
G1 X182.663 Y110.57 E15.13683
G1 X181.796 Y110.821 E15.16685
G1 X180.91 Y110.995 E15.19688
G1 X179.715 Y111.104 E15.2368
G1 X179.32 Y111.114 E15.24994
G1 X178.855 Y111.119 E15.2654
G1 X150.414 Y111.118 E16.21136
G1 X149.712 Y111.108 E16.23471
G1 X148.81 Y111.055 E16.26476
G1 X147.917 Y110.923 E16.29478
G1 X147.039 Y110.712 E16.32482
G1 X146.183 Y110.424 E16.35486
G1 X145.355 Y110.062 E16.38491
G1 X144.563 Y109.628 E16.41495
G1 X143.813 Y109.125 E16.44499
G1 X142.916 Y108.383 E16.4837
G1 X142.776 Y108.253 E16.49006
G1 X142.582 Y108.068 E16.49898
G1 X142.234 Y107.727 E16.51518
G1 X141.861 Y107.354 E16.53273
G1 X141.344 Y106.822 E16.5574
G1 X140.744 Y106.147 E16.58744
G1 X140.206 Y105.421 E16.61749
G1 X139.734 Y104.651 E16.64753
G1 X139.332 Y103.843 E16.67755
G1 X139.004 Y103.001 E16.7076
G1 X138.751 Y102.134 E16.73764
G1 X138.575 Y101.249 E16.76765
G1 X138.467 Y100.117 E16.80547
G1 X138.456 Y99.736 E16.81815
G1 X138.449 Y99.117 E16.83874
G1 X138.45 Y77.681 E17.5517
G1 X138.46 Y76.979 E17.57506
G1 X138.513 Y76.077 E17.60511
G1 X138.645 Y75.184 E17.63513
G1 X138.856 Y74.306 E17.66517
G1 X139.144 Y73.45 E17.6952
G1 X139.506 Y72.622 E17.72526
G1 F2700 E12.72526
;MESH:section1.stl
G0 F6000 X148.302 Y76.526
G0 X149.067 Y77.292
G0 X149.423 Y99.399
G0 X150.1 Y100.319
;TYPE:WALL-INNER
G1 F2700 E17.72526
G1 F1200 X149.249 Y99.471 E17.76522
G1 X149.249 Y77.367 E18.5004
G1 X150.1 Y76.519 E18.54036
G1 X153.011 Y76.519 E18.63718
G1 X153.294 Y76.8 E18.65044
G1 X153.33 Y76.836 E18.65214
G1 X153.162 Y76.934 E18.65589
G1 X153.162 Y77.627 E18.67894
G1 X154.065 Y78.143 E18.71353
G1 X154.065 Y79.248 E18.75028
G1 X153.162 Y79.77 E18.78498
G1 X153.162 Y80.464 E18.80806
G1 X154.065 Y80.98 E18.84265
G1 X154.065 Y82.085 E18.8794
G1 X153.162 Y82.609 E18.91413
G1 X153.162 Y83.302 E18.93718
G1 X154.065 Y83.818 E18.97177
G1 X154.065 Y84.923 E19.00852
G1 X153.162 Y85.445 E19.04321
G1 X153.162 Y86.139 E19.06629
G1 X154.065 Y86.655 E19.10088
G1 X154.063 Y91.167 E19.25095
G1 X155.07 Y92.168 E19.29818
G1 X155.068 Y94.258 E19.36769
G1 X158.696 Y95.879 E19.49986
G1 X160.689 Y96.759 E19.57232
G1 X161.78 Y97.231 E19.61186
G1 X162.142 Y97.384 E19.62493
G1 X162.848 Y97.67 E19.65026
M73 P3
G1 X163.23 Y97.812 E19.66382
G1 X163.627 Y97.946 E19.67775
G1 X164.032 Y98.051 E19.69167
G1 X164.368 Y98.103 E19.70298
G1 X164.722 Y98.114 E19.71476
G1 X165.043 Y98.083 E19.72548
G1 X165.466 Y97.99 E19.73989
G1 X165.711 Y97.918 E19.74838
G1 X166.019 Y97.812 E19.75922
G1 X166.248 Y97.727 E19.76734
G1 X166.676 Y97.559 E19.78263
G1 X167.329 Y97.287 E19.80616
G1 X168.337 Y96.854 E19.84265
G1 X169.356 Y96.407 E19.87966
G1 X171.417 Y95.492 E19.95466
G1 X174.178 Y94.259 E20.05523
G1 X174.176 Y92.167 E20.12481
G1 X175.182 Y91.167 E20.17199
G1 X175.183 Y89.052 E20.24234
G1 X175.181 Y88.147 E20.27244
G1 X176.084 Y87.625 E20.30713
G1 X176.084 Y86.931 E20.33021
G1 X175.181 Y86.415 E20.3648
G1 X175.181 Y85.31 E20.40155
G1 X176.084 Y84.786 E20.43628
G1 X176.084 Y84.093 E20.45933
G1 X175.181 Y83.577 E20.49392
G1 X175.181 Y82.472 E20.53067
G1 X176.084 Y81.95 E20.56536
G1 X176.084 Y81.256 E20.58845
G1 X175.181 Y80.74 E20.62304
G1 X175.181 Y79.635 E20.65979
G1 X176.084 Y79.111 E20.69451
G1 X176.084 Y78.418 E20.71756
G1 X175.216 Y77.923 E20.7508
G1 X175.181 Y77.903 E20.75214
G1 X175.182 Y77.568 E20.76328
G1 X175.211 Y77.54 E20.76462
G1 X176.234 Y76.519 E20.81269
G1 X179.146 Y76.519 E20.90955
G1 X179.997 Y77.367 E20.94951
G1 X179.997 Y99.471 E21.68469
G1 X179.146 Y100.319 E21.72465
G1 X150.1 Y100.319 E22.69072
G0 F6000 X149.935 Y100.719
;TYPE:WALL-OUTER
G1 F1200 X148.849 Y99.636 E22.74173
G1 X148.849 Y77.202 E23.48789
G1 X149.935 Y76.119 E23.5389
G1 X153.176 Y76.119 E23.6467
G1 X153.98 Y76.921 E23.68447
G1 X153.562 Y77.164 E23.70055
G1 X153.562 Y77.395 E23.70823
G1 X154.465 Y77.911 E23.74282
G1 X154.465 Y79.478 E23.79494
G1 X153.562 Y80.001 E23.82965
G1 X153.562 Y80.232 E23.83733
G1 X154.465 Y80.748 E23.87192
G1 X154.465 Y82.315 E23.92404
G1 X153.562 Y82.839 E23.95877
G1 X153.562 Y83.07 E23.96645
G1 X154.465 Y83.586 E24.00104
G1 X154.465 Y85.153 E24.05316
G1 X153.562 Y85.676 E24.08787
G1 X153.562 Y85.907 E24.09555
G1 X154.465 Y86.423 E24.13014
G1 X154.463 Y91.001 E24.28241
G1 X155.47 Y92.001 E24.32961
G1 X155.468 Y93.999 E24.39606
G1 X158.858 Y95.513 E24.51955
G1 X160.849 Y96.392 E24.59194
G1 X161.937 Y96.863 E24.63137
G1 X162.295 Y97.014 E24.64429
G1 X162.993 Y97.297 E24.66934
G1 X163.364 Y97.435 E24.68251
G1 X163.741 Y97.562 E24.69574
G1 X164.113 Y97.659 E24.70853
G1 X164.405 Y97.704 E24.71835
G1 X164.709 Y97.713 E24.72847
G1 X164.981 Y97.687 E24.73756
G1 X165.367 Y97.602 E24.7507
G1 X165.589 Y97.537 E24.7584
G1 X165.884 Y97.435 E24.76878
G1 X166.106 Y97.353 E24.77665
G1 X166.526 Y97.188 E24.79166
G1 X167.173 Y96.919 E24.81496
G1 X168.178 Y96.487 E24.85135
G1 X169.194 Y96.041 E24.88825
G1 X171.255 Y95.126 E24.96325
G1 X173.778 Y93.999 E25.05516
G1 X173.776 Y92.001 E25.12161
G1 X174.782 Y91.001 E25.16879
G1 X174.783 Y89.052 E25.23361
G1 X174.781 Y87.917 E25.27137
G1 X175.684 Y87.394 E25.30607
G1 X175.684 Y87.163 E25.31376
G1 X174.781 Y86.647 E25.34835
G1 X174.781 Y85.08 E25.40047
G1 X175.684 Y84.556 E25.43519
G1 X175.684 Y84.325 E25.44287
G1 X174.781 Y83.809 E25.47747
