;FLAVOR:Marlin
M73 P0
M73 R27
;TIME:1602
;Filament used: 1.04532m
;Layer height: 0.2
;MINX:70.513
;MINY:74.513
;MINZ:0.2
;MAXX:159.153
;MAXY:162.487
;MAXZ:10.113
;POSTPROCESSED
;Generated with Cura_SteamEngine 5.0.0
M140 S50
M105
M190 S50
M104 S215
M105
M109 S215
M82 ;absolute extrusion mode
; Ender 3 Custom Start G-code
G92 E0 ; Reset Extruder
G28 ; Home all axes
G1 Z2.0 F3000 ; Move Z Axis up little to prevent scratching of Heat Bed
G1 X0.1 Y20 Z0.3 F5000.0 ; Move to start position
G1 X0.1 Y200.0 Z0.3 F1500.0 E15 ; Draw the first line
G1 X0.4 Y200.0 Z0.3 F5000.0 ; Move to side a little
G1 X0.4 Y20 Z0.3 F1500.0 E30 ; Draw the second line
G92 E0 ; Reset Extruder
G1 Z2.0 F3000 ; Move Z Axis up little to prevent scratching of Heat Bed
G1 X5 Y20 Z0.3 F5000.0 ; Move over to prevent blob squish
G92 E0
G92 E0
G1 F2700 E-5
;LAYER_COUNT:50
;LAYER:0
M107
G0 F6000 X82.628 Y88.219 Z0.2
G0 X80.05 Y91.199
;TYPE:SKIRT
G1 F2700 E0
G1 F1200 X80.468 Y90.645 E0.02308
G1 X80.955 Y90.045 E0.04878
G1 X81.719 Y89.168 E0.08747
G1 X82.158 Y88.692 E0.10901
G1 X82.628 Y88.219 E0.13119
G1 X85.283 Y85.66 E0.25383
G1 X85.744 Y85.227 E0.27487
G1 X86.35 Y84.699 E0.3016
G1 X87.299 Y83.93 E0.34223
G1 X87.889 Y83.484 E0.36683
G1 X88.475 Y83.073 E0.39063
G1 X91.375 Y81.121 E0.5069
G1 X92.001 Y80.712 E0.53177
G1 X92.702 Y80.291 E0.55897
G1 X93.74 Y79.718 E0.5984
G1 X94.317 Y79.421 E0.61999
G1 X94.919 Y79.138 E0.64211
G1 X98.264 Y77.653 E0.76384
G1 X98.892 Y77.385 E0.78655
G1 X99.628 Y77.102 E0.81278
G1 X100.772 Y76.708 E0.85302
G1 X101.466 Y76.494 E0.87717
G1 X102.11 Y76.321 E0.89935
G1 X105.609 Y75.454 E1.01925
G1 X106.306 Y75.292 E1.04305
G1 X107.1 Y75.137 E1.06996
G1 X108.273 Y74.954 E1.10944
G1 X108.919 Y74.873 E1.1311
G1 X109.575 Y74.814 E1.153
G1 X113.166 Y74.567 E1.27272
G1 X113.906 Y74.527 E1.29737
G1 X114.692 Y74.513 E1.32352
G1 X115.896 Y74.534 E1.36357
G1 X116.551 Y74.565 E1.38538
G1 X117.141 Y74.614 E1.40507
G1 X120.838 Y75.005 E1.52872
G1 X121.552 Y75.091 E1.55264
G1 X122.336 Y75.214 E1.57903
G1 X123.504 Y75.441 E1.61861
G1 X124.192 Y75.598 E1.64208
G1 X124.781 Y75.755 E1.66235
G1 X128.35 Y76.783 E1.78588
G1 X128.992 Y76.978 E1.8082
G1 X129.763 Y77.244 E1.83533
G1 X130.898 Y77.683 E1.8758
G1 X131.564 Y77.966 E1.89987
G1 X132.153 Y78.242 E1.92151
G1 X135.364 Y79.812 E2.04039
G1 X135.985 Y80.127 E2.06355
G1 X136.695 Y80.521 E2.09055
G1 X137.725 Y81.143 E2.13057
G1 X138.253 Y81.482 E2.15144
G1 X138.772 Y81.843 E2.17247
G1 X141.801 Y84.05 E2.29712
G1 X142.355 Y84.468 E2.3202
G1 X142.951 Y84.951 E2.34572
G1 X143.822 Y85.709 E2.38412
G1 X144.304 Y86.154 E2.40594
G1 X144.781 Y86.628 E2.42831
G1 X147.34 Y89.283 E2.55095
G1 X147.773 Y89.744 E2.57199
G1 X148.304 Y90.353 E2.59886
G1 X149.07 Y91.299 E2.63935
G1 X149.504 Y91.872 E2.66326
G1 X149.927 Y92.475 E2.68775
G1 X151.877 Y95.373 E2.80393
G1 X152.283 Y95.994 E2.82861
G1 X152.704 Y96.693 E2.85575
G1 X153.277 Y97.73 E2.89515
G1 X153.574 Y98.308 E2.91677
G1 X153.862 Y98.919 E2.93923
G1 X155.347 Y102.264 E3.06096
G1 X155.615 Y102.892 E3.08367
G1 X155.9 Y103.633 E3.11008
G1 X156.293 Y104.776 E3.15028
G1 X156.492 Y105.416 E3.17257
G1 X157.13 Y107.717 E3.25199
G1 X157.877 Y110.18 E3.33759
G1 X158.595 Y112.344 E3.41343
G1 X158.852 Y113.246 E3.44462
G1 X159.031 Y114.166 E3.47579
G1 X159.132 Y115.099 E3.50701
G1 X159.153 Y116.036 E3.53818
G1 X159.093 Y116.972 E3.56937
G1 X159.029 Y117.472 E3.58614
G1 X158.943 Y118.024 E3.60472
G1 X158.626 Y119.888 E3.66761
G1 X158.274 Y122.393 E3.75174
G1 X157.917 Y125.49 E3.85543
G1 X157.786 Y126.333 E3.88381
G1 X157.557 Y127.509 E3.92366
G1 X157.411 Y128.154 E3.94565
G1 X157.251 Y128.757 E3.9664
G1 X156.222 Y132.334 E4.0902
G1 X156.022 Y132.991 E4.11304
G1 X155.763 Y133.743 E4.13949
G1 X155.323 Y134.885 E4.1802
G1 X155.03 Y135.575 E4.20513
G1 X154.758 Y136.154 E4.22641
G1 X153.188 Y139.366 E4.34532
G1 X152.878 Y139.977 E4.36811
G1 X152.487 Y140.681 E4.39489
G1 X151.867 Y141.709 E4.43482
G1 X151.529 Y142.236 E4.45564
G1 X151.168 Y142.755 E4.47667
G1 X148.95 Y145.801 E4.60199
G1 X148.532 Y146.355 E4.62507
G1 X148.045 Y146.955 E4.65078
G1 X147.281 Y147.832 E4.68946
G1 X146.842 Y148.308 E4.711
G1 X146.372 Y148.781 E4.73318
G1 X143.717 Y151.34 E4.85582
G1 X143.256 Y151.773 E4.87686
G1 X142.645 Y152.306 E4.90383
G1 X141.691 Y153.078 E4.94464
G1 X141.115 Y153.514 E4.96867
G1 X140.525 Y153.927 E4.99263
G1 X137.627 Y155.877 E5.1088
G1 X137.006 Y156.283 E5.13348
G1 X136.305 Y156.705 E5.16069
G1 X135.262 Y157.281 E5.20032
G1 X134.683 Y157.579 E5.22198
G1 X134.081 Y157.862 E5.24411
G1 X130.736 Y159.347 E5.36583
G1 X130.108 Y159.615 E5.38854
G1 X129.372 Y159.898 E5.41477
G1 X128.228 Y160.292 E5.45501
G1 X127.534 Y160.506 E5.47917
G1 X126.89 Y160.679 E5.50135
G1 X123.391 Y161.546 E5.62124
G1 X122.694 Y161.708 E5.64504
G1 X121.9 Y161.863 E5.67195
G1 X120.727 Y162.046 E5.71144
G1 X120.081 Y162.127 E5.73309
G1 X119.425 Y162.186 E5.755
G1 X115.834 Y162.433 E5.87472
G1 X115.094 Y162.473 E5.89936
G1 X114.307 Y162.487 E5.92554
G1 X113.11 Y162.466 E5.96536
G1 X112.406 Y162.431 E5.98881
G1 X111.719 Y162.372 E6.01174
G1 X108.162 Y161.995 E6.13071
G1 X107.448 Y161.909 E6.15463
G1 X106.664 Y161.786 E6.18102
G1 X105.496 Y161.559 E6.2206
G1 X104.808 Y161.402 E6.24407
G1 X104.219 Y161.245 E6.26434
G1 X100.65 Y160.217 E6.38788
G1 X100.008 Y160.022 E6.41019
G1 X99.237 Y159.756 E6.43732
G1 X98.102 Y159.317 E6.47779
G1 X97.436 Y159.034 E6.50186
G1 X96.847 Y158.758 E6.5235
G1 X93.575 Y157.157 E6.64465
G1 X92.878 Y156.798 E6.67073
G1 X92.215 Y156.427 E6.696
G1 X91.261 Y155.849 E6.7331
G1 X90.771 Y155.534 E6.75247
G1 X90.228 Y155.158 E6.77444
G1 X87.189 Y152.943 E6.89952
G1 X86.635 Y152.524 E6.92262
G1 X86.044 Y152.045 E6.94792
G1 X85.166 Y151.28 E6.98665
G1 X84.707 Y150.856 E7.00744
G1 X84.218 Y150.372 E7.03032
G1 X81.643 Y147.7 E7.15374
G1 X81.21 Y147.237 E7.17483
G1 X80.697 Y146.647 E7.20083
M73 P1
G1 X79.925 Y145.694 E7.24162
G1 X79.482 Y145.109 E7.26603
G1 X79.073 Y144.525 E7.28974
G1 X77.121 Y141.624 E7.40604
G1 X76.714 Y141.001 E7.43079
G1 X76.294 Y140.303 E7.45789
G1 X75.719 Y139.262 E7.49744
G1 X75.421 Y138.683 E7.5191
G1 X75.138 Y138.081 E7.54122
G1 X73.649 Y134.726 E7.66331
G1 X73.38 Y134.094 E7.68615
G1 X73.102 Y133.371 E7.71192
G1 X72.709 Y132.231 E7.75202
G1 X72.494 Y131.534 E7.77628
G1 X72.321 Y130.889 E7.79849
G1 X71.451 Y127.379 E7.91877
G1 X71.292 Y126.695 E7.94213
G1 X71.137 Y125.9 E7.96907
G1 X70.954 Y124.727 E8.00855
G1 X70.873 Y124.078 E8.03031
G1 X70.814 Y123.424 E8.05215
G1 X70.567 Y119.834 E8.17183
G1 X70.527 Y119.096 E8.19641
G1 X70.513 Y118.309 E8.22259
G1 X70.534 Y117.104 E8.26268
G1 X70.57 Y116.385 E8.28662
G1 X70.628 Y115.719 E8.30886
G1 X71.005 Y112.162 E8.42783
G1 X71.091 Y111.448 E8.45175
G1 X71.215 Y110.661 E8.47824
G1 X71.443 Y109.49 E8.51792
G1 X71.597 Y108.811 E8.54108
G1 X71.755 Y108.219 E8.56146
G1 X72.783 Y104.65 E8.68499
G1 X72.978 Y104.008 E8.70731
G1 X73.244 Y103.237 E8.73443
G1 X73.683 Y102.102 E8.77491
G1 X73.966 Y101.436 E8.79898
G1 X74.242 Y100.847 E8.82061
G1 X75.812 Y97.636 E8.93949
G1 X76.127 Y97.015 E8.96265
G1 X76.521 Y96.305 E8.98966
G1 X77.143 Y95.275 E9.02968
G1 X77.482 Y94.747 E9.05055
G1 X77.843 Y94.228 E9.07158
G1 X80.05 Y91.199 E9.19623
G1 F2700 E4.19623
G0 F6000 X76.525 Y97.998
G1 F2700 E9.19623
G1 F1200 X76.84 Y97.377 E9.21939
G1 X77.206 Y96.718 E9.24446
G1 X77.828 Y95.688 E9.28448
G1 X78.142 Y95.199 E9.30381
G1 X78.49 Y94.699 E9.32407
G1 X80.689 Y91.681 E9.44827
G1 X81.107 Y91.127 E9.47135
G1 X81.558 Y90.57 E9.49519
G1 X82.322 Y89.693 E9.53387
G1 X82.73 Y89.252 E9.55386
G1 X83.184 Y88.795 E9.57528
G1 X85.831 Y86.243 E9.69757
G1 X86.292 Y85.81 E9.71861
G1 X86.853 Y85.32 E9.74338
G1 X87.802 Y84.551 E9.78401
G1 X88.349 Y84.138 E9.80681
G1 X88.922 Y83.737 E9.83007
G1 X91.813 Y81.791 E9.94598
G1 X92.439 Y81.382 E9.97085
G1 X93.089 Y80.991 E9.99608
G1 X94.127 Y80.418 E10.03551
G1 X94.662 Y80.143 E10.05552
G1 X95.244 Y79.869 E10.07691
G1 X98.578 Y78.389 E10.19824
G1 X99.206 Y78.121 E10.22095
G1 X99.889 Y77.858 E10.24529
G1 X101.033 Y77.464 E10.28553
G1 X101.676 Y77.266 E10.30791
G1 X102.303 Y77.098 E10.3295
G1 X105.79 Y76.233 E10.44899
G1 X106.487 Y76.071 E10.47279
G1 X107.224 Y75.928 E10.49776
G1 X108.397 Y75.745 E10.53725
G1 X108.995 Y75.67 E10.5573
G1 X109.63 Y75.612 E10.5785
G1 X113.209 Y75.366 E10.69782
G1 X113.949 Y75.326 E10.72247
G1 X114.678 Y75.313 E10.74672
G1 X115.882 Y75.334 E10.78677
G1 X116.489 Y75.362 E10.80698
G1 X117.057 Y75.41 E10.82594
G1 X120.743 Y75.799 E10.94922
G1 X121.457 Y75.885 E10.97314
G1 X122.183 Y75.999 E10.99758
G1 X123.351 Y76.226 E11.03716
G1 X123.989 Y76.372 E11.05893
G1 X124.559 Y76.524 E11.07855
G1 X128.117 Y77.548 E11.20169
G1 X128.759 Y77.743 E11.22401
G1 X129.475 Y77.99 E11.2492
G1 X130.61 Y78.429 E11.28967
G1 X131.227 Y78.691 E11.31197
G1 X131.802 Y78.96 E11.33308
G1 X135.002 Y80.525 E11.45156
G1 X135.623 Y80.84 E11.47472
G1 X136.282 Y81.206 E11.49979
G1 X137.312 Y81.828 E11.53981
G1 X137.801 Y82.142 E11.55914
G1 X138.301 Y82.49 E11.5794
G1 X141.319 Y84.689 E11.7036
G1 X141.873 Y85.107 E11.72668
G1 X142.426 Y85.555 E11.75035
G1 X143.297 Y86.313 E11.78876
G1 X143.744 Y86.725 E11.80898
G1 X144.205 Y87.184 E11.83061
G1 X146.757 Y89.831 E11.95291
G1 X147.19 Y90.292 E11.97394
G1 X147.682 Y90.856 E11.99884
G1 X148.448 Y91.802 E12.03932
G1 X148.851 Y92.334 E12.06152
G1 X149.263 Y92.922 E12.0854
G1 X151.207 Y95.81 E12.20119
G1 X151.613 Y96.431 E12.22587
G1 X152.004 Y97.08 E12.25107
G1 X152.577 Y98.117 E12.29047
G1 X152.853 Y98.653 E12.31053
G1 X153.131 Y99.244 E12.33225
G1 X154.611 Y102.578 E12.45357
G1 X154.879 Y103.206 E12.47628
G1 X155.144 Y103.893 E12.50077
G1 X155.537 Y105.036 E12.54097
G1 X155.721 Y105.63 E12.56166
G1 X156.367 Y107.96 E12.64208
G1 X157.114 Y110.424 E12.72771
G1 X157.835 Y112.596 E12.80383
G1 X158.082 Y113.465 E12.83388
G1 X158.25 Y114.352 E12.8639
G1 X158.34 Y115.251 E12.89395
G1 X158.349 Y116.154 E12.92399
G1 X158.238 Y117.351 E12.96397
G1 X158.154 Y117.891 E12.98215
G1 X157.838 Y119.752 E13.04493
G1 X157.478 Y122.314 E13.13098
G1 X157.122 Y125.398 E13.23424
G1 X157.001 Y126.18 E13.26056
G1 X156.772 Y127.356 E13.3004
G1 X156.637 Y127.954 E13.32079
G1 X156.482 Y128.537 E13.34086
G1 X155.457 Y132.101 E13.4642
G1 X155.257 Y132.758 E13.48704
G1 X155.017 Y133.455 E13.51156
G1 X154.577 Y134.597 E13.55227
G1 X154.305 Y135.237 E13.5754
G1 X154.04 Y135.803 E13.59618
G1 X152.474 Y139.004 E13.71471
G1 X152.164 Y139.615 E13.73749
G1 X151.802 Y140.268 E13.76233
G1 X151.182 Y141.296 E13.80226
G1 X150.869 Y141.784 E13.82154
G1 X150.521 Y142.285 E13.84183
G1 X148.311 Y145.319 E13.96667
G1 X147.893 Y145.873 E13.98975
G1 X147.442 Y146.43 E14.01359
G1 X146.678 Y147.307 E14.05228
G1 X146.27 Y147.748 E14.07226
G1 X145.816 Y148.205 E14.09368
G1 X143.169 Y150.757 E14.21598
G1 X142.708 Y151.19 E14.23701
G1 X142.141 Y151.684 E14.26203
G1 X141.187 Y152.456 E14.30284
G1 X140.653 Y152.86 E14.32511
G1 X140.078 Y153.263 E14.34847
G1 X137.19 Y155.207 E14.46426
G1 X136.569 Y155.613 E14.48894
M73 P2
G1 X135.918 Y156.005 E14.51421
G1 X134.875 Y156.581 E14.55384
G1 X134.338 Y156.857 E14.57392
G1 X133.756 Y157.131 E14.59532
G1 X130.422 Y158.611 E14.71664
G1 X129.794 Y158.879 E14.73935
G1 X129.111 Y159.142 E14.76369
G1 X127.967 Y159.536 E14.80394
G1 X127.324 Y159.734 E14.82631
G1 X126.697 Y159.902 E14.8479
G1 X123.21 Y160.767 E14.9674
G1 X122.513 Y160.929 E14.9912
G1 X121.776 Y161.072 E15.01617
G1 X120.603 Y161.255 E15.05565
G1 X120.005 Y161.33 E15.0757
G1 X119.37 Y161.388 E15.09691
G1 X115.791 Y161.634 E15.21622
G1 X115.051 Y161.674 E15.24087
G1 X114.321 Y161.687 E15.26516
G1 X113.124 Y161.666 E15.30498
G1 X112.472 Y161.634 E15.32669
G1 X111.803 Y161.577 E15.34902
G1 X108.257 Y161.201 E15.46762
G1 X107.543 Y161.115 E15.49154
G1 X106.817 Y161.001 E15.51598
G1 X105.649 Y160.774 E15.55556
G1 X105.011 Y160.628 E15.57733
G1 X104.441 Y160.476 E15.59695
G1 X100.883 Y159.452 E15.72009
G1 X100.241 Y159.257 E15.74241
G1 X99.525 Y159.01 E15.7676
G1 X98.39 Y158.571 E15.80807
G1 X97.773 Y158.309 E15.83037
G1 X97.198 Y158.04 E15.85148
G1 X93.941 Y156.446 E15.97209
G1 X93.244 Y156.087 E15.99816
G1 X92.63 Y155.743 E16.02157
G1 X91.676 Y155.165 E16.05867
G1 X91.221 Y154.873 E16.07665
G1 X90.699 Y154.511 E16.09778
G1 X87.671 Y152.305 E16.22239
G1 X87.117 Y151.886 E16.24549
G1 X86.569 Y151.441 E16.26897
G1 X85.691 Y150.676 E16.3077
G1 X85.266 Y150.283 E16.32695
G1 X84.794 Y149.816 E16.34904
G1 X82.227 Y147.153 E16.47206
G1 X81.794 Y146.69 E16.49314
G1 X81.318 Y146.143 E16.51726
G1 X80.546 Y145.19 E16.55805
G1 X80.136 Y144.648 E16.58066
G1 X79.737 Y144.078 E16.6038
G1 X77.791 Y141.187 E16.71971
G1 X77.384 Y140.564 E16.74446
G1 X76.994 Y139.917 E16.76959
G1 X76.419 Y138.876 E16.80914
G1 X76.143 Y138.338 E16.82925
G1 X75.869 Y137.756 E16.85065
G1 X74.385 Y134.413 E16.9723
G1 X74.116 Y133.781 E16.99514
G1 X73.858 Y133.11 E17.01905
G1 X73.465 Y131.97 E17.05916
G1 X73.266 Y131.324 E17.08164
G1 X73.098 Y130.697 E17.10323
G1 X72.23 Y127.197 E17.22317
G1 X72.071 Y126.513 E17.24653
G1 X71.928 Y125.776 E17.2715
G1 X71.745 Y124.603 E17.31098
G1 X71.669 Y124.002 E17.33113
G1 X71.612 Y123.369 E17.35227
G1 X71.366 Y119.791 E17.47155
G1 X71.326 Y119.053 E17.49614
G1 X71.313 Y118.323 E17.52042
G1 X71.334 Y117.118 E17.56051
G1 X71.367 Y116.451 E17.58272
G1 X71.423 Y115.803 E17.60435
G1 X71.799 Y112.257 E17.72295
G1 X71.885 Y111.543 E17.74687
G1 X72 Y110.814 E17.77142
G1 X72.228 Y109.643 E17.8111
G1 X72.371 Y109.014 E17.83255
G1 X72.524 Y108.441 E17.85228
G1 X73.548 Y104.883 E17.97542
G1 X73.743 Y104.241 E17.99774
G1 X73.99 Y103.525 E18.02293
G1 X74.429 Y102.39 E18.0634
G1 X74.691 Y101.773 E18.0857
G1 X74.96 Y101.198 E18.10681
G1 X76.525 Y97.998 E18.22529
G1 F2700 E13.22529
G0 F6000 X73.166 Y104.766
G1 F2700 E18.22529
G1 F1200 X73.361 Y104.124 E18.24761
G1 X73.617 Y103.381 E18.27375
G1 X74.056 Y102.246 E18.31422
G1 X74.328 Y101.605 E18.33738
G1 X74.601 Y101.023 E18.35876
G1 X76.169 Y97.817 E18.47746
G1 X76.484 Y97.196 E18.50062
G1 X76.863 Y96.511 E18.52666
G1 X77.485 Y95.481 E18.56668
G1 X77.812 Y94.973 E18.58678
G1 X78.167 Y94.463 E18.60744
G1 X80.369 Y91.44 E18.73183
G1 X80.787 Y90.886 E18.75492
G1 X81.256 Y90.307 E18.7797
G1 X82.02 Y89.43 E18.81839
G1 X82.444 Y88.972 E18.83914
G1 X82.906 Y88.507 E18.86095
G1 X85.557 Y85.952 E18.9834
G1 X86.018 Y85.519 E19.00444
G1 X86.602 Y85.009 E19.03023
G1 X87.551 Y84.24 E19.07085
G1 X88.119 Y83.811 E19.09453
G1 X88.699 Y83.405 E19.11808
G1 X91.594 Y81.456 E19.23415
G1 X92.22 Y81.047 E19.25902
G1 X92.895 Y80.641 E19.28522
G1 X93.933 Y80.068 E19.32466
G1 X94.49 Y79.782 E19.34548
G1 X95.082 Y79.504 E19.36723
G1 X98.421 Y78.021 E19.48875
G1 X99.049 Y77.753 E19.51146
G1 X99.758 Y77.48 E19.53673
G1 X100.902 Y77.086 E19.57697
G1 X101.571 Y76.88 E19.60025
G1 X102.206 Y76.71 E19.62212
G1 X105.699 Y75.843 E19.74182
G1 X106.396 Y75.681 E19.76562
G1 X107.162 Y75.533 E19.79157
G1 X108.335 Y75.35 E19.83106
G1 X108.957 Y75.271 E19.85191
G1 X109.602 Y75.213 E19.87345
G1 X113.188 Y74.966 E19.993
G1 X113.928 Y74.926 E20.01765
G1 X114.685 Y74.913 E20.04283
G1 X115.889 Y74.934 E20.08288
G1 X116.52 Y74.963 E20.10389
G1 X117.099 Y75.012 E20.12322
G1 X120.791 Y75.402 E20.2467
G1 X121.505 Y75.488 E20.27062
G1 X122.259 Y75.607 E20.29601
G1 X123.427 Y75.834 E20.33558
G1 X124.091 Y75.985 E20.35823
G1 X124.67 Y76.14 E20.37817
G1 X128.234 Y77.166 E20.50152
G1 X128.876 Y77.361 E20.52384
G1 X129.619 Y77.617 E20.54997
G1 X130.754 Y78.056 E20.59045
G1 X131.395 Y78.328 E20.61361
G1 X131.977 Y78.601 E20.63499
G1 X135.183 Y80.169 E20.75369
G1 X135.804 Y80.484 E20.77685
G1 X136.489 Y80.863 E20.80289
