;FLAVOR:Marlin
;TIME:1247
;Filament used: 0.409073m
;Layer height: 0.2
;MINX:100.844
;MINY:101.5
;MINZ:0.2
;MAXX:134.156
;MAXY:133.5
;MAXZ:17
;Generated with Cura_SteamEngine 4.9.1
M140 S50
M105
M190 S50
M104 S215
M105
M109 S215
M82 ;absolute extrusion mode
; Ender 3 Custom Start G-code
G92 E0 ; Reset Extruder
G28 ; Home all axes
G1 Z2.0 F3000 ; Move Z Axis up little to prevent scratching of Heat Bed
G1 X0.1 Y20 Z0.3 F5000.0 ; Move to start position
G1 X0.1 Y200.0 Z0.3 F1500.0 E15 ; Draw the first line
G1 X0.4 Y200.0 Z0.3 F5000.0 ; Move to side a little
G1 X0.4 Y20 Z0.3 F1500.0 E30 ; Draw the second line
G92 E0 ; Reset Extruder
G1 Z2.0 F3000 ; Move Z Axis up little to prevent scratching of Heat Bed
G1 X5 Y20 Z0.3 F5000.0 ; Move over to prevent blob squish
G92 E0
G92 E0
G1 F2700 E-5
;LAYER_COUNT:85
;LAYER:0
M107
G0 F6000 X105.739 Y105.69 Z0.2
;TYPE:SKIRT
G1 F2700 E0
G1 F1200 X105.93 Y105.506 E0.00882
G1 X106.321 Y105.142 E0.02659
G1 X106.961 Y104.595 E0.05459
G1 X107.296 Y104.33 E0.0688
G1 X107.97 Y103.837 E0.09657
G1 X108.188 Y103.69 E0.10532
G1 X109.118 Y103.128 E0.14146
G1 X109.233 Y103.066 E0.1458
G1 X109.909 Y102.73 E0.17091
G1 X110.092 Y102.647 E0.17759
G1 X111.318 Y102.177 E0.22127
G1 X111.514 Y102.115 E0.2281
G1 X112.142 Y101.937 E0.24981
G1 X112.253 Y101.909 E0.25362
G1 X113.16 Y101.72 E0.28444
G1 X113.434 Y101.675 E0.29367
G1 X114.676 Y101.543 E0.33521
G1 X115.082 Y101.523 E0.34873
G1 X115.457 Y101.511 E0.36121
G1 X116.291 Y101.5 E0.38895
G1 X119.067 Y101.502 E0.48128
G1 X119.428 Y101.507 E0.49329
G1 X119.806 Y101.519 E0.50587
G1 X120.304 Y101.543 E0.52245
G1 X121.68 Y101.696 E0.5685
G1 X122.038 Y101.759 E0.58059
G1 X122.954 Y101.961 E0.61179
G1 X123.961 Y102.281 E0.64693
G1 X124.268 Y102.395 E0.65782
G1 X125.021 Y102.707 E0.68493
G1 X125.248 Y102.811 E0.69324
G1 X126.243 Y103.33 E0.73056
G1 X126.277 Y103.35 E0.73188
G1 X127.072 Y103.864 E0.76336
G1 X127.383 Y104.085 E0.77605
G1 X128.207 Y104.732 E0.8109
G1 X128.392 Y104.892 E0.81903
G1 X128.683 Y105.154 E0.83206
G1 X129.05 Y105.495 E0.84872
G1 X129.709 Y106.161 E0.87988
G1 X130.013 Y106.496 E0.89493
G1 X130.664 Y107.284 E0.92892
G1 X130.908 Y107.609 E0.94244
G1 X131.394 Y108.312 E0.97087
G1 X131.736 Y108.85 E0.99207
G1 X132.248 Y109.744 E1.02633
G1 X132.454 Y110.147 E1.04139
G1 X132.83 Y110.966 E1.07136
G1 X132.97 Y111.306 E1.08359
G1 X133.312 Y112.257 E1.1172
G1 X133.522 Y112.939 E1.14094
G1 X133.658 Y113.417 E1.15747
G1 X133.817 Y114.1 E1.18079
G1 X133.879 Y114.411 E1.19134
G1 X133.948 Y114.79 E1.20415
G1 X134.067 Y115.718 E1.23527
G1 X134.116 Y116.291 E1.2544
G1 X134.156 Y117.228 E1.28559
G1 X134.156 Y117.842 E1.30601
G1 X134.117 Y118.77 E1.33691
G1 X134.09 Y119.089 E1.34755
G1 X134.03 Y119.637 E1.36589
G1 X134.017 Y119.733 E1.36911
G1 X133.946 Y120.185 E1.38433
G1 X133.873 Y120.595 E1.39818
G1 X133.674 Y121.492 E1.42874
G1 X133.56 Y121.921 E1.4435
G1 X133.447 Y122.318 E1.45723
G1 X133.341 Y122.664 E1.46927
G1 X132.992 Y123.636 E1.50362
G1 X132.799 Y124.104 E1.52046
G1 X132.418 Y124.929 E1.55068
G1 X132.257 Y125.243 E1.56242
G1 X132.055 Y125.621 E1.57667
G1 X131.753 Y126.134 E1.59647
G1 X131.484 Y126.564 E1.61334
G1 X131.1 Y127.136 E1.63626
G1 X130.956 Y127.337 E1.64448
G1 X130.658 Y127.735 E1.66102
G1 X130.499 Y127.937 E1.66957
G1 X130.102 Y128.412 E1.69016
G1 X129.884 Y128.659 E1.70111
G1 X129.29 Y129.281 E1.72972
G1 X128.928 Y129.628 E1.7464
G1 X128.72 Y129.821 E1.75584
G1 X128.022 Y130.417 E1.78636
G1 X127.56 Y130.779 E1.80588
G1 X126.681 Y131.401 E1.8417
G1 X125.645 Y131.987 E1.88129
G1 X125.335 Y132.141 E1.8928
G1 X124.668 Y132.445 E1.91718
G1 X124.459 Y132.532 E1.92471
G1 X123.579 Y132.855 E1.95589
G1 X122.9 Y133.049 E1.97938
G1 X122.636 Y133.115 E1.98843
G1 X121.67 Y133.311 E2.02121
G1 X121.504 Y133.337 E2.0268
G1 X120.347 Y133.455 E2.06548
G1 X119.924 Y133.476 E2.07957
G1 X119.547 Y133.489 E2.09211
G1 X118.722 Y133.5 E2.11955
G1 X115.933 Y133.498 E2.21232
G1 X115.572 Y133.493 E2.22433
G1 X115.196 Y133.481 E2.23684
G1 X114.697 Y133.457 E2.25345
G1 X113.313 Y133.303 E2.29977
G1 X112.956 Y133.24 E2.31183
G1 X112.041 Y133.037 E2.343
G1 X111.451 Y132.863 E2.36346
G1 X111.197 Y132.78 E2.37235
G1 X110.004 Y132.312 E2.41497
G1 X109.796 Y132.216 E2.42259
G1 X108.962 Y131.787 E2.45378
G1 X108.437 Y131.468 E2.47422
G1 X108.163 Y131.291 E2.48506
G1 X107.405 Y130.754 E2.51596
G1 X107.176 Y130.577 E2.52559
G1 X106.633 Y130.129 E2.549
G1 X106.302 Y129.832 E2.56379
G1 X105.944 Y129.499 E2.58005
G1 X105.296 Y128.843 E2.61072
G1 X104.987 Y128.503 E2.626
G1 X104.324 Y127.701 E2.66061
G1 X104.085 Y127.382 E2.67387
G1 X103.6 Y126.679 E2.70228
G1 X103.258 Y126.14 E2.72351
G1 X102.751 Y125.253 E2.75749
G1 X102.544 Y124.848 E2.77262
G1 X102.165 Y124.024 E2.80278
G1 X102.024 Y123.681 E2.81512
G1 X101.681 Y122.724 E2.84893
G1 X101.474 Y122.049 E2.87241
G1 X101.257 Y121.23 E2.90059
G1 X101.194 Y120.949 E2.91017
G1 X101.093 Y120.439 E2.92746
G1 X101.058 Y120.239 E2.93422
G1 X100.933 Y119.284 E2.96625
G1 X100.884 Y118.713 E2.98531
G1 X100.844 Y117.772 E3.01664
G1 X100.844 Y117.155 E3.03716
G1 X100.885 Y116.208 E3.06869
G1 X100.913 Y115.884 E3.0795
G1 X100.978 Y115.306 E3.09885
G1 X100.992 Y115.206 E3.10221
G1 X101.057 Y114.801 E3.11585
G1 X101.129 Y114.397 E3.1295
G1 X101.333 Y113.479 E3.16078
G1 X101.448 Y113.05 E3.17555
G1 X101.554 Y112.68 E3.18835
G1 X101.658 Y112.34 E3.20018
G1 X102.013 Y111.353 E3.23506
G1 X102.212 Y110.872 E3.25238
G1 X102.6 Y110.034 E3.28309
G1 X102.762 Y109.72 E3.29484
G1 X102.98 Y109.318 E3.31005
G1 X103.272 Y108.828 E3.32902
G1 X103.554 Y108.381 E3.3466
G1 X103.918 Y107.839 E3.36832
G1 X104.06 Y107.641 E3.37642
G1 X104.374 Y107.225 E3.39376
G1 X104.522 Y107.038 E3.40169
G1 X104.911 Y106.573 E3.42185
G1 X105.135 Y106.32 E3.43309
G1 X105.739 Y105.69 E3.46212
G0 F6000 X106.017 Y105.978
G1 F1200 X106.369 Y105.642 E3.47831
G1 X106.592 Y105.436 E3.4884
G1 X107.209 Y104.909 E3.51539
G1 X107.544 Y104.644 E3.5296
G1 X108.194 Y104.168 E3.55639
G1 X108.412 Y104.021 E3.56514
G1 X109.308 Y103.48 E3.59995
G1 X109.423 Y103.418 E3.6043
G1 X110.075 Y103.095 E3.6285
G1 X110.258 Y103.012 E3.63518
G1 X111.439 Y102.559 E3.67725
G1 X111.635 Y102.497 E3.68409
G1 X112.239 Y102.325 E3.70498
G1 X112.35 Y102.297 E3.70878
G1 X113.225 Y102.115 E3.73851
G1 X113.499 Y102.07 E3.74775
G1 X114.695 Y101.943 E3.78775
G1 X115.101 Y101.923 E3.80127
G1 X115.463 Y101.911 E3.81331
G1 X116.291 Y101.9 E3.84086
G1 X119.062 Y101.902 E3.93302
G1 X119.423 Y101.907 E3.94503
G1 X119.786 Y101.918 E3.95711
G1 X120.284 Y101.942 E3.97369
G1 X121.611 Y102.09 E4.0181
G1 X121.969 Y102.153 E4.03019
G1 X122.868 Y102.352 E4.06081
G1 X123.822 Y102.656 E4.09412
G1 X124.129 Y102.77 E4.10501
G1 X124.854 Y103.07 E4.13111
G1 X125.081 Y103.174 E4.13941
G1 X126.04 Y103.674 E4.17538
G1 X126.074 Y103.694 E4.17669
G1 X126.84 Y104.19 E4.20705
G1 X127.151 Y104.411 E4.21974
G1 X127.945 Y105.035 E4.25332
G1 X128.13 Y105.195 E4.26146
G1 X128.411 Y105.447 E4.27401
G1 X128.778 Y105.788 E4.29067
G1 X129.413 Y106.43 E4.32071
G1 X129.717 Y106.765 E4.33575
G1 X130.344 Y107.524 E4.3685
G1 X130.588 Y107.849 E4.38202
G1 X131.057 Y108.526 E4.40941
G1 X131.399 Y109.064 E4.43061
G1 X131.891 Y109.926 E4.46362
G1 X132.097 Y110.329 E4.47868
G1 X132.461 Y111.118 E4.50758
G1 X132.601 Y111.458 E4.51981
G1 X132.93 Y112.375 E4.55221
G1 X133.14 Y113.057 E4.57594
G1 X133.271 Y113.52 E4.59195
G1 X133.424 Y114.179 E4.61445
G1 X133.486 Y114.49 E4.625
G1 X133.554 Y114.858 E4.63744
G1 X133.668 Y115.752 E4.66742
G1 X133.717 Y116.325 E4.68655
G1 X133.756 Y117.228 E4.71661
G1 X133.756 Y117.842 E4.73703
G1 X133.718 Y118.736 E4.76679
G1 X133.691 Y119.055 E4.77744
G1 X133.633 Y119.583 E4.79511
G1 X133.62 Y119.679 E4.79833
G1 X133.552 Y120.115 E4.81301
G1 X133.479 Y120.525 E4.82686
G1 X133.287 Y121.389 E4.85629
G1 X133.173 Y121.818 E4.87106
G1 X133.064 Y122.201 E4.8843
G1 X132.958 Y122.547 E4.89634
G1 X132.622 Y123.483 E4.92941
G1 X132.429 Y123.951 E4.94625
G1 X132.062 Y124.746 E4.97538
G1 X131.901 Y125.06 E4.98711
G1 X131.705 Y125.427 E5.00095
G1 X131.413 Y125.922 E5.02007
G1 X131.144 Y126.352 E5.03693
G1 X130.775 Y126.903 E5.05899
G1 X130.631 Y127.104 E5.06722
G1 X130.343 Y127.487 E5.08315
G1 X130.184 Y127.689 E5.0917
G1 X129.802 Y128.147 E5.11154
G1 X129.584 Y128.394 E5.1225
G1 X129.012 Y128.994 E5.15007
G1 X128.821 Y129.179 E5.15891
G1 X128.448 Y129.528 E5.1759
G1 X127.776 Y130.102 E5.2053
G1 X127.314 Y130.464 E5.22482
G1 X126.465 Y131.064 E5.2594
G1 X125.467 Y131.629 E5.29754
G1 X125.157 Y131.783 E5.30905
G1 X124.515 Y132.076 E5.33252
G1 X124.306 Y132.163 E5.34005
G1 X123.441 Y132.48 E5.3707
G1 X122.803 Y132.661 E5.39275
G1 X122.539 Y132.727 E5.4018
G1 X121.608 Y132.915 E5.43339
G1 X121.442 Y132.941 E5.43898
G1 X120.328 Y133.056 E5.47623
G1 X119.905 Y133.077 E5.49032
G1 X119.541 Y133.089 E5.50243
G1 X118.722 Y133.1 E5.52967
G1 X115.938 Y133.098 E5.62227
G1 X115.577 Y133.093 E5.63428
G1 X115.215 Y133.082 E5.64632
G1 X114.716 Y133.058 E5.66294
G1 X113.383 Y132.909 E5.70755
G1 X113.026 Y132.846 E5.71961
G1 X112.127 Y132.646 E5.75024
G1 X111.576 Y132.483 E5.76935
G1 X111.322 Y132.4 E5.77824
G1 X110.172 Y131.948 E5.81934
G1 X109.964 Y131.852 E5.82696
G1 X109.146 Y131.431 E5.85755
G1 X108.654 Y131.132 E5.8767
G1 X108.38 Y130.955 E5.88755
G1 X107.65 Y130.438 E5.91731
G1 X107.421 Y130.261 E5.92693
G1 X106.897 Y129.829 E5.94952
G1 X106.788 Y129.733 E5.95435
G1 X106.575 Y129.539 E5.96393
G1 X106.217 Y129.206 E5.98019
G1 X105.592 Y128.574 E6.00976
G1 X105.283 Y128.234 E6.02504
G1 X104.644 Y127.461 E6.0584
G1 X104.405 Y127.142 E6.07165
G1 X103.938 Y126.465 E6.09901
G1 X103.596 Y125.926 E6.12024
G1 X103.107 Y125.071 E6.153
G1 X102.9 Y124.666 E6.16813
G1 X102.535 Y123.872 E6.19719
G1 X102.394 Y123.529 E6.20953
G1 X102.064 Y122.607 E6.2421
G1 X101.857 Y121.932 E6.26558
G1 X101.648 Y121.143 E6.29273
G1 X101.585 Y120.862 E6.30231
G1 X101.487 Y120.37 E6.31899
G1 X101.452 Y120.17 E6.32574
G1 X101.332 Y119.249 E6.35664
G1 X101.283 Y118.678 E6.3757
G1 X101.244 Y117.772 E6.40586
G1 X101.244 Y117.155 E6.42638
G1 X101.283 Y116.242 E6.45677
G1 X101.311 Y115.918 E6.46759
G1 X101.374 Y115.361 E6.48624
G1 X101.388 Y115.261 E6.48959
G1 X101.45 Y114.871 E6.50273
G1 X101.522 Y114.467 E6.51638
G1 X101.719 Y113.582 E6.54653
G1 X101.834 Y113.153 E6.5613
G1 X101.937 Y112.797 E6.57363
G1 X102.041 Y112.457 E6.58546
G1 X102.382 Y111.506 E6.61906
G1 X102.581 Y111.025 E6.63637
G1 X102.956 Y110.217 E6.666
G1 X103.118 Y109.903 E6.67775
G1 X103.329 Y109.514 E6.69247
G1 X103.61 Y109.041 E6.71077
G1 X103.892 Y108.594 E6.72835
G1 X104.243 Y108.072 E6.74927
G1 X104.385 Y107.874 E6.75737
G1 X104.687 Y107.474 E6.77404
G1 X104.835 Y107.287 E6.78198
G1 X105.211 Y106.838 E6.80145
G1 X105.435 Y106.585 E6.81269
G1 X106.017 Y105.978 E6.84066
G0 F6000 X106.294 Y106.266
G1 F1200 X106.485 Y106.082 E6.84948
G1 X106.864 Y105.73 E6.86669
G1 X107.457 Y105.222 E6.89266
G1 X107.792 Y104.957 E6.90687
G1 X108.417 Y104.5 E6.93262
G1 X108.635 Y104.353 E6.94136
G1 X109.498 Y103.832 E6.97489
G1 X109.613 Y103.77 E6.97924
G1 X110.24 Y103.459 E7.00251
G1 X110.423 Y103.376 E7.0092
G1 X111.56 Y102.94 E7.0497
G1 X111.756 Y102.878 E7.05654
G1 X112.337 Y102.713 E7.07663
G1 X112.448 Y102.685 E7.08043
G1 X113.29 Y102.51 E7.10904
G1 X113.564 Y102.465 E7.11827
G1 X114.715 Y102.342 E7.15677
G1 X115.121 Y102.322 E7.17029
G1 X115.469 Y102.311 E7.18187
G1 X116.291 Y102.3 E7.20921
G1 X119.056 Y102.302 E7.30118
G1 X119.417 Y102.307 E7.31319
G1 X119.767 Y102.318 E7.32483
G1 X120.265 Y102.342 E7.34142
G1 X121.542 Y102.484 E7.38415
G1 X121.9 Y102.547 E7.39624
G1 X122.781 Y102.743 E7.42626
G1 X123.683 Y103.031 E7.45775
G1 X123.99 Y103.145 E7.46865
G1 X124.687 Y103.434 E7.49374
G1 X124.914 Y103.538 E7.50205
G1 X125.838 Y104.019 E7.53669
G1 X125.872 Y104.039 E7.53801
G1 X126.608 Y104.516 E7.56718
G1 X126.919 Y104.737 E7.57987
G1 X127.683 Y105.337 E7.61218
G1 X127.868 Y105.497 E7.62031
G1 X128.139 Y105.74 E7.63242
G1 X128.506 Y106.081 E7.64908
G1 X129.117 Y106.698 E7.67796
G1 X129.421 Y107.033 E7.69301
G1 X130.024 Y107.764 E7.72452
G1 X130.268 Y108.089 E7.73804
G1 X130.719 Y108.741 E7.76441
G1 X131.061 Y109.279 E7.78561
G1 X131.535 Y110.108 E7.81737
G1 X131.741 Y110.511 E7.83243
G1 X132.091 Y111.27 E7.86023
G1 X132.231 Y111.61 E7.87246
G1 X132.547 Y112.492 E7.90362
G1 X132.757 Y113.174 E7.92735
G1 X132.885 Y113.623 E7.94288
G1 X133.032 Y114.257 E7.96453
G1 X133.094 Y114.568 E7.97508
G1 X133.159 Y114.926 E7.98718
G1 X133.27 Y115.786 E8.01602
G1 X133.319 Y116.359 E8.03515
G1 X133.356 Y117.228 E8.06407
G1 X133.356 Y117.842 E8.0845
G1 X133.32 Y118.702 E8.11313
G1 X133.293 Y119.021 E8.12377
G1 X133.237 Y119.53 E8.1408
G1 X133.224 Y119.626 E8.14403
G1 X133.158 Y120.045 E8.15813
G1 X133.085 Y120.455 E8.17199
G1 X132.901 Y121.287 E8.20033
G1 X132.787 Y121.716 E8.21509
G1 X132.682 Y122.084 E8.22782
G1 X132.576 Y122.43 E8.23985
G1 X132.253 Y123.331 E8.27169
G1 X132.06 Y123.799 E8.28853
G1 X131.706 Y124.564 E8.31656
G1 X131.545 Y124.878 E8.3283
G1 X131.354 Y125.234 E8.34174
G1 X131.074 Y125.71 E8.3601
G1 X130.805 Y126.14 E8.37697
G1 X130.45 Y126.67 E8.39819
G1 X130.306 Y126.871 E8.40642
G1 X130.029 Y127.24 E8.42176
G1 X129.87 Y127.442 E8.43031
G1 X129.502 Y127.883 E8.44942
G1 X129.284 Y128.13 E8.46037
G1 X128.733 Y128.707 E8.48691
G1 X128.384 Y129.042 E8.503
G1 X128.176 Y129.235 E8.51244
G1 X127.529 Y129.787 E8.54072
G1 X127.067 Y130.149 E8.56024
G1 X126.249 Y130.727 E8.59356
G1 X125.289 Y131.271 E8.63026
G1 X124.979 Y131.425 E8.64177
G1 X124.361 Y131.707 E8.66436
G1 X124.152 Y131.794 E8.67189
G1 X123.304 Y132.104 E8.70192
G1 X122.706 Y132.272 E8.72258
G1 X122.442 Y132.338 E8.73163
G1 X121.546 Y132.52 E8.76204
G1 X121.38 Y132.546 E8.76763
G1 X120.308 Y132.656 E8.80347
G1 X119.885 Y132.677 E8.81756
G1 X119.535 Y132.689 E8.82921
G1 X118.722 Y132.7 E8.85625
G1 X115.944 Y132.698 E8.94865
G1 X115.583 Y132.693 E8.96066
G1 X115.234 Y132.682 E8.97227
G1 X114.735 Y132.658 E8.98889
G1 X113.452 Y132.515 E9.03182
G1 X113.095 Y132.452 E9.04388
G1 X112.214 Y132.256 E9.0739
G1 X111.7 Y132.102 E9.09175
G1 X111.446 Y132.019 E9.10063
G1 X110.34 Y131.585 E9.14015
G1 X110.132 Y131.489 E9.14777
G1 X109.329 Y131.075 E9.17782
G1 X108.871 Y130.796 E9.19565
G1 X108.597 Y130.619 E9.2065
G1 X107.894 Y130.121 E9.23516
G1 X107.665 Y129.944 E9.24478
G1 X107.161 Y129.528 E9.26652
G1 X106.847 Y129.247 E9.28054
G1 X106.489 Y128.914 E9.2968
G1 X105.888 Y128.305 E9.32526
G1 X105.579 Y127.965 E9.34054
G1 X104.964 Y127.221 E9.37264
G1 X104.725 Y126.902 E9.3859
G1 X104.275 Y126.251 E9.41222
G1 X103.933 Y125.712 E9.43345
G1 X103.464 Y124.889 E9.46496
G1 X103.257 Y124.484 E9.48009
G1 X102.905 Y123.72 E9.50806
G1 X102.764 Y123.377 E9.5204
G1 X102.446 Y122.49 E9.55174
G1 X102.239 Y121.815 E9.57522
G1 X102.038 Y121.055 E9.60137
G1 X101.975 Y120.774 E9.61095
G1 X101.881 Y120.301 E9.62699
G1 X101.846 Y120.101 E9.63374
G1 X101.73 Y119.215 E9.66346
G1 X101.681 Y118.644 E9.68252
G1 X101.644 Y117.772 E9.71155
G1 X101.644 Y117.155 E9.73207
G1 X101.682 Y116.277 E9.7613
G1 X101.71 Y115.953 E9.77212
G1 X101.771 Y115.417 E9.79006
G1 X101.844 Y114.941 E9.80608
G1 X101.916 Y114.537 E9.81973
G1 X102.106 Y113.686 E9.84873
G1 X102.221 Y113.257 E9.8635
G1 X102.319 Y112.914 E9.87536
G1 X102.423 Y112.574 E9.88719
G1 X102.752 Y111.659 E9.91953
G1 X102.951 Y111.178 E9.93684
G1 X103.311 Y110.4 E9.96536
G1 X103.473 Y110.086 E9.97711
G1 X103.678 Y109.709 E9.99138
G1 X103.948 Y109.255 E10.00895
G1 X104.23 Y108.808 E10.02653
G1 X104.568 Y108.306 E10.04666
G1 X104.71 Y108.108 E10.05476
G1 X105.001 Y107.722 E10.07084
G1 X105.149 Y107.535 E10.07877
G1 X105.51 Y107.103 E10.09749
