;FLAVOR:Marlin
M73 P0
M73 R11
;TIME:667
;Filament used: 0.314251m
;Layer height: 0.2
;MINX:97.769
;MINY:96.589
;MINZ:0.2
;MAXX:137.234
;MAXY:137.937
;MAXZ:7.8
;POSTPROCESSED
;Generated with Cura_SteamEngine 4.9.1
M140 S50
M105
M190 S50
M104 S215
M105
M109 S215
M82 ;absolute extrusion mode
; Ender 3 Custom Start G-code
G92 E0 ; Reset Extruder
G28 ; Home all axes
G1 Z2.0 F3000 ; Move Z Axis up little to prevent scratching of Heat Bed
G1 X0.1 Y20 Z0.3 F5000.0 ; Move to start position
G1 X0.1 Y200.0 Z0.3 F1500.0 E15 ; Draw the first line
G1 X0.4 Y200.0 Z0.3 F5000.0 ; Move to side a little
G1 X0.4 Y20 Z0.3 F1500.0 E30 ; Draw the second line
G92 E0 ; Reset Extruder
G1 Z2.0 F3000 ; Move Z Axis up little to prevent scratching of Heat Bed
G1 X5 Y20 Z0.3 F5000.0 ; Move over to prevent blob squish
G92 E0
G92 E0
G1 F2700 E-5
;LAYER_COUNT:39
;LAYER:0
M107
G0 F6000 X101.441 Y103.249 Z0.2
;TYPE:SKIRT
G1 F2700 E0
G1 F1200 X102.362 Y102.465 E0.04023
G1 X102.591 Y102.291 E0.04979
G1 X103.361 Y101.756 E0.08098
G1 X103.893 Y101.44 E0.10156
G1 X104.949 Y100.853 E0.14174
G1 X105.539 Y100.535 E0.16404
G1 X107.726 Y99.272 E0.24803
G1 X108.38 Y98.871 E0.27355
G1 X109.44 Y98.238 E0.31461
G1 X110.265 Y97.792 E0.34581
G1 X111.125 Y97.418 E0.377
G1 X111.992 Y97.124 E0.40745
G1 X112.327 Y97.026 E0.41906
G1 X113.237 Y96.802 E0.45023
G1 X114.163 Y96.655 E0.48141
G1 X115.099 Y96.589 E0.51262
G1 X116.066 Y96.603 E0.54479
G1 X116.302 Y96.617 E0.55265
G1 X117.235 Y96.713 E0.58384
G1 X118.157 Y96.887 E0.61505
G1 X118.876 Y97.081 E0.63982
G1 X119.101 Y97.15 E0.64765
G1 X119.985 Y97.463 E0.67884
G1 X120.703 Y97.783 E0.70498
G1 X121.334 Y98.113 E0.72867
G1 X121.96 Y98.467 E0.75259
G1 X122.271 Y98.65 E0.76459
G1 X122.718 Y98.923 E0.78201
G1 X124.493 Y100.03 E0.85159
G1 X126.651 Y101.294 E0.93477
G1 X128.883 Y102.515 E1.01939
G1 X129.391 Y102.778 E1.03841
G1 X129.758 Y102.977 E1.0523
G1 X130.44 Y103.363 E1.07836
G1 X131.229 Y103.854 E1.10927
G1 X131.706 Y104.18 E1.12849
G1 X132.457 Y104.742 E1.15969
G1 X132.822 Y105.054 E1.17566
G1 X133.267 Y105.451 E1.19549
G1 X133.939 Y106.104 E1.22666
G1 X134.341 Y106.554 E1.24673
G1 X134.473 Y106.71 E1.25352
G1 X135.048 Y107.451 E1.28472
G1 X135.558 Y108.238 E1.31591
G1 X135.983 Y109.034 E1.34592
G1 X136.094 Y109.264 E1.35442
G1 X136.465 Y110.125 E1.3856
G1 X136.761 Y111.015 E1.41679
G1 X136.938 Y111.717 E1.44087
G1 X136.985 Y111.934 E1.44826
G1 X137.144 Y112.858 E1.47944
G1 X137.232 Y114.066 E1.51973
G1 X137.234 Y114.178 E1.52345
G1 X137.232 Y114.656 E1.53935
G1 X137.228 Y114.802 E1.54421
G1 X137.197 Y117.413 E1.63106
G1 X137.228 Y119.616 E1.70434
G1 X137.229 Y119.849 E1.71209
G1 X137.226 Y120.27 E1.72609
G1 X137.179 Y121.207 E1.75729
G1 X137.085 Y121.946 E1.78207
G1 X136.9 Y122.865 E1.81325
G1 X136.531 Y124.061 E1.85488
G1 X136.437 Y124.314 E1.86386
G1 X136.073 Y125.179 E1.89507
G1 X135.637 Y126.009 E1.92625
G1 X135.009 Y126.971 E1.96446
G1 X134.944 Y127.06 E1.96813
G1 X134.359 Y127.793 E1.99932
G1 X133.97 Y128.217 E2.01846
G1 X133.652 Y128.546 E2.03368
G1 X133.102 Y129.077 E2.05911
G1 X132.736 Y129.397 E2.07528
G1 X132.578 Y129.529 E2.08212
G1 X132.185 Y129.842 E2.09883
G1 X132.022 Y129.966 E2.10565
G1 X131.515 Y130.33 E2.1264
G1 X131.158 Y130.563 E2.14058
G1 X130.826 Y130.771 E2.15361
G1 X130.397 Y131.026 E2.17021
G1 X129.928 Y131.291 E2.18813
G1 X129.617 Y131.461 E2.19992
G1 X129.316 Y131.618 E2.21121
G1 X127.058 Y132.837 E2.29656
G1 X124.931 Y134.065 E2.37824
G1 X122.896 Y135.334 E2.45801
G1 X122.692 Y135.458 E2.46595
G1 X121.84 Y135.964 E2.49891
G1 X121.46 Y136.179 E2.51343
G1 X121.146 Y136.349 E2.52531
G1 X120.318 Y136.754 E2.55596
G1 X120.046 Y136.873 E2.56584
G1 X119.621 Y137.048 E2.58113
G1 X119.307 Y137.17 E2.59233
G1 X118.419 Y137.472 E2.62353
G1 X117.525 Y137.694 E2.65416
G1 X117.432 Y137.713 E2.65732
G1 X116.506 Y137.862 E2.68852
G1 X115.28 Y137.936 E2.72937
G1 X115.058 Y137.937 E2.73675
G1 X114.12 Y137.901 E2.76797
G1 X113.19 Y137.786 E2.79914
G1 X112.272 Y137.591 E2.83035
G1 X111.717 Y137.433 E2.84955
G1 X111.43 Y137.343 E2.85955
G1 X110.547 Y137.024 E2.89078
G1 X109.696 Y136.632 E2.92194
G1 X109.279 Y136.406 E2.93771
G1 X108.9 Y136.187 E2.95227
G1 X108.056 Y135.678 E2.98505
G1 X105.348 Y134.104 E3.08923
G1 X103.817 Y133.248 E3.14757
G1 X103.018 Y132.756 E3.17878
G1 X102.264 Y132.198 E3.20998
G1 X101.563 Y131.579 E3.24108
G1 X101.412 Y131.434 E3.24805
G1 X100.764 Y130.756 E3.27924
G1 X100.176 Y130.026 E3.31042
G1 X99.642 Y129.232 E3.34224
G1 X99.526 Y129.042 E3.34965
G1 X99.072 Y128.221 E3.38085
G1 X98.69 Y127.365 E3.41203
G1 X98.39 Y126.507 E3.44226
G1 X98.318 Y126.27 E3.4505
G1 X98.084 Y125.362 E3.48168
G1 X97.973 Y124.762 E3.50198
G1 X97.904 Y124.259 E3.51887
G1 X97.84 Y123.696 E3.53771
G1 X97.776 Y122.82 E3.56693
G1 X97.769 Y122.246 E3.58602
G1 X97.778 Y121.579 E3.6082
G1 X97.783 Y121.36 E3.61549
G1 X97.866 Y118.882 E3.69796
G1 X97.878 Y116.393 E3.78074
G1 X97.78 Y112.863 E3.89819
G1 X97.773 Y112.705 E3.90345
G1 X97.779 Y111.653 E3.93844
G1 X97.811 Y111.06 E3.9582
G1 X97.901 Y110.127 E3.98937
G1 X98.071 Y109.204 E4.02059
G1 X98.319 Y108.3 E4.05177
G1 X98.514 Y107.74 E4.07149
G1 X98.616 Y107.472 E4.08103
G1 X98.987 Y106.611 E4.11221
G1 X99.43 Y105.784 E4.14341
G1 X100.077 Y104.811 E4.18228
G1 X100.197 Y104.65 E4.18895
G1 X100.789 Y103.923 E4.22014
G1 X101.441 Y103.249 E4.25133
G0 F6000 X101.741 Y103.515
G1 F1200 X102.604 Y102.784 E4.28894
G1 X102.833 Y102.61 E4.29851
G1 X103.59 Y102.085 E4.32915
G1 X104.088 Y101.79 E4.3484
G1 X105.139 Y101.205 E4.38841
G1 X105.722 Y100.89 E4.41045
G1 X107.956 Y99.601 E4.49623
G1 X108.585 Y99.214 E4.5208
G1 X109.645 Y98.581 E4.56186
G1 X110.455 Y98.144 E4.59247
G1 X111.301 Y97.779 E4.62312
G1 X112.104 Y97.508 E4.6513
G1 X112.439 Y97.41 E4.66291
G1 X113.333 Y97.191 E4.69353
G1 X114.243 Y97.049 E4.72416
G1 X115.161 Y96.987 E4.75476
G1 X116.043 Y97.003 E4.7841
G1 X116.279 Y97.017 E4.79197
G1 X117.195 Y97.111 E4.82259
G1 X118.099 Y97.284 E4.85321
G1 X118.759 Y97.464 E4.87596
G1 X118.984 Y97.533 E4.88379
G1 X119.851 Y97.841 E4.91439
G1 X120.528 Y98.142 E4.93903
G1 X121.137 Y98.461 E4.9619
G1 X121.763 Y98.815 E4.98582
G1 X122.063 Y98.991 E4.99738
G1 X122.507 Y99.263 E5.0147
G1 X124.275 Y100.366 E5.08401
G1 X126.477 Y101.655 E5.16888
G1 X128.701 Y102.873 E5.25321
G1 X129.207 Y103.134 E5.27215
G1 X129.561 Y103.325 E5.28553
G1 X130.243 Y103.711 E5.31159
G1 X131.003 Y104.185 E5.34138
G1 X131.48 Y104.511 E5.3606
G1 X132.556 Y105.352 E5.40602
G1 X133.001 Y105.749 E5.42586
G1 X133.66 Y106.391 E5.45646
G1 X134.036 Y106.812 E5.47523
G1 X134.168 Y106.968 E5.48203
G1 X134.732 Y107.696 E5.51266
G1 X135.23 Y108.47 E5.54327
G1 X135.622 Y109.208 E5.57106
G1 X135.733 Y109.438 E5.57956
G1 X136.097 Y110.284 E5.61019
G1 X136.386 Y111.158 E5.64081
G1 X136.547 Y111.801 E5.66285
G1 X136.594 Y112.018 E5.67024
G1 X136.749 Y112.926 E5.70088
G1 X136.832 Y114.073 E5.73912
G1 X136.834 Y114.185 E5.74285
M73 P1
G1 X136.833 Y114.646 E5.75818
G1 X136.827 Y114.88 E5.76597
G1 X136.797 Y117.413 E5.85022
G1 X136.828 Y119.621 E5.92367
G1 X136.829 Y119.847 E5.93119
G1 X136.826 Y120.268 E5.94519
G1 X136.779 Y121.187 E5.97579
G1 X136.69 Y121.883 E5.99913
G1 X136.507 Y122.785 E6.02974
G1 X136.156 Y123.922 E6.06932
G1 X136.062 Y124.175 E6.0783
G1 X135.705 Y125.023 E6.1089
G1 X135.274 Y125.837 E6.13953
G1 X134.686 Y126.735 E6.17524
G1 X134.621 Y126.824 E6.1789
G1 X134.046 Y127.543 E6.20952
G1 X133.683 Y127.939 E6.22739
G1 X133.365 Y128.268 E6.24261
G1 X132.834 Y128.78 E6.26714
G1 X132.479 Y129.09 E6.28282
G1 X132.321 Y129.222 E6.28966
G1 X131.943 Y129.523 E6.30574
G1 X131.78 Y129.647 E6.31255
G1 X131.289 Y129.999 E6.33264
G1 X130.946 Y130.224 E6.34629
G1 X130.614 Y130.432 E6.35932
G1 X130.201 Y130.678 E6.3753
G1 X129.732 Y130.943 E6.39322
G1 X129.431 Y131.106 E6.40461
G1 X129.228 Y131.212 E6.41222
G1 X126.86 Y132.49 E6.50172
G1 X124.699 Y133.737 E6.58471
G1 X122.684 Y134.994 E6.6637
G1 X122.488 Y135.114 E6.67134
G1 X121.636 Y135.62 E6.7043
G1 X121.27 Y135.828 E6.7183
G1 X120.956 Y135.998 E6.73018
G1 X120.158 Y136.387 E6.7597
G1 X119.886 Y136.506 E6.76958
G1 X119.476 Y136.675 E6.78433
G1 X119.162 Y136.797 E6.79553
G1 X118.29 Y137.093 E6.82616
G1 X117.445 Y137.302 E6.85511
G1 X117.352 Y137.321 E6.85827
G1 X116.443 Y137.466 E6.88888
G1 X115.278 Y137.536 E6.9277
G1 X115.056 Y137.537 E6.93509
G1 X114.136 Y137.501 E6.96571
G1 X113.222 Y137.386 E6.99635
G1 X112.323 Y137.191 E7.02694
G1 X111.836 Y137.051 E7.0438
G1 X111.549 Y136.961 E7.0538
G1 X110.684 Y136.648 E7.0844
G1 X109.476 Y136.059 E7.1291
G1 X109.339 Y135.981 E7.13434
G1 X109.107 Y135.844 E7.1433
G1 X108.285 Y135.348 E7.17523
G1 X105.565 Y133.767 E7.27987
G1 X104.012 Y132.899 E7.33905
G1 X103.228 Y132.415 E7.36969
G1 X102.49 Y131.865 E7.4003
G1 X101.84 Y131.291 E7.42915
G1 X101.689 Y131.146 E7.43611
G1 X101.053 Y130.48 E7.46674
G1 X100.478 Y129.761 E7.49736
G1 X99.984 Y129.024 E7.52687
G1 X99.868 Y128.834 E7.53427
G1 X99.423 Y128.028 E7.5649
G1 X99.049 Y127.186 E7.59554
G1 X98.773 Y126.391 E7.62353
G1 X98.701 Y126.154 E7.63177
G1 X98.472 Y125.263 E7.66236
G1 X98.368 Y124.699 E7.68144
G1 X98.302 Y124.214 E7.69772
G1 X98.238 Y123.651 E7.71657
G1 X98.176 Y122.807 E7.74471
G1 X98.169 Y122.251 E7.76321
G1 X98.178 Y121.584 E7.78539
G1 X98.183 Y121.373 E7.79241
G1 X98.266 Y118.897 E7.87481
G1 X98.278 Y116.383 E7.95843
G1 X98.182 Y112.926 E8.07345
G1 X98.172 Y112.689 E8.08134
G1 X98.178 Y111.675 E8.11507
G1 X98.21 Y111.082 E8.13482
G1 X98.3 Y110.166 E8.16543
G1 X98.469 Y109.26 E8.19609
G1 X98.715 Y108.373 E8.2267
G1 X98.888 Y107.883 E8.24399
G1 X98.99 Y107.615 E8.25352
G1 X99.355 Y106.769 E8.28417
G1 X99.791 Y105.959 E8.31476
G1 X100.398 Y105.05 E8.35112
G1 X100.518 Y104.889 E8.3578
G1 X101.1 Y104.176 E8.38841
G1 X101.741 Y103.515 E8.41903
G0 F6000 X102.041 Y103.783
G1 F1200 X102.846 Y103.102 E8.4541
G1 X103.075 Y102.928 E8.46367
G1 X103.818 Y102.414 E8.49372
G1 X104.283 Y102.139 E8.51169
G1 X105.329 Y101.557 E8.5515
G1 X105.933 Y101.231 E8.57433
G1 X108.118 Y99.97 E8.65824
G1 X108.79 Y99.558 E8.68445
G1 X109.85 Y98.925 E8.72552
G1 X110.645 Y98.496 E8.75556
G1 X111.475 Y98.14 E8.7856
G1 X112.216 Y97.892 E8.81159
G1 X112.551 Y97.794 E8.8232
G1 X113.428 Y97.579 E8.85323
G1 X114.321 Y97.443 E8.88328
G1 X115.222 Y97.386 E8.9133
G1 X116.019 Y97.402 E8.93982
G1 X116.255 Y97.416 E8.94768
G1 X117.153 Y97.509 E8.97771
G1 X118.04 Y97.682 E9.00777
G1 X118.642 Y97.846 E9.02852
G1 X118.867 Y97.915 E9.03635
G1 X119.717 Y98.218 E9.06636
G1 X120.352 Y98.502 E9.0895
G1 X120.94 Y98.809 E9.11156
G1 X121.566 Y99.163 E9.13548
G1 X121.855 Y99.333 E9.14663
G1 X122.295 Y99.602 E9.16378
G1 X124.066 Y100.707 E9.23321
G1 X126.289 Y102.008 E9.31888
G1 X128.488 Y103.212 E9.40226
G1 X129.024 Y103.489 E9.42233
G1 X129.364 Y103.673 E9.43519
G1 X130.046 Y104.059 E9.46125
G1 X130.777 Y104.515 E9.48991
G1 X131.254 Y104.841 E9.50913
G1 X132.289 Y105.651 E9.55284
G1 X132.734 Y106.048 E9.57267
G1 X133.381 Y106.678 E9.60271
G1 X133.731 Y107.07 E9.62019
G1 X133.863 Y107.226 E9.62698
G1 X134.415 Y107.941 E9.65703
G1 X134.902 Y108.702 E9.68708
G1 X135.262 Y109.382 E9.71267
G1 X135.373 Y109.612 E9.72116
G1 X135.729 Y110.442 E9.7512
G1 X136.011 Y111.3 E9.78124
G1 X136.156 Y111.886 E9.80132
G1 X136.203 Y112.103 E9.8087
G1 X136.355 Y112.993 E9.83873
G1 X136.432 Y114.08 E9.87498
G1 X136.434 Y114.192 E9.8787
G1 X136.433 Y114.635 E9.89344
G1 X136.427 Y114.869 E9.90122
G1 X136.397 Y117.415 E9.98591
G1 X136.428 Y119.627 E10.05949
G1 X136.429 Y119.844 E10.06671
G1 X136.426 Y120.265 E10.08071
G1 X136.379 Y121.167 E10.11075
G1 X136.295 Y121.821 E10.13268
G1 X136.115 Y122.706 E10.16272
G1 X135.781 Y123.782 E10.20019
G1 X135.687 Y124.035 E10.20917
G1 X135.336 Y124.867 E10.2392
G1 X134.912 Y125.665 E10.26926
G1 X134.363 Y126.499 E10.30247
G1 X134.298 Y126.588 E10.30613
G1 X133.734 Y127.293 E10.33616
G1 X133.395 Y127.661 E10.3528
G1 X133.077 Y127.99 E10.36802
G1 X132.566 Y128.483 E10.39164
G1 X132.223 Y128.783 E10.40679
G1 X132.065 Y128.915 E10.41364
G1 X131.701 Y129.205 E10.42912
G1 X131.538 Y129.329 E10.43593
G1 X131.064 Y129.669 E10.45533
G1 X130.733 Y129.885 E10.46848
G1 X130.401 Y130.093 E10.48151
G1 X130.004 Y130.329 E10.49687
G1 X129.535 Y130.594 E10.51479
G1 X129.246 Y130.752 E10.52574
G1 X128.987 Y130.887 E10.53546
G1 X126.676 Y132.134 E10.6228
G1 X124.502 Y133.39 E10.70631
G1 X122.473 Y134.655 E10.78583
G1 X122.283 Y134.77 E10.79322
G1 X121.431 Y135.276 E10.82618
G1 X121.079 Y135.476 E10.83964
G1 X120.765 Y135.646 E10.85152
G1 X119.997 Y136.021 E10.87994
G1 X119.725 Y136.14 E10.88982
G1 X119.331 Y136.303 E10.904
G1 X119.017 Y136.425 E10.91521
G1 X118.162 Y136.714 E10.94522
G1 X117.365 Y136.911 E10.97253
G1 X117.272 Y136.93 E10.97569
G1 X116.38 Y137.071 E11.00572
G1 X115.276 Y137.136 E11.04251
G1 X115.054 Y137.137 E11.04989
G1 X114.152 Y137.101 E11.07991
G1 X113.256 Y136.985 E11.10996
G1 X111.956 Y136.67 E11.15445
G1 X111.669 Y136.58 E11.16446
G1 X110.82 Y136.272 E11.1945
G1 X109.674 Y135.711 E11.23693
G1 X109.313 Y135.502 E11.25081
G1 X108.442 Y134.976 E11.28465
G1 X105.737 Y133.404 E11.38871
G1 X104.207 Y132.549 E11.447
M73 P2
G1 X103.439 Y132.074 E11.47704
G1 X102.716 Y131.533 E11.50707
G1 X102.117 Y131.002 E11.5337
G1 X101.966 Y130.857 E11.54066
G1 X101.343 Y130.203 E11.5707
G1 X100.78 Y129.497 E11.60073
G1 X100.325 Y128.815 E11.628
G1 X100.209 Y128.625 E11.63541
G1 X99.773 Y127.834 E11.66545
G1 X99.409 Y127.008 E11.69547
G1 X99.155 Y126.275 E11.72127
G1 X99.083 Y126.038 E11.72951
G1 X98.859 Y125.163 E11.75955
G1 X98.763 Y124.636 E11.77737
G1 X98.699 Y124.169 E11.79305
G1 X98.635 Y123.606 E11.81189
G1 X98.576 Y122.794 E11.83897
G1 X98.569 Y122.256 E11.85686
G1 X98.578 Y121.589 E11.87905
G1 X98.583 Y121.386 E11.88581
G1 X98.666 Y118.912 E11.96814
G1 X98.678 Y116.374 E12.05255
G1 X98.582 Y112.91 E12.16781
G1 X98.572 Y112.672 E12.17573
G1 X98.578 Y111.696 E12.2082
G1 X98.61 Y111.103 E12.22795
G1 X98.698 Y110.205 E12.25796
G1 X98.866 Y109.317 E12.28802
G1 X99.262 Y108.025 E12.33296
G1 X99.364 Y107.757 E12.3425
G1 X99.722 Y106.928 E12.37253
G1 X100.153 Y106.134 E12.40258
G1 X100.719 Y105.289 E12.43641
G1 X100.839 Y105.128 E12.44309
G1 X101.41 Y104.429 E12.47311
G1 X102.041 Y103.783 E12.50314
G1 F2700 E7.50314
;MESH:test02.stl
G0 F6000 X109.217 Y115.576
G0 X110.502 Y117.486
G0 X111.278 Y118.248
G0 X109.926 Y120.384
G0 X109.596 Y121.411
G0 X109.536 Y122.489
G0 X109.616 Y122.973
G0 X110.523 Y119.789
G0 X112.277 Y118.803
G0 X113.2 Y118.535
G0 X114.158 Y118.517
G0 X115.09 Y118.746
G0 X115.932 Y119.207
G0 X116.627 Y119.871
G0 X117.126 Y120.688
G0 X117.399 Y121.608
G0 X117.422 Y122.567
G0 X117.2 Y123.499
G0 X116.743 Y124.347
G0 X116.084 Y125.043
G0 X115.27 Y125.546
G0 X114.939 Y125.699
G0 X115.153 Y126.343
;TYPE:WALL-INNER
G1 F2700 E12.50314
G1 F1200 X115.036 Y126.332 E12.50705
G1 X114.91 Y126.219 E12.51268
G1 X114.866 Y126.179 E12.51466
G1 X114.867 Y126.132 E12.51622
G1 X114.871 Y125.969 E12.52164
G1 X114.94 Y125.876 E12.5255
G1 X114.992 Y125.846 E12.52749
G1 X115.07 Y125.801 E12.53049
G1 X115.337 Y125.693 E12.54007
G1 X115.633 Y125.542 E12.55112
G1 X115.918 Y125.367 E12.56224
G1 X116.186 Y125.168 E12.57335
G1 X116.437 Y124.945 E12.58451
G1 X116.666 Y124.702 E12.59562
G1 X116.873 Y124.441 E12.6067
G1 X117.059 Y124.16 E12.61791
G1 X117.218 Y123.865 E12.62905
G1 X117.35 Y123.556 E12.64023
G1 X117.455 Y123.24 E12.6513
G1 X117.533 Y122.915 E12.66242
G1 X117.582 Y122.584 E12.67355
G1 X117.603 Y122.25 E12.68468
G1 X117.594 Y121.917 E12.69576
G1 X117.558 Y121.583 E12.70693
G1 X117.49 Y121.255 E12.71807
G1 X117.396 Y120.934 E12.7292
G1 X117.273 Y120.623 E12.74032
