;FLAVOR:Marlin
;TIME:1036
;Filament used: 0.686137m
;Layer height: 0.2
;MINX:87.898
;MINY:100.5
;MINZ:0.2
;MAXX:147.089
;MAXY:134.5
;MAXZ:8
;Generated with Cura_SteamEngine 4.9.1
M140 S50
M105
M190 S50
M104 S215
M105
M109 S215
M82 ;absolute extrusion mode
; Ender 3 Custom Start G-code
G92 E0 ; Reset Extruder
G28 ; Home all axes
G1 Z2.0 F3000 ; Move Z Axis up little to prevent scratching of Heat Bed
G1 X0.1 Y20 Z0.3 F5000.0 ; Move to start position
G1 X0.1 Y200.0 Z0.3 F1500.0 E15 ; Draw the first line
G1 X0.4 Y200.0 Z0.3 F5000.0 ; Move to side a little
G1 X0.4 Y20 Z0.3 F1500.0 E30 ; Draw the second line
G92 E0 ; Reset Extruder
G1 Z2.0 F3000 ; Move Z Axis up little to prevent scratching of Heat Bed
G1 X5 Y20 Z0.3 F5000.0 ; Move over to prevent blob squish
G92 E0
G92 E0
G1 F2700 E-5
;LAYER_COUNT:40
;LAYER:0
M107
G0 F6000 X93.715 Y104.713 Z0.2
;TYPE:SKIRT
G1 F2700 E0
G1 F1200 X94.279 Y104.241 E0.02446
G1 X94.864 Y103.785 E0.04913
G1 X95.475 Y103.368 E0.07373
G1 X96.11 Y102.965 E0.09875
G1 X96.816 Y102.552 E0.12595
G1 X96.988 Y102.46 E0.13244
G1 X97.456 Y102.224 E0.14987
G1 X97.736 Y102.091 E0.16018
G1 X98.146 Y101.906 E0.17514
G1 X98.355 Y101.817 E0.1827
G1 X98.895 Y101.604 E0.20201
G1 X98.969 Y101.577 E0.20463
G1 X99.429 Y101.421 E0.22078
G1 X100.158 Y101.191 E0.24621
G1 X101.064 Y100.947 E0.27742
G1 X101.548 Y100.85 E0.29383
G1 X102.191 Y100.736 E0.31555
G1 X103.169 Y100.607 E0.34836
G1 X103.553 Y100.574 E0.36118
G1 X104.009 Y100.545 E0.37638
G1 X104.71 Y100.514 E0.39972
G1 X105.088 Y100.504 E0.41229
G1 X105.501 Y100.5 E0.42603
G1 X129.499 Y100.5 E1.22421
G1 X129.913 Y100.504 E1.23798
G1 X130.292 Y100.514 E1.25059
G1 X130.991 Y100.545 E1.27386
G1 X131.446 Y100.574 E1.28902
G1 X131.83 Y100.607 E1.30184
G1 X132.821 Y100.738 E1.33509
G1 X133.471 Y100.854 E1.35705
G1 X134.386 Y101.058 E1.38823
G1 X134.843 Y101.191 E1.40406
G1 X135.57 Y101.42 E1.42941
G1 X136.388 Y101.714 E1.45832
G1 X136.623 Y101.809 E1.46675
G1 X137.103 Y102.017 E1.48415
G1 X137.307 Y102.111 E1.49162
G1 X137.7 Y102.301 E1.50614
G1 X137.955 Y102.431 E1.51566
G1 X138.459 Y102.704 E1.53473
G1 X138.908 Y102.975 E1.55217
G1 X139.538 Y103.376 E1.57701
G1 X140.136 Y103.786 E1.60112
G1 X140.181 Y103.819 E1.60298
G1 X140.743 Y104.26 E1.62674
G1 X141.3 Y104.727 E1.65092
G1 X141.966 Y105.332 E1.68084
G1 X142.138 Y105.502 E1.68889
G1 X142.42 Y105.792 E1.70234
G1 X142.592 Y105.975 E1.71069
G1 X142.97 Y106.398 E1.72956
G1 X143.153 Y106.614 E1.73898
G1 X143.402 Y106.919 E1.75207
G1 X143.491 Y107.032 E1.75686
G1 X143.874 Y107.549 E1.77826
G1 X144.221 Y108.047 E1.79844
G1 X144.689 Y108.779 E1.82734
G1 X144.761 Y108.902 E1.83208
G1 X145.025 Y109.379 E1.85021
G1 X145.328 Y109.961 E1.87204
G1 X145.699 Y110.749 E1.90101
G1 X145.799 Y110.985 E1.90953
G1 X145.977 Y111.432 E1.92553
G1 X146.074 Y111.692 E1.93476
G1 X146.231 Y112.142 E1.95062
G1 X146.304 Y112.367 E1.95848
G1 X146.444 Y112.832 E1.97464
G1 X146.52 Y113.107 E1.98413
G1 X146.642 Y113.594 E2.00082
G1 X146.706 Y113.875 E2.01041
G1 X146.885 Y114.865 E2.04387
G1 X146.99 Y115.653 E2.07031
G1 X147.076 Y116.628 E2.10287
G1 X147.089 Y117.175 E2.12106
G1 X147.089 Y117.845 E2.14335
G1 X147.053 Y118.74 E2.17314
G1 X146.989 Y119.343 E2.19331
G1 X146.886 Y120.118 E2.21931
G1 X146.762 Y120.856 E2.2442
G1 X146.72 Y121.063 E2.25123
G1 X146.579 Y121.671 E2.27199
G1 X146.517 Y121.907 E2.2801
G1 X146.389 Y122.355 E2.2956
G1 X146.306 Y122.624 E2.30496
G1 X146.165 Y123.051 E2.31992
G1 X146.079 Y123.294 E2.32849
G1 X145.911 Y123.738 E2.34428
G1 X145.811 Y123.986 E2.35317
G1 X145.613 Y124.445 E2.3698
G1 X145.565 Y124.55 E2.37364
G1 X145.329 Y125.035 E2.39158
G1 X145.038 Y125.597 E2.41263
G1 X144.676 Y126.243 E2.43726
G1 X144.582 Y126.398 E2.44329
G1 X144.189 Y127 E2.4672
G1 X143.856 Y127.476 E2.48652
G1 X143.607 Y127.818 E2.50059
G1 X143.296 Y128.214 E2.51734
G1 X143.146 Y128.396 E2.52518
G1 X142.808 Y128.786 E2.54235
G1 X142.615 Y128.999 E2.55191
G1 X142.284 Y129.349 E2.56793
G1 X142.101 Y129.534 E2.57659
G1 X141.786 Y129.84 E2.59119
G1 X141.285 Y130.287 E2.61352
G1 X140.721 Y130.759 E2.63798
G1 X140.136 Y131.215 E2.66265
G1 X139.525 Y131.632 E2.68726
G1 X138.89 Y132.035 E2.71227
G1 X138.167 Y132.457 E2.74012
G1 X137.998 Y132.547 E2.74648
G1 X137.563 Y132.766 E2.76268
G1 X137.28 Y132.901 E2.77311
G1 X136.854 Y133.094 E2.78867
G1 X136.645 Y133.183 E2.79622
G1 X136.105 Y133.396 E2.81553
G1 X136.031 Y133.423 E2.81815
G1 X135.571 Y133.579 E2.83431
G1 X134.842 Y133.809 E2.85973
G1 X133.936 Y134.053 E2.89094
G1 X133.452 Y134.15 E2.90736
G1 X132.809 Y134.264 E2.92908
G1 X131.831 Y134.393 E2.96189
G1 X131.447 Y134.426 E2.9747
G1 X130.976 Y134.456 E2.9904
G1 X130.276 Y134.486 E3.0137
G1 X129.951 Y134.495 E3.02452
G1 X129.501 Y134.5 E3.03949
G1 X125.032 Y134.498 E3.18813
G1 X123.982 Y134.483 E3.22305
G1 X121.202 Y134.485 E3.31552
G1 X120.117 Y134.5 E3.35161
G1 X105.147 Y134.499 E3.84951
G1 X104.804 Y134.495 E3.86092
G1 X104.454 Y134.486 E3.87256
G1 X103.719 Y134.454 E3.89703
G1 X102.76 Y134.37 E3.92905
G1 X102.13 Y134.287 E3.95019
G1 X101.276 Y134.14 E3.97901
G1 X101.06 Y134.094 E3.98635
G1 X100.556 Y133.974 E4.00359
G1 X100.32 Y133.912 E4.0117
G1 X99.901 Y133.793 E4.02619
G1 X99.649 Y133.716 E4.03495
G1 X99.192 Y133.566 E4.05095
G1 X98.966 Y133.486 E4.05893
G1 X98.516 Y133.315 E4.07494
G1 X98.271 Y133.216 E4.08373
G1 X97.782 Y133.005 E4.10144
G1 X97.561 Y132.903 E4.10953
G1 X97.156 Y132.705 E4.12453
G1 X96.912 Y132.58 E4.13365
G1 X96.527 Y132.373 E4.14819
G1 X96.33 Y132.262 E4.15571
G1 X95.995 Y132.066 E4.16862
G1 X95.368 Y131.657 E4.19351
G1 X94.828 Y131.278 E4.21546
G1 X94.088 Y130.71 E4.24648
G1 X93.745 Y130.423 E4.26136
G1 X93.012 Y129.752 E4.29441
G1 X92.727 Y129.466 E4.30784
G1 X92.406 Y129.129 E4.32332
G1 X92.146 Y128.845 E4.33613
G1 X91.537 Y128.12 E4.36762
G1 X91.152 Y127.619 E4.38863
G1 X90.59 Y126.816 E4.42123
G1 X90.461 Y126.613 E4.42923
G1 X89.995 Y125.806 E4.46023
G1 X89.68 Y125.203 E4.48285
G1 X89.264 Y124.312 E4.51556
G1 X89.097 Y123.908 E4.5301
G1 X88.766 Y122.993 E4.56246
G1 X88.57 Y122.367 E4.58428
G1 X88.328 Y121.461 E4.61547
G1 X88.233 Y120.985 E4.63161
G1 X88.121 Y120.348 E4.65313
G1 X87.997 Y119.4 E4.68493
G1 X87.941 Y118.759 E4.70633
G1 X87.899 Y117.844 E4.73679
G1 X87.898 Y117.579 E4.74561
G1 X87.904 Y117.171 E4.75918
G1 X87.917 Y116.781 E4.77216
G1 X87.965 Y116.062 E4.79612
G1 X88.01 Y115.661 E4.80954
G1 X88.113 Y114.883 E4.83565
G1 X88.258 Y114.043 E4.864
G1 X88.303 Y113.831 E4.87121
G1 X88.42 Y113.336 E4.88812
G1 X88.479 Y113.11 E4.89589
G1 X88.604 Y112.668 E4.91117
G1 X88.687 Y112.397 E4.9206
G1 X88.845 Y111.921 E4.93728
G1 X88.931 Y111.68 E4.94579
G1 X89.094 Y111.251 E4.96105
G1 X89.198 Y110.994 E4.97027
G1 X89.407 Y110.51 E4.98781
G1 X89.455 Y110.406 E4.99162
G1 X89.688 Y109.933 E5.00916
G1 X89.998 Y109.338 E5.03147
G1 X90.393 Y108.642 E5.05809
G1 X90.464 Y108.527 E5.06258
G1 X90.812 Y107.998 E5.08364
G1 X91.148 Y107.518 E5.10313
G1 X91.393 Y107.182 E5.11696
G1 X91.704 Y106.786 E5.13371
G1 X91.854 Y106.604 E5.14155
G1 X92.192 Y106.214 E5.15872
G1 X92.385 Y106.001 E5.16828
G1 X92.716 Y105.651 E5.1843
G1 X92.899 Y105.466 E5.19296
G1 X93.214 Y105.16 E5.20756
G1 X93.715 Y104.713 E5.22989
G0 F6000 X93.972 Y105.02
G1 F1200 X94.536 Y104.548 E5.25435
G1 X95.101 Y104.107 E5.27819
G1 X95.689 Y103.705 E5.30188
G1 X96.324 Y103.302 E5.3269
G1 X97.004 Y102.905 E5.35309
G1 X97.176 Y102.813 E5.35958
G1 X97.628 Y102.585 E5.37641
G1 X97.908 Y102.452 E5.38672
G1 X98.303 Y102.274 E5.40113
G1 X98.512 Y102.185 E5.40869
G1 X99.032 Y101.98 E5.42728
G1 X99.106 Y101.953 E5.4299
G1 X99.55 Y101.802 E5.4455
G1 X100.279 Y101.572 E5.47092
G1 X101.618 Y101.244 E5.51677
G1 X102.261 Y101.13 E5.53849
G1 X103.203 Y101.006 E5.5701
G1 X103.587 Y100.973 E5.58291
G1 X104.027 Y100.944 E5.59758
G1 X104.728 Y100.913 E5.62092
G1 X105.092 Y100.904 E5.63303
G1 X105.501 Y100.9 E5.64663
G1 X129.499 Y100.9 E6.44481
G1 X129.909 Y100.904 E6.45845
G1 X130.275 Y100.913 E6.47062
G1 X130.974 Y100.944 E6.4939
G1 X131.412 Y100.973 E6.5085
G1 X131.796 Y101.006 E6.52131
G1 X132.75 Y101.132 E6.55332
G1 X133.4 Y101.248 E6.57528
G1 X134.723 Y101.573 E6.62059
G1 X135.45 Y101.802 E6.64594
G1 X136.238 Y102.085 E6.67379
G1 X136.473 Y102.18 E6.68222
G1 X136.936 Y102.38 E6.699
G1 X137.14 Y102.474 E6.70647
G1 X137.518 Y102.657 E6.72044
G1 X137.773 Y102.787 E6.72996
G1 X138.26 Y103.052 E6.7484
G1 X138.693 Y103.313 E6.76521
G1 X139.323 Y103.714 E6.79005
G1 X139.899 Y104.108 E6.81326
G1 X139.944 Y104.141 E6.81512
G1 X140.486 Y104.566 E6.83803
G1 X141.043 Y105.033 E6.8622
G1 X141.684 Y105.617 E6.89104
G1 X141.856 Y105.787 E6.89909
G1 X142.129 Y106.066 E6.91207
G1 X142.301 Y106.249 E6.92042
G1 X142.665 Y106.657 E6.93861
G1 X142.848 Y106.873 E6.94802
G1 X143.087 Y107.166 E6.9606
G1 X143.176 Y107.279 E6.96538
G1 X143.546 Y107.778 E6.98605
G1 X143.893 Y108.276 E7.00623
G1 X144.344 Y108.981 E7.03407
G1 X144.416 Y109.104 E7.03881
G1 X144.67 Y109.564 E7.05629
G1 X144.973 Y110.146 E7.07811
G1 X145.331 Y110.905 E7.10602
G1 X145.431 Y111.141 E7.11455
G1 X145.602 Y111.572 E7.12997
G1 X145.699 Y111.832 E7.1392
G1 X145.851 Y112.266 E7.15449
G1 X145.924 Y112.491 E7.16236
G1 X146.058 Y112.938 E7.17788
G1 X146.134 Y113.213 E7.18737
G1 X146.252 Y113.683 E7.20349
G1 X146.316 Y113.964 E7.21307
G1 X146.488 Y114.918 E7.24532
G1 X146.593 Y115.706 E7.27176
G1 X146.676 Y116.646 E7.30314
G1 X146.689 Y117.175 E7.32074
G1 X146.689 Y117.845 E7.34303
G1 X146.654 Y118.707 E7.37172
G1 X146.593 Y119.29 E7.39122
G1 X146.49 Y120.065 E7.41722
G1 X146.37 Y120.777 E7.44124
G1 X146.328 Y120.984 E7.44826
G1 X146.192 Y121.569 E7.46824
G1 X146.13 Y121.805 E7.47635
G1 X146.007 Y122.237 E7.49129
G1 X145.924 Y122.506 E7.50066
G1 X145.788 Y122.917 E7.51505
G1 X145.702 Y123.16 E7.52363
G1 X145.54 Y123.588 E7.53885
G1 X145.44 Y123.836 E7.54774
G1 X145.249 Y124.279 E7.56379
G1 X145.201 Y124.384 E7.56763
G1 X144.974 Y124.851 E7.5849
G1 X144.683 Y125.413 E7.60595
G1 X144.334 Y126.036 E7.6297
G1 X144.24 Y126.191 E7.63573
G1 X143.862 Y126.77 E7.65873
G1 X143.529 Y127.246 E7.67805
G1 X143.287 Y127.578 E7.69171
G1 X142.987 Y127.96 E7.70787
G1 X142.837 Y128.142 E7.71571
G1 X142.512 Y128.517 E7.73222
G1 X142.319 Y128.73 E7.74178
G1 X142 Y129.067 E7.75721
G1 X141.817 Y129.252 E7.76587
G1 X141.511 Y129.55 E7.78007
G1 X141.028 Y129.98 E7.80158
G1 X140.464 Y130.452 E7.82604
G1 X139.899 Y130.893 E7.84988
G1 X139.311 Y131.295 E7.87357
G1 X138.676 Y131.698 E7.89858
G1 X137.978 Y132.104 E7.92544
G1 X137.809 Y132.194 E7.93181
G1 X137.391 Y132.405 E7.94738
G1 X137.108 Y132.54 E7.95781
G1 X136.697 Y132.726 E7.97282
G1 X136.488 Y132.815 E7.98037
G1 X135.968 Y133.02 E7.99896
G1 X135.894 Y133.047 E8.00158
G1 X135.45 Y133.198 E8.01718
G1 X134.721 Y133.428 E8.04261
G1 X133.382 Y133.756 E8.08846
G1 X132.739 Y133.87 E8.11018
G1 X131.797 Y133.994 E8.14178
G1 X131.413 Y134.027 E8.1546
G1 X130.959 Y134.056 E8.16973
G1 X130.259 Y134.086 E8.19303
G1 X129.946 Y134.095 E8.20345
G1 X129.502 Y134.1 E8.21822
G1 X125.037 Y134.098 E8.36672
G1 X123.986 Y134.083 E8.40168
G1 X121.196 Y134.085 E8.49448
G1 X120.117 Y134.1 E8.53037
G1 X105.151 Y134.099 E9.02814
G1 X104.808 Y134.095 E9.03955
G1 X104.471 Y134.086 E9.05076
G1 X103.736 Y134.054 E9.07523
G1 X102.812 Y133.973 E9.10608
G1 X102.182 Y133.89 E9.12722
G1 X101.359 Y133.749 E9.15499
G1 X101.143 Y133.703 E9.16233
G1 X100.658 Y133.587 E9.17892
G1 X100.422 Y133.525 E9.18704
G1 X100.017 Y133.41 E9.20104
G1 X99.765 Y133.333 E9.2098
G1 X99.326 Y133.188 E9.22518
G1 X99.1 Y133.108 E9.23315
G1 X98.666 Y132.944 E9.24859
G1 X98.421 Y132.845 E9.25737
G1 X97.95 Y132.641 E9.27445
G1 X97.729 Y132.539 E9.28254
G1 X97.338 Y132.349 E9.297
G1 X97.094 Y132.224 E9.30612
G1 X96.724 Y132.025 E9.32009
G1 X96.527 Y131.914 E9.32761
G1 X96.202 Y131.724 E9.34013
G1 X95.598 Y131.329 E9.36414
G1 X95.058 Y130.95 E9.38608
G1 X94.345 Y130.404 E9.41595
G1 X94.002 Y130.117 E9.43082
G1 X93.296 Y129.469 E9.4627
G1 X93.011 Y129.183 E9.47613
G1 X92.701 Y128.859 E9.49104
G1 X92.441 Y128.575 E9.50385
G1 X91.854 Y127.876 E9.53421
G1 X91.469 Y127.375 E9.55522
G1 X90.928 Y126.601 E9.58663
G1 X90.799 Y126.398 E9.59463
G1 X90.35 Y125.621 E9.62448
G1 X90.035 Y125.018 E9.64711
G1 X89.634 Y124.159 E9.67864
G1 X89.467 Y123.755 E9.69318
G1 X89.147 Y122.873 E9.72438
G1 X88.951 Y122.247 E9.7462
G1 X88.627 Y120.916 E9.79176
G1 X88.515 Y120.279 E9.81327
G1 X88.395 Y119.366 E9.8439
G1 X88.339 Y118.725 E9.8653
G1 X88.299 Y117.842 E9.8947
G1 X88.298 Y117.577 E9.90351
G1 X88.304 Y117.184 E9.91659
G1 X88.317 Y116.794 E9.92957
G1 X88.363 Y116.1 E9.9527
G1 X88.407 Y115.714 E9.96562
G1 X88.51 Y114.936 E9.99172
G1 X88.649 Y114.126 E10.01906
G1 X88.694 Y113.914 E10.02627
G1 X88.807 Y113.437 E10.04257
G1 X88.866 Y113.211 E10.05034
G1 X88.987 Y112.785 E10.06507
G1 X89.07 Y112.514 E10.07449
G1 X89.222 Y112.055 E10.09058
G1 X89.308 Y111.814 E10.09909
G1 X89.465 Y111.401 E10.11378
G1 X89.569 Y111.144 E10.123
G1 X89.771 Y110.678 E10.1399
G1 X89.819 Y110.574 E10.14371
G1 X90.042 Y110.118 E10.16059
G1 X90.352 Y109.523 E10.1829
G1 X90.734 Y108.852 E10.20858
G1 X90.805 Y108.737 E10.21308
G1 X91.14 Y108.227 E10.23337
G1 X91.476 Y107.747 E10.25286
G1 X91.713 Y107.422 E10.26624
G1 X92.013 Y107.04 E10.2824
G1 X92.163 Y106.858 E10.29024
G1 X92.488 Y106.483 E10.30674
G1 X92.681 Y106.27 E10.3163
G1 X93 Y105.933 E10.33174
G1 X93.183 Y105.748 E10.34039
G1 X93.489 Y105.45 E10.3546
G1 X93.972 Y105.02 E10.37611
G0 F6000 X94.229 Y105.327
G1 F1200 X94.793 Y104.855 E10.40057
G1 X95.337 Y104.43 E10.42353
G1 X95.903 Y104.043 E10.44634
G1 X96.538 Y103.64 E10.47135
G1 X97.193 Y103.258 E10.49657
G1 X97.365 Y103.166 E10.50306
G1 X97.8 Y102.947 E10.51926
G1 X98.08 Y102.814 E10.52957
G1 X98.46 Y102.642 E10.54344
G1 X98.669 Y102.553 E10.55099
G1 X99.169 Y102.356 E10.56887
G1 X99.243 Y102.329 E10.57149
G1 X99.67 Y102.184 E10.58649
G1 X100.399 Y101.954 E10.61191
G1 X101.687 Y101.638 E10.65602
G1 X102.33 Y101.524 E10.67774
G1 X103.238 Y101.404 E10.7082
G1 X103.622 Y101.371 E10.72102
G1 X104.044 Y101.344 E10.73509
G1 X104.745 Y101.313 E10.75843
G1 X105.096 Y101.303 E10.7701
G1 X105.401 Y101.3 E10.78025
G1 X129.599 Y101.3 E11.58508
G1 X129.905 Y101.303 E11.59526
G1 X130.257 Y101.313 E11.60697
G1 X130.956 Y101.344 E11.63024
G1 X131.377 Y101.371 E11.64427
G1 X131.761 Y101.404 E11.65709
G1 X132.68 Y101.526 E11.68792
G1 X133.33 Y101.642 E11.70989
G1 X134.602 Y101.954 E11.75345
G1 X135.329 Y102.183 E11.7788
G1 X136.088 Y102.455 E11.80561
G1 X136.323 Y102.55 E11.81404
G1 X136.769 Y102.743 E11.83021
G1 X136.973 Y102.837 E11.83768
G1 X137.337 Y103.014 E11.85114
G1 X137.592 Y103.144 E11.86066
G1 X138.062 Y103.399 E11.87845
G1 X138.478 Y103.65 E11.89461
G1 X139.108 Y104.051 E11.91944
G1 X139.663 Y104.431 E11.94182
G1 X139.708 Y104.464 E11.94367
G1 X140.229 Y104.873 E11.9657
G1 X140.786 Y105.34 E11.98988
G1 X141.403 Y105.901 E12.01761
G1 X141.575 Y106.071 E12.02566
G1 X141.837 Y106.34 E12.03815
G1 X142.009 Y106.523 E12.0465
G1 X142.359 Y106.916 E12.064
G1 X142.542 Y107.132 E12.07342
G1 X142.773 Y107.414 E12.08554
G1 X142.862 Y107.527 E12.09033
G1 X143.218 Y108.007 E12.1102
G1 X143.565 Y108.505 E12.13039
G1 X143.999 Y109.183 E12.15717
G1 X144.071 Y109.306 E12.16191
G1 X144.315 Y109.749 E12.17873
G1 X144.618 Y110.331 E12.20055
G1 X144.963 Y111.061 E12.22741
G1 X145.063 Y111.297 E12.23593
G1 X145.228 Y111.712 E12.25079
G1 X145.325 Y111.972 E12.26002
G1 X145.47 Y112.389 E12.2747
G1 X145.543 Y112.614 E12.28257
G1 X145.672 Y113.045 E12.29753
G1 X145.748 Y113.32 E12.30702
G1 X145.862 Y113.772 E12.32252
G1 X145.926 Y114.053 E12.33211
G1 X146.092 Y114.971 E12.36314
G1 X146.197 Y115.759 E12.38958
