;FLAVOR:Marlin
;TIME:1015
;Filament used: 0.319335m
;Layer height: 0.2
;MINX:100.844
;MINY:101.5
;MINZ:0.2
;MAXX:134.156
;MAXY:133.5
;MAXZ:15.2
;Generated with Cura_SteamEngine 4.9.1
M140 S50
M105
M190 S50
M104 S215
M105
M109 S215
M82 ;absolute extrusion mode
; Ender 3 Custom Start G-code
G92 E0 ; Reset Extruder
G28 ; Home all axes
G1 Z2.0 F3000 ; Move Z Axis up little to prevent scratching of Heat Bed
G1 X0.1 Y20 Z0.3 F5000.0 ; Move to start position
G1 X0.1 Y200.0 Z0.3 F1500.0 E15 ; Draw the first line
G1 X0.4 Y200.0 Z0.3 F5000.0 ; Move to side a little
G1 X0.4 Y20 Z0.3 F1500.0 E30 ; Draw the second line
G92 E0 ; Reset Extruder
G1 Z2.0 F3000 ; Move Z Axis up little to prevent scratching of Heat Bed
G1 X5 Y20 Z0.3 F5000.0 ; Move over to prevent blob squish
G92 E0
G92 E0
G1 F2700 E-5
;LAYER_COUNT:80
;LAYER:0
M107
G0 F6000 X105.703 Y105.726 Z0.2
;TYPE:SKIRT
G1 F2700 E0
G1 F1200 X105.904 Y105.531 E0.00931
G1 X106.106 Y105.34 E0.01856
G1 X106.286 Y105.174 E0.0267
G1 X106.963 Y104.598 E0.05627
G1 X107.46 Y104.209 E0.07726
G1 X108.223 Y103.663 E0.10847
G1 X108.744 Y103.342 E0.12882
G1 X108.959 Y103.218 E0.13707
G1 X110.136 Y102.631 E0.18082
G1 X110.314 Y102.555 E0.18726
G1 X111.113 Y102.249 E0.21572
G1 X111.338 Y102.173 E0.22361
G1 X112.594 Y101.83 E0.26692
G1 X112.808 Y101.785 E0.27419
G1 X113.775 Y101.627 E0.30678
G1 X113.935 Y101.608 E0.31214
G1 X114.617 Y101.548 E0.33491
G1 X114.885 Y101.533 E0.34384
G1 X115.307 Y101.518 E0.35788
G1 X116.416 Y101.5 E0.39477
G1 X119.081 Y101.502 E0.48341
G1 X119.75 Y101.512 E0.50567
G1 X120.883 Y101.588 E0.54343
G1 X121.144 Y101.619 E0.55218
G1 X121.79 Y101.715 E0.5739
G1 X122.024 Y101.757 E0.5818
G1 X123.157 Y102.023 E0.62051
G1 X123.363 Y102.083 E0.62765
G1 X124.252 Y102.383 E0.65886
G1 X124.775 Y102.601 E0.6777
G1 X125.086 Y102.74 E0.68903
G1 X126.238 Y103.339 E0.73222
G1 X126.521 Y103.508 E0.74318
G1 X127.467 Y104.141 E0.78104
G1 X127.566 Y104.215 E0.78515
G1 X128.169 Y104.7 E0.81089
G1 X128.396 Y104.896 E0.82086
G1 X128.697 Y105.166 E0.83431
G1 X129.053 Y105.497 E0.85048
G1 X129.709 Y106.161 E0.88152
G1 X130.013 Y106.496 E0.89657
G1 X130.664 Y107.284 E0.93057
G1 X130.908 Y107.609 E0.94408
G1 X131.397 Y108.316 E0.97268
G1 X131.785 Y108.927 E0.99675
G1 X132.307 Y109.844 E1.03184
G1 X132.533 Y110.309 E1.04904
G1 X132.756 Y110.796 E1.06685
G1 X133.101 Y111.639 E1.09715
G1 X133.235 Y112.01 E1.11027
G1 X133.377 Y112.428 E1.12495
G1 X133.543 Y112.989 E1.14441
G1 X133.657 Y113.415 E1.15908
G1 X133.792 Y113.979 E1.17837
G1 X133.817 Y114.097 E1.18238
G1 X133.891 Y114.479 E1.19532
G1 X133.939 Y114.753 E1.20457
G1 X134.01 Y115.218 E1.22022
G1 X134.041 Y115.454 E1.22813
G1 X134.094 Y115.944 E1.24453
G1 X134.115 Y116.188 E1.25267
G1 X134.156 Y117.131 E1.28407
G1 X134.156 Y117.599 E1.29963
G1 X134.146 Y118.075 E1.31547
G1 X134.122 Y118.629 E1.33391
G1 X134.041 Y119.563 E1.36509
G1 X133.967 Y120.051 E1.38151
G1 X133.829 Y120.831 E1.40785
G1 X133.817 Y120.893 E1.40996
G1 X133.659 Y121.586 E1.4336
G1 X133.602 Y121.804 E1.44109
G1 X133.464 Y122.286 E1.45777
G1 X133.297 Y122.794 E1.47555
G1 X133.066 Y123.441 E1.4984
G1 X132.737 Y124.256 E1.52763
G1 X132.71 Y124.316 E1.52982
G1 X132.453 Y124.849 E1.5495
G1 X132.279 Y125.186 E1.56212
G1 X132.067 Y125.577 E1.57691
G1 X131.827 Y125.999 E1.59306
G1 X131.304 Y126.83 E1.62572
G1 X131.003 Y127.264 E1.64328
G1 X130.59 Y127.821 E1.66634
G1 X130.48 Y127.96 E1.67224
G1 X130.076 Y128.442 E1.69316
G1 X129.852 Y128.694 E1.70437
G1 X129.274 Y129.296 E1.73213
G1 X128.939 Y129.617 E1.74756
G1 X128.742 Y129.8 E1.7565
G1 X128.041 Y130.398 E1.78715
G1 X127.546 Y130.786 E1.80807
G1 X126.784 Y131.333 E1.83927
G1 X126.256 Y131.658 E1.85989
G1 X126.041 Y131.782 E1.86814
G1 X124.864 Y132.369 E1.91189
G1 X124.686 Y132.445 E1.91833
G1 X123.887 Y132.751 E1.94678
G1 X123.662 Y132.827 E1.95468
G1 X122.372 Y133.177 E1.99914
G1 X122.116 Y133.23 E2.00784
G1 X120.863 Y133.415 E2.04996
G1 X120.448 Y133.452 E2.06382
G1 X119.597 Y133.494 E2.09216
G1 X119.032 Y133.5 E2.11095
G1 X115.923 Y133.498 E2.21436
G1 X115.234 Y133.488 E2.23728
G1 X114.092 Y133.412 E2.27534
G1 X113.899 Y133.389 E2.28181
G1 X113.216 Y133.285 E2.30479
G1 X112.889 Y133.225 E2.31584
G1 X111.756 Y132.955 E2.35458
G1 X111.553 Y132.895 E2.36162
G1 X110.666 Y132.591 E2.39281
G1 X110.211 Y132.401 E2.40921
G1 X109.954 Y132.287 E2.41856
G1 X109.113 Y131.871 E2.44977
G1 X108.363 Y131.418 E2.47891
G1 X108.067 Y131.223 E2.4907
G1 X107.713 Y130.98 E2.50498
G1 X107.565 Y130.874 E2.51104
G1 X106.771 Y130.248 E2.54466
G1 X106.585 Y130.087 E2.55285
G1 X106.288 Y129.82 E2.56613
G1 X105.939 Y129.495 E2.58199
G1 X105.289 Y128.837 E2.61275
G1 X104.985 Y128.502 E2.6278
G1 X104.331 Y127.71 E2.66196
G1 X104.088 Y127.386 E2.67543
G1 X103.598 Y126.676 E2.70412
G1 X103.21 Y126.064 E2.72823
G1 X102.661 Y125.093 E2.76533
G1 X102.467 Y124.691 E2.78017
G1 X102.242 Y124.2 E2.79814
G1 X101.899 Y123.361 E2.82828
G1 X101.764 Y122.988 E2.84148
G1 X101.594 Y122.48 E2.85929
G1 X101.444 Y121.963 E2.8772
G1 X101.325 Y121.51 E2.89278
G1 X101.215 Y121.052 E2.90844
G1 X101.195 Y120.96 E2.91157
G1 X101.106 Y120.505 E2.92699
G1 X101.056 Y120.217 E2.93672
G1 X100.981 Y119.715 E2.9536
G1 X100.948 Y119.454 E2.96235
G1 X100.897 Y118.957 E2.97897
G1 X100.88 Y118.746 E2.98601
G1 X100.844 Y117.863 E3.0154
G1 X100.844 Y117.389 E3.03116
G1 X100.854 Y116.918 E3.04683
G1 X100.876 Y116.405 E3.06391
G1 X100.931 Y115.68 E3.08809
G1 X100.938 Y115.616 E3.09024
G1 X101.045 Y114.875 E3.11514
G1 X101.155 Y114.26 E3.13592
G1 X101.338 Y113.426 E3.16432
G1 X101.395 Y113.207 E3.17184
G1 X101.553 Y112.659 E3.19081
G1 X101.706 Y112.198 E3.20697
G1 X101.935 Y111.557 E3.22961
G1 X102.269 Y110.731 E3.25924
G1 X102.297 Y110.669 E3.2615
G1 X102.548 Y110.149 E3.28071
G1 X102.721 Y109.814 E3.29325
G1 X102.933 Y109.423 E3.30804
G1 X103.173 Y109.001 E3.32419
G1 X103.696 Y108.17 E3.35685
G1 X103.997 Y107.736 E3.37441
G1 X104.435 Y107.148 E3.3988
G1 X104.549 Y107.005 E3.40488
G1 X104.891 Y106.597 E3.42259
G1 X105.103 Y106.356 E3.43326
G1 X105.703 Y105.726 E3.4622
G0 F6000 X105.981 Y106.013
G1 F1200 X106.182 Y105.818 E3.47151
G1 X106.377 Y105.634 E3.48043
G1 X106.557 Y105.468 E3.48858
G1 X107.21 Y104.913 E3.51708
G1 X107.707 Y104.524 E3.53807
G1 X108.456 Y103.988 E3.56871
G1 X108.944 Y103.689 E3.58774
G1 X109.159 Y103.565 E3.596
G1 X110.293 Y102.998 E3.63816
G1 X110.471 Y102.922 E3.6446
G1 X111.241 Y102.628 E3.67202
G1 X111.466 Y102.552 E3.67991
G1 X112.677 Y102.222 E3.72166
G1 X112.891 Y102.177 E3.72893
G1 X113.822 Y102.024 E3.76031
G1 X113.982 Y102.005 E3.76567
G1 X114.64 Y101.948 E3.78764
G1 X114.908 Y101.933 E3.79657
G1 X115.314 Y101.918 E3.81008
G1 X116.416 Y101.9 E3.84674
G1 X119.075 Y101.902 E3.93518
G1 X119.744 Y101.912 E3.95743
G1 X120.836 Y101.985 E3.99383
G1 X121.097 Y102.016 E4.00257
G1 X121.72 Y102.109 E4.02352
G1 X121.954 Y102.151 E4.03143
G1 X123.045 Y102.407 E4.0687
G1 X123.251 Y102.467 E4.07584
G1 X124.123 Y102.762 E4.10646
G1 X124.612 Y102.967 E4.12409
G1 X124.923 Y103.106 E4.13542
G1 X126.033 Y103.682 E4.17702
G1 X126.316 Y103.851 E4.18798
G1 X127.227 Y104.462 E4.22446
G1 X127.326 Y104.536 E4.22858
G1 X127.907 Y105.003 E4.25337
G1 X128.134 Y105.199 E4.26334
G1 X128.425 Y105.459 E4.27632
G1 X128.781 Y105.79 E4.29249
G1 X129.413 Y106.43 E4.32241
G1 X129.717 Y106.765 E4.33745
G1 X130.344 Y107.524 E4.3702
G1 X130.588 Y107.849 E4.38371
G1 X131.059 Y108.531 E4.41128
G1 X131.447 Y109.142 E4.43535
G1 X131.951 Y110.025 E4.46917
G1 X132.17 Y110.476 E4.48584
G1 X132.393 Y110.963 E4.50366
G1 X132.725 Y111.775 E4.53284
G1 X132.859 Y112.146 E4.54596
G1 X132.996 Y112.551 E4.56018
G1 X133.157 Y113.093 E4.57898
G1 X133.271 Y113.519 E4.59365
G1 X133.401 Y114.062 E4.61222
G1 X133.426 Y114.18 E4.61623
G1 X133.497 Y114.548 E4.6287
G1 X133.545 Y114.822 E4.63795
G1 X133.614 Y115.27 E4.65303
G1 X133.645 Y115.506 E4.66094
G1 X133.696 Y115.978 E4.67673
G1 X133.717 Y116.222 E4.68488
G1 X133.756 Y117.131 E4.71514
G1 X133.756 Y117.599 E4.73071
G1 X133.746 Y118.058 E4.74598
G1 X133.722 Y118.612 E4.76442
G1 X133.573 Y119.982 E4.81025
G1 X133.436 Y120.755 E4.83637
G1 X133.424 Y120.817 E4.83847
G1 X133.272 Y121.484 E4.86122
G1 X133.215 Y121.702 E4.86871
G1 X133.082 Y122.167 E4.8848
G1 X132.92 Y122.659 E4.90203
G1 X132.689 Y123.306 E4.92488
G1 X132.372 Y124.092 E4.95307
G1 X132.345 Y124.152 E4.95525
G1 X132.098 Y124.665 E4.97419
G1 X131.924 Y125.002 E4.98681
G1 X131.719 Y125.379 E5.00108
G1 X131.479 Y125.801 E5.01723
G1 X130.975 Y126.602 E5.0487
G1 X130.674 Y127.036 E5.06627
G1 X130.276 Y127.573 E5.0885
G1 X130.166 Y127.712 E5.0944
G1 X129.777 Y128.176 E5.11453
G1 X129.553 Y128.428 E5.12575
G1 X128.996 Y129.009 E5.15252
G1 X128.666 Y129.324 E5.16769
G1 X128.469 Y129.507 E5.17664
G1 X127.794 Y130.084 E5.20617
G1 X127.299 Y130.472 E5.22709
G1 X126.551 Y131.008 E5.2577
G1 X126.056 Y131.311 E5.277
G1 X125.841 Y131.435 E5.28525
G1 X124.707 Y132.002 E5.32742
G1 X124.529 Y132.078 E5.33386
G1 X123.759 Y132.372 E5.36127
G1 X123.534 Y132.448 E5.36917
G1 X122.291 Y132.785 E5.41201
G1 X122.035 Y132.838 E5.4207
G1 X120.827 Y133.016 E5.46132
G1 X120.412 Y133.053 E5.47517
G1 X119.593 Y133.094 E5.50245
G1 X119.032 Y133.1 E5.52111
G1 X115.929 Y133.098 E5.62431
G1 X115.24 Y133.088 E5.64723
G1 X114.14 Y133.015 E5.6839
G1 X113.947 Y132.992 E5.69036
G1 X113.288 Y132.892 E5.71253
G1 X112.961 Y132.832 E5.72359
G1 X111.869 Y132.571 E5.76093
G1 X111.666 Y132.511 E5.76797
G1 X110.373 Y132.036 E5.81379
G1 X110.116 Y131.922 E5.82314
G1 X109.291 Y131.512 E5.85378
G1 X108.583 Y131.084 E5.8813
G1 X108.287 Y130.889 E5.89309
G1 X107.946 Y130.655 E5.90684
G1 X107.798 Y130.549 E5.9129
G1 X107.033 Y129.946 E5.9453
G1 X106.847 Y129.785 E5.95348
G1 X106.56 Y129.527 E5.96631
G1 X106.211 Y129.202 E5.98217
G1 X105.585 Y128.568 E6.01181
G1 X105.281 Y128.233 E6.02685
G1 X104.651 Y127.47 E6.05977
G1 X104.408 Y127.146 E6.07324
G1 X103.936 Y126.462 E6.10088
G1 X103.548 Y125.85 E6.12498
G1 X103.019 Y124.914 E6.16074
G1 X102.831 Y124.524 E6.17514
G1 X102.606 Y124.033 E6.1931
G1 X102.275 Y123.224 E6.22217
G1 X102.14 Y122.851 E6.23537
G1 X101.999 Y122.436 E6.24994
G1 X101.975 Y122.36 E6.2526
G1 X101.831 Y121.861 E6.26987
G1 X101.712 Y121.408 E6.28545
G1 X101.606 Y120.967 E6.30053
G1 X101.586 Y120.875 E6.30366
G1 X101.5 Y120.436 E6.31854
G1 X101.45 Y120.148 E6.32827
G1 X101.378 Y119.665 E6.34451
G1 X101.345 Y119.404 E6.35326
G1 X101.295 Y118.925 E6.36928
G1 X101.278 Y118.714 E6.37632
G1 X101.244 Y117.863 E6.40464
G1 X101.244 Y117.389 E6.42041
G1 X101.254 Y116.935 E6.43551
G1 X101.276 Y116.422 E6.45259
G1 X101.329 Y115.723 E6.47591
G1 X101.336 Y115.659 E6.47805
G1 X101.439 Y114.946 E6.50201
G1 X101.549 Y114.331 E6.52279
G1 X101.725 Y113.527 E6.55016
G1 X101.782 Y113.308 E6.55769
G1 X101.934 Y112.78 E6.57596
G1 X102.083 Y112.333 E6.59163
G1 X102.312 Y111.692 E6.61427
G1 X102.633 Y110.895 E6.64285
G1 X102.661 Y110.833 E6.64511
G1 X102.904 Y110.332 E6.66363
G1 X103.077 Y109.997 E6.67617
G1 X103.281 Y109.621 E6.6904
G1 X103.521 Y109.199 E6.70655
G1 X104.025 Y108.398 E6.73803
G1 X104.326 Y107.964 E6.75559
G1 X104.747 Y107.397 E6.77908
G1 X104.861 Y107.254 E6.78516
G1 X105.191 Y106.861 E6.80223
G1 X105.403 Y106.62 E6.81291
G1 X105.981 Y106.013 E6.84079
G0 F6000 X106.26 Y106.3
G1 F1200 X106.461 Y106.105 E6.8501
G1 X106.648 Y105.928 E6.85866
G1 X106.828 Y105.762 E6.86681
G1 X107.456 Y105.228 E6.89423
G1 X107.953 Y104.839 E6.91522
G1 X108.688 Y104.314 E6.94526
G1 X109.144 Y104.035 E6.96304
G1 X109.359 Y103.911 E6.97129
G1 X110.45 Y103.366 E7.01186
G1 X110.628 Y103.29 E7.01829
G1 X111.369 Y103.007 E7.04468
G1 X111.594 Y102.931 E7.05257
G1 X112.759 Y102.613 E7.09274
G1 X112.973 Y102.568 E7.10001
G1 X113.869 Y102.421 E7.13021
G1 X114.029 Y102.402 E7.13557
G1 X114.662 Y102.347 E7.15671
G1 X114.93 Y102.332 E7.16563
G1 X115.321 Y102.318 E7.17865
G1 X116.416 Y102.3 E7.21507
G1 X119.069 Y102.302 E7.30331
G1 X119.738 Y102.312 E7.32556
G1 X120.789 Y102.382 E7.3606
G1 X121.05 Y102.413 E7.36934
G1 X121.649 Y102.502 E7.38948
G1 X121.883 Y102.544 E7.39739
G1 X122.933 Y102.791 E7.43326
G1 X123.139 Y102.851 E7.4404
G1 X123.994 Y103.142 E7.47044
G1 X124.449 Y103.332 E7.48684
G1 X124.76 Y103.471 E7.49817
G1 X125.828 Y104.026 E7.5382
G1 X126.111 Y104.195 E7.54917
G1 X126.988 Y104.782 E7.58427
G1 X127.087 Y104.856 E7.58838
G1 X127.646 Y105.306 E7.61224
G1 X127.873 Y105.502 E7.62222
G1 X128.152 Y105.752 E7.63468
G1 X128.508 Y106.083 E7.65085
G1 X129.117 Y106.698 E7.67963
G1 X129.421 Y107.033 E7.69468
G1 X130.024 Y107.764 E7.7262
G1 X130.268 Y108.089 E7.73971
G1 X130.722 Y108.745 E7.76625
G1 X131.11 Y109.356 E7.79032
G1 X131.594 Y110.207 E7.82288
G1 X131.806 Y110.642 E7.83898
G1 X132.029 Y111.129 E7.85679
G1 X132.348 Y111.911 E7.88488
G1 X132.482 Y112.282 E7.898
G1 X132.616 Y112.675 E7.91181
G1 X132.77 Y113.196 E7.92988
G1 X132.884 Y113.622 E7.94455
G1 X133.01 Y114.145 E7.96244
G1 X133.035 Y114.263 E7.96646
G1 X133.103 Y114.617 E7.97845
G1 X133.151 Y114.891 E7.9877
G1 X133.217 Y115.323 E8.00223
G1 X133.248 Y115.559 E8.01015
G1 X133.297 Y116.012 E8.0253
G1 X133.318 Y116.256 E8.03345
G1 X133.356 Y117.131 E8.06258
G1 X133.356 Y117.599 E8.07815
G1 X133.346 Y118.04 E8.09282
G1 X133.322 Y118.594 E8.11126
G1 X133.179 Y119.913 E8.15539
G1 X133.043 Y120.679 E8.18126
G1 X133.031 Y120.741 E8.18336
G1 X132.885 Y121.383 E8.20526
G1 X132.828 Y121.601 E8.21276
G1 X132.7 Y122.048 E8.22822
G1 X132.543 Y122.525 E8.24492
G1 X132.312 Y123.172 E8.26777
G1 X132.008 Y123.928 E8.29487
G1 X131.981 Y123.988 E8.29706
G1 X131.742 Y124.482 E8.31532
G1 X131.568 Y124.819 E8.32793
G1 X131.371 Y125.182 E8.34167
G1 X131.131 Y125.604 E8.35781
G1 X130.646 Y126.374 E8.38808
G1 X130.345 Y126.808 E8.40565
G1 X129.962 Y127.325 E8.42705
G1 X129.852 Y127.464 E8.43294
G1 X129.478 Y127.911 E8.45233
G1 X129.254 Y128.163 E8.46354
G1 X128.718 Y128.721 E8.48928
G1 X128.394 Y129.031 E8.50419
G1 X128.197 Y129.214 E8.51313
G1 X127.547 Y129.769 E8.54156
G1 X127.052 Y130.157 E8.56248
G1 X126.318 Y130.682 E8.5925
G1 X125.856 Y130.965 E8.61052
G1 X125.641 Y131.089 E8.61877
G1 X124.55 Y131.634 E8.65933
G1 X124.372 Y131.71 E8.66577
G1 X123.631 Y131.993 E8.69215
G1 X123.406 Y132.069 E8.70005
G1 X122.21 Y132.393 E8.74126
G1 X121.954 Y132.446 E8.74996
G1 X120.792 Y132.618 E8.78903
G1 X120.377 Y132.655 E8.80289
G1 X119.588 Y132.694 E8.82916
G1 X119.033 Y132.7 E8.84762
G1 X115.935 Y132.698 E8.95066
G1 X115.246 Y132.688 E8.97358
G1 X114.187 Y132.617 E9.00888
G1 X113.994 Y132.594 E9.01535
G1 X113.36 Y132.499 E9.03667
G1 X113.033 Y132.439 E9.04773
G1 X111.983 Y132.188 E9.08363
G1 X111.78 Y132.128 E9.09067
G1 X110.535 Y131.67 E9.1348
G1 X110.278 Y131.556 E9.14415
G1 X109.47 Y131.153 E9.17418
G1 X108.803 Y130.75 E9.2001
G1 X108.507 Y130.555 E9.21189
G1 X108.179 Y130.33 E9.22512
G1 X108.031 Y130.224 E9.23117
G1 X107.294 Y129.643 E9.26238
G1 X107.108 Y129.482 E9.27057
G1 X106.833 Y129.235 E9.28286
G1 X106.484 Y128.91 E9.29872
G1 X105.881 Y128.3 E9.32725
G1 X105.577 Y127.965 E9.3423
G1 X104.971 Y127.23 E9.37398
G1 X104.728 Y126.906 E9.38745
G1 X104.273 Y126.248 E9.41406
G1 X103.885 Y125.636 E9.43816
G1 X103.377 Y124.736 E9.47253
G1 X103.194 Y124.357 E9.48653
G1 X102.969 Y123.866 E9.50449
G1 X102.651 Y123.088 E9.53245
G1 X102.516 Y122.715 E9.54564
G1 X102.38 Y122.316 E9.55966
G1 X102.356 Y122.24 E9.56231
G1 X102.218 Y121.76 E9.57893
G1 X102.099 Y121.307 E9.5945
G1 X101.997 Y120.882 E9.60904
G1 X101.977 Y120.79 E9.61217
G1 X101.894 Y120.368 E9.62648
G1 X101.844 Y120.08 E9.6362
G1 X101.775 Y119.614 E9.65187
G1 X101.742 Y119.353 E9.66062
G1 X101.694 Y118.893 E9.676
G1 X101.677 Y118.682 E9.68304
