;FLAVOR:Marlin
;TIME:990
;Filament used: 0.343737m
;Layer height: 0.2
;MINX:100.844
;MINY:90.5
;MINZ:0.2
;MAXX:134.156
;MAXY:122.5
;MAXZ:15.2
;Generated with Cura_SteamEngine 4.9.1
M140 S50
M105
M190 S50
M104 S215
M105
M109 S215
M82 ;absolute extrusion mode
; Ender 3 Custom Start G-code
G92 E0 ; Reset Extruder
G28 ; Home all axes
G1 Z2.0 F3000 ; Move Z Axis up little to prevent scratching of Heat Bed
G1 X0.1 Y20 Z0.3 F5000.0 ; Move to start position
G1 X0.1 Y200.0 Z0.3 F1500.0 E15 ; Draw the first line
G1 X0.4 Y200.0 Z0.3 F5000.0 ; Move to side a little
G1 X0.4 Y20 Z0.3 F1500.0 E30 ; Draw the second line
G92 E0 ; Reset Extruder
G1 Z2.0 F3000 ; Move Z Axis up little to prevent scratching of Heat Bed
G1 X5 Y20 Z0.3 F5000.0 ; Move over to prevent blob squish
G92 E0
G92 E0
G1 F2700 E-5
;LAYER_COUNT:80
;LAYER:0
M107
G0 F6000 X105.103 Y95.356 Z0.2
;TYPE:SKIRT
G1 F2700 E0
G1 F1200 X105.703 Y94.726 E0.02894
G1 X105.904 Y94.531 E0.03825
G1 X106.106 Y94.34 E0.0475
G1 X106.286 Y94.174 E0.05564
G1 X106.963 Y93.598 E0.08521
G1 X107.46 Y93.209 E0.1062
G1 X108.223 Y92.663 E0.1374
G1 X108.744 Y92.342 E0.15776
G1 X108.959 Y92.218 E0.16601
G1 X110.136 Y91.631 E0.20976
G1 X110.314 Y91.555 E0.21619
G1 X111.113 Y91.249 E0.24465
G1 X111.338 Y91.173 E0.25255
G1 X112.628 Y90.823 E0.29701
G1 X112.884 Y90.77 E0.3057
G1 X114.135 Y90.586 E0.34776
G1 X114.538 Y90.55 E0.36122
G1 X115.117 Y90.513 E0.38051
G1 X115.471 Y90.504 E0.39229
G1 X116.031 Y90.5 E0.41092
G1 X119.081 Y90.502 E0.51236
G1 X119.75 Y90.512 E0.53461
G1 X120.883 Y90.588 E0.57238
G1 X121.144 Y90.619 E0.58112
G1 X121.79 Y90.715 E0.60285
G1 X122.024 Y90.757 E0.61075
G1 X123.157 Y91.023 E0.64946
G1 X123.363 Y91.083 E0.6566
G1 X124.252 Y91.383 E0.6878
G1 X124.775 Y91.601 E0.70665
G1 X125.086 Y91.74 E0.71798
G1 X126.238 Y92.339 E0.76117
G1 X126.521 Y92.508 E0.77213
G1 X127.467 Y93.141 E0.80999
G1 X127.566 Y93.215 E0.8141
G1 X128.169 Y93.7 E0.83984
G1 X128.396 Y93.896 E0.84981
G1 X128.697 Y94.166 E0.86326
G1 X129.053 Y94.497 E0.87943
G1 X129.709 Y95.161 E0.91047
G1 X130.013 Y95.496 E0.92552
G1 X130.664 Y96.284 E0.95951
G1 X130.908 Y96.609 E0.97303
G1 X131.397 Y97.316 E1.00162
G1 X131.785 Y97.927 E1.0257
G1 X132.307 Y98.844 E1.06079
G1 X132.533 Y99.309 E1.07799
G1 X132.756 Y99.796 E1.0958
G1 X133.101 Y100.639 E1.1261
G1 X133.235 Y101.01 E1.13922
G1 X133.377 Y101.428 E1.1539
G1 X133.543 Y101.989 E1.17336
G1 X133.657 Y102.415 E1.18803
G1 X133.792 Y102.979 E1.20732
G1 X133.817 Y103.097 E1.21133
G1 X133.891 Y103.479 E1.22427
G1 X133.939 Y103.753 E1.23352
G1 X134.01 Y104.218 E1.24917
G1 X134.041 Y104.454 E1.25708
G1 X134.094 Y104.944 E1.27348
G1 X134.115 Y105.188 E1.28162
G1 X134.156 Y106.131 E1.31301
G1 X134.156 Y106.599 E1.32858
G1 X134.146 Y107.075 E1.34442
G1 X134.122 Y107.629 E1.36286
G1 X134.041 Y108.563 E1.39404
G1 X133.967 Y109.051 E1.41046
G1 X133.829 Y109.831 E1.4368
G1 X133.817 Y109.893 E1.4389
G1 X133.659 Y110.586 E1.46254
G1 X133.602 Y110.804 E1.47004
G1 X133.464 Y111.286 E1.48671
G1 X133.297 Y111.794 E1.5045
G1 X133.066 Y112.441 E1.52735
G1 X132.737 Y113.256 E1.55658
G1 X132.71 Y113.316 E1.55877
G1 X132.453 Y113.849 E1.57845
G1 X132.279 Y114.186 E1.59107
G1 X132.067 Y114.577 E1.60586
G1 X131.827 Y114.999 E1.62201
G1 X131.304 Y115.83 E1.65466
G1 X131.003 Y116.264 E1.67223
G1 X130.59 Y116.821 E1.69529
G1 X130.48 Y116.96 E1.70119
G1 X130.076 Y117.442 E1.72211
G1 X129.852 Y117.694 E1.73332
G1 X129.274 Y118.296 E1.76108
G1 X128.939 Y118.617 E1.77651
G1 X128.742 Y118.8 E1.78545
G1 X128.041 Y119.398 E1.8161
G1 X127.546 Y119.786 E1.83702
G1 X126.784 Y120.333 E1.86822
G1 X126.202 Y120.689 E1.89091
G1 X125.942 Y120.837 E1.90086
G1 X125.108 Y121.266 E1.93205
G1 X124.388 Y121.567 E1.95801
G1 X124.126 Y121.666 E1.96732
G1 X122.792 Y122.075 E2.01373
G1 X122.482 Y122.149 E2.02433
G1 X121.209 Y122.375 E2.06733
G1 X121.047 Y122.394 E2.07276
G1 X120.398 Y122.451 E2.09443
G1 X120.12 Y122.467 E2.10369
G1 X119.677 Y122.483 E2.11843
G1 X118.61 Y122.5 E2.15393
G1 X115.923 Y122.498 E2.2433
G1 X115.235 Y122.488 E2.26618
G1 X114.1 Y122.412 E2.30402
G1 X113.906 Y122.389 E2.31051
G1 X113.216 Y122.285 E2.33372
G1 X112.889 Y122.225 E2.34478
G1 X111.756 Y121.955 E2.38352
G1 X111.553 Y121.895 E2.39056
G1 X110.666 Y121.591 E2.42175
G1 X110.211 Y121.401 E2.43815
G1 X109.954 Y121.287 E2.4475
G1 X109.113 Y120.871 E2.4787
G1 X108.363 Y120.418 E2.50785
G1 X108.067 Y120.223 E2.51964
G1 X107.713 Y119.98 E2.53392
G1 X107.565 Y119.874 E2.53997
G1 X106.771 Y119.248 E2.5736
G1 X106.585 Y119.087 E2.58178
G1 X106.288 Y118.82 E2.59507
G1 X105.939 Y118.495 E2.61093
G1 X105.289 Y117.837 E2.64169
G1 X104.985 Y117.502 E2.65674
G1 X104.331 Y116.71 E2.6909
G1 X104.088 Y116.386 E2.70437
G1 X103.598 Y115.676 E2.73306
G1 X103.21 Y115.064 E2.75716
G1 X102.661 Y114.093 E2.79426
G1 X102.467 Y113.691 E2.80911
G1 X102.242 Y113.2 E2.82707
G1 X101.899 Y112.361 E2.85722
G1 X101.764 Y111.988 E2.87041
G1 X101.594 Y111.48 E2.88823
G1 X101.444 Y110.963 E2.90613
G1 X101.325 Y110.51 E2.92171
G1 X101.215 Y110.052 E2.93738
G1 X101.195 Y109.96 E2.94051
G1 X101.106 Y109.505 E2.95593
G1 X101.056 Y109.217 E2.96565
G1 X100.981 Y108.715 E2.98253
G1 X100.948 Y108.454 E2.99128
G1 X100.897 Y107.957 E3.0079
G1 X100.88 Y107.746 E3.01494
G1 X100.844 Y106.863 E3.04434
G1 X100.844 Y106.389 E3.0601
G1 X100.854 Y105.918 E3.07577
G1 X100.876 Y105.405 E3.09285
G1 X100.931 Y104.68 E3.11703
G1 X100.938 Y104.616 E3.11917
G1 X101.045 Y103.875 E3.14407
G1 X101.155 Y103.26 E3.16485
G1 X101.338 Y102.426 E3.19325
G1 X101.395 Y102.207 E3.20078
G1 X101.553 Y101.659 E3.21975
G1 X101.706 Y101.198 E3.2359
G1 X101.935 Y100.557 E3.25854
G1 X102.269 Y99.731 E3.28818
G1 X102.297 Y99.669 E3.29044
G1 X102.548 Y99.149 E3.30964
G1 X102.721 Y98.814 E3.32218
G1 X102.933 Y98.423 E3.33698
G1 X103.173 Y98.001 E3.35312
G1 X103.696 Y97.17 E3.38578
G1 X103.997 Y96.736 E3.40335
G1 X104.435 Y96.148 E3.42773
G1 X104.549 Y96.005 E3.43382
G1 X104.891 Y95.597 E3.45152
G1 X105.103 Y95.356 E3.4622
G0 F6000 X105.403 Y95.62
G1 F1200 X105.981 Y95.013 E3.49008
G1 X106.182 Y94.818 E3.49939
G1 X106.377 Y94.634 E3.50831
G1 X106.557 Y94.468 E3.51645
G1 X107.21 Y93.913 E3.54496
G1 X107.707 Y93.524 E3.56595
G1 X108.456 Y92.988 E3.59658
G1 X108.944 Y92.689 E3.61562
G1 X109.159 Y92.565 E3.62387
G1 X110.293 Y91.998 E3.66604
G1 X110.471 Y91.922 E3.67248
G1 X111.241 Y91.628 E3.69989
G1 X111.466 Y91.552 E3.70779
G1 X112.709 Y91.215 E3.75063
G1 X112.965 Y91.162 E3.75932
G1 X114.171 Y90.984 E3.79987
G1 X114.574 Y90.948 E3.81332
G1 X115.134 Y90.913 E3.83199
G1 X115.474 Y90.904 E3.8433
G1 X116.031 Y90.9 E3.86183
G1 X119.075 Y90.902 E3.96307
G1 X119.744 Y90.912 E3.98532
G1 X120.836 Y90.985 E4.02172
G1 X121.097 Y91.016 E4.03047
G1 X121.72 Y91.109 E4.05142
G1 X121.954 Y91.151 E4.05932
G1 X123.045 Y91.407 E4.0966
G1 X123.251 Y91.467 E4.10373
G1 X124.123 Y91.762 E4.13435
G1 X124.612 Y91.967 E4.15199
G1 X124.923 Y92.106 E4.16332
G1 X126.033 Y92.682 E4.20491
G1 X126.316 Y92.851 E4.21587
G1 X127.227 Y93.462 E4.25236
G1 X127.326 Y93.536 E4.25647
G1 X127.907 Y94.003 E4.28126
G1 X128.134 Y94.199 E4.29124
G1 X128.425 Y94.459 E4.30421
G1 X128.781 Y94.79 E4.32038
G1 X129.413 Y95.43 E4.3503
G1 X129.717 Y95.765 E4.36534
G1 X130.344 Y96.524 E4.39809
G1 X130.588 Y96.849 E4.41161
G1 X131.059 Y97.531 E4.43917
G1 X131.447 Y98.142 E4.46325
G1 X131.951 Y99.025 E4.49706
G1 X132.17 Y99.476 E4.51374
G1 X132.393 Y99.963 E4.53155
G1 X132.725 Y100.775 E4.56073
G1 X132.859 Y101.146 E4.57385
G1 X132.996 Y101.551 E4.58807
G1 X133.157 Y102.093 E4.60687
G1 X133.271 Y102.519 E4.62154
G1 X133.401 Y103.062 E4.64011
G1 X133.426 Y103.18 E4.64412
G1 X133.497 Y103.548 E4.65659
G1 X133.545 Y103.822 E4.66584
G1 X133.614 Y104.27 E4.68092
G1 X133.645 Y104.506 E4.68884
G1 X133.696 Y104.978 E4.70463
G1 X133.717 Y105.222 E4.71277
G1 X133.756 Y106.131 E4.74303
G1 X133.756 Y106.599 E4.7586
G1 X133.746 Y107.058 E4.77387
G1 X133.722 Y107.612 E4.79231
G1 X133.573 Y108.982 E4.83815
G1 X133.436 Y109.755 E4.86426
G1 X133.424 Y109.817 E4.86636
G1 X133.272 Y110.484 E4.88911
G1 X133.215 Y110.702 E4.89661
G1 X133.082 Y111.167 E4.91269
G1 X132.92 Y111.659 E4.92992
G1 X132.689 Y112.306 E4.95277
G1 X132.372 Y113.092 E4.98096
G1 X132.345 Y113.152 E4.98315
G1 X132.098 Y113.665 E5.00208
G1 X131.924 Y114.002 E5.0147
G1 X131.719 Y114.379 E5.02897
G1 X131.479 Y114.801 E5.04512
G1 X130.975 Y115.602 E5.07659
G1 X130.674 Y116.036 E5.09416
G1 X130.276 Y116.573 E5.11639
G1 X130.166 Y116.712 E5.12229
G1 X129.777 Y117.176 E5.14243
G1 X129.553 Y117.428 E5.15364
G1 X128.996 Y118.009 E5.18041
G1 X128.666 Y118.324 E5.19558
G1 X128.469 Y118.507 E5.20453
G1 X127.794 Y119.084 E5.23406
G1 X127.299 Y119.472 E5.25498
G1 X126.551 Y120.008 E5.28559
G1 X126.004 Y120.341 E5.30689
G1 X125.744 Y120.489 E5.31684
G1 X124.925 Y120.909 E5.34745
G1 X124.247 Y121.193 E5.3719
G1 X123.985 Y121.292 E5.38122
G1 X122.699 Y121.686 E5.42595
G1 X122.389 Y121.76 E5.43655
G1 X121.163 Y121.978 E5.47797
G1 X121.001 Y121.997 E5.48339
G1 X120.375 Y122.051 E5.50429
G1 X120.097 Y122.067 E5.51355
G1 X119.67 Y122.083 E5.52776
G1 X118.61 Y122.1 E5.56302
G1 X115.929 Y122.098 E5.65219
G1 X115.241 Y122.088 E5.67508
G1 X114.147 Y122.015 E5.71155
G1 X113.953 Y121.992 E5.71805
G1 X113.288 Y121.892 E5.74041
G1 X112.961 Y121.832 E5.75147
G1 X111.869 Y121.571 E5.78881
G1 X111.666 Y121.511 E5.79585
G1 X110.373 Y121.036 E5.84167
G1 X110.116 Y120.922 E5.85102
G1 X109.291 Y120.512 E5.88166
G1 X108.583 Y120.084 E5.90918
G1 X108.287 Y119.889 E5.92097
G1 X107.946 Y119.655 E5.93472
G1 X107.798 Y119.549 E5.94078
G1 X107.033 Y118.946 E5.97318
G1 X106.847 Y118.785 E5.98136
G1 X106.56 Y118.527 E5.99419
G1 X106.211 Y118.202 E6.01005
G1 X105.585 Y117.568 E6.03969
G1 X105.281 Y117.233 E6.05473
G1 X104.651 Y116.47 E6.08764
G1 X104.408 Y116.146 E6.10111
G1 X103.936 Y115.462 E6.12876
G1 X103.548 Y114.85 E6.15286
G1 X103.019 Y113.914 E6.18862
G1 X102.831 Y113.524 E6.20302
G1 X102.606 Y113.033 E6.22098
G1 X102.275 Y112.224 E6.25005
G1 X102.14 Y111.851 E6.26325
G1 X101.999 Y111.436 E6.27782
G1 X101.975 Y111.36 E6.28047
G1 X101.831 Y110.861 E6.29775
G1 X101.712 Y110.408 E6.31333
G1 X101.606 Y109.967 E6.32841
G1 X101.586 Y109.875 E6.33154
G1 X101.5 Y109.436 E6.34642
G1 X101.45 Y109.148 E6.35614
G1 X101.378 Y108.665 E6.37239
G1 X101.345 Y108.404 E6.38114
G1 X101.295 Y107.925 E6.39715
G1 X101.278 Y107.714 E6.4042
G1 X101.244 Y106.863 E6.43252
G1 X101.244 Y106.389 E6.44829
G1 X101.254 Y105.935 E6.46339
G1 X101.276 Y105.422 E6.48047
G1 X101.329 Y104.723 E6.50379
G1 X101.336 Y104.659 E6.50593
G1 X101.439 Y103.946 E6.52989
G1 X101.549 Y103.331 E6.55067
G1 X101.725 Y102.527 E6.57804
G1 X101.782 Y102.308 E6.58557
G1 X101.934 Y101.78 E6.60384
G1 X102.083 Y101.333 E6.61951
G1 X102.312 Y100.692 E6.64215
G1 X102.633 Y99.895 E6.67073
G1 X102.661 Y99.833 E6.67299
G1 X102.904 Y99.332 E6.69151
G1 X103.077 Y98.997 E6.70405
G1 X103.281 Y98.621 E6.71828
G1 X103.521 Y98.199 E6.73443
G1 X104.025 Y97.398 E6.7659
G1 X104.326 Y96.964 E6.78347
G1 X104.747 Y96.397 E6.80696
G1 X104.861 Y96.254 E6.81304
G1 X105.191 Y95.861 E6.83011
G1 X105.403 Y95.62 E6.84079
G0 F6000 X105.703 Y95.884
G1 F1200 X106.26 Y95.3 E6.86763
G1 X106.461 Y95.105 E6.87694
G1 X106.648 Y94.928 E6.88551
G1 X106.828 Y94.762 E6.89365
G1 X107.456 Y94.228 E6.92107
G1 X107.953 Y93.839 E6.94206
G1 X108.688 Y93.314 E6.9721
G1 X109.144 Y93.035 E6.98988
G1 X109.359 Y92.911 E6.99814
G1 X110.45 Y92.366 E7.0387
G1 X110.628 Y92.29 E7.04514
G1 X111.369 Y92.007 E7.07152
G1 X111.594 Y91.931 E7.07942
G1 X112.79 Y91.607 E7.12063
G1 X113.046 Y91.554 E7.12933
G1 X114.206 Y91.382 E7.16833
G1 X114.609 Y91.346 E7.18179
G1 X115.15 Y91.312 E7.19982
G1 X115.478 Y91.304 E7.21073
G1 X116.031 Y91.3 E7.22912
G1 X119.069 Y91.302 E7.33017
G1 X119.738 Y91.312 E7.35242
G1 X120.789 Y91.382 E7.38745
G1 X121.05 Y91.413 E7.3962
G1 X121.649 Y91.502 E7.41634
G1 X121.883 Y91.544 E7.42425
G1 X122.933 Y91.791 E7.46012
G1 X123.139 Y91.851 E7.46726
G1 X123.994 Y92.142 E7.4973
G1 X124.449 Y92.332 E7.5137
G1 X124.76 Y92.471 E7.52503
G1 X125.828 Y93.026 E7.56506
G1 X126.111 Y93.195 E7.57602
G1 X126.988 Y93.782 E7.61112
G1 X127.087 Y93.856 E7.61523
G1 X127.646 Y94.306 E7.6391
G1 X127.873 Y94.502 E7.64908
G1 X128.152 Y94.752 E7.66154
G1 X128.508 Y95.083 E7.6777
G1 X129.117 Y95.698 E7.70649
G1 X129.421 Y96.033 E7.72154
G1 X130.024 Y96.764 E7.75305
G1 X130.268 Y97.089 E7.76657
G1 X130.722 Y97.745 E7.79311
G1 X131.11 Y98.356 E7.81718
G1 X131.594 Y99.207 E7.84974
G1 X131.806 Y99.642 E7.86584
G1 X132.029 Y100.129 E7.88365
G1 X132.348 Y100.911 E7.91174
G1 X132.482 Y101.282 E7.92486
G1 X132.616 Y101.675 E7.93867
G1 X132.77 Y102.196 E7.95674
G1 X132.884 Y102.622 E7.97141
G1 X133.01 Y103.145 E7.9893
G1 X133.035 Y103.263 E7.99331
G1 X133.103 Y103.617 E8.0053
G1 X133.151 Y103.891 E8.01455
G1 X133.217 Y104.323 E8.02909
G1 X133.248 Y104.559 E8.03701
G1 X133.297 Y105.012 E8.05216
G1 X133.318 Y105.256 E8.06031
G1 X133.356 Y106.131 E8.08944
G1 X133.356 Y106.599 E8.105
G1 X133.346 Y107.04 E8.11967
G1 X133.322 Y107.594 E8.13812
G1 X133.179 Y108.913 E8.18224
G1 X133.043 Y109.679 E8.20812
G1 X133.031 Y109.741 E8.21022
G1 X132.885 Y110.383 E8.23212
G1 X132.828 Y110.601 E8.23961
G1 X132.7 Y111.048 E8.25508
G1 X132.543 Y111.525 E8.27178
G1 X132.312 Y112.172 E8.29463
G1 X132.008 Y112.928 E8.32173
G1 X131.981 Y112.988 E8.32392
G1 X131.742 Y113.482 E8.34217
G1 X131.568 Y113.819 E8.35479
G1 X131.371 Y114.182 E8.36852
G1 X131.131 Y114.604 E8.38467
G1 X130.646 Y115.374 E8.41494
G1 X130.345 Y115.808 E8.4325
G1 X129.962 Y116.325 E8.4539
G1 X129.852 Y116.464 E8.4598
G1 X129.478 Y116.911 E8.47918
G1 X129.254 Y117.163 E8.4904
G1 X128.718 Y117.721 E8.51613
G1 X128.394 Y118.031 E8.53105
G1 X128.197 Y118.214 E8.53999
G1 X127.547 Y118.769 E8.56842
G1 X127.052 Y119.157 E8.58934
G1 X126.318 Y119.682 E8.61935
G1 X125.806 Y119.993 E8.63928
G1 X125.546 Y120.141 E8.64923
G1 X124.742 Y120.553 E8.67928
G1 X124.105 Y120.819 E8.70223
G1 X123.843 Y120.918 E8.71155
G1 X122.606 Y121.297 E8.75458
G1 X122.296 Y121.371 E8.76518
G1 X121.116 Y121.581 E8.80504
G1 X120.954 Y121.6 E8.81047
G1 X120.352 Y121.652 E8.83057
G1 X120.074 Y121.668 E8.83983
G1 X119.663 Y121.683 E8.85351
G1 X118.61 Y121.7 E8.88854
G1 X115.935 Y121.698 E8.97751
G1 X115.247 Y121.688 E9.00039
G1 X114.194 Y121.618 E9.03549
G1 X114 Y121.595 E9.04199
G1 X113.36 Y121.499 E9.06351
G1 X113.033 Y121.439 E9.07457
G1 X111.983 Y121.188 E9.11048
G1 X111.78 Y121.128 E9.11752
G1 X110.535 Y120.67 E9.16164
G1 X110.278 Y120.556 E9.17099
G1 X109.47 Y120.153 E9.20102
G1 X108.803 Y119.75 E9.22694
G1 X108.507 Y119.555 E9.23873
G1 X108.179 Y119.33 E9.25196
G1 X108.031 Y119.224 E9.25802
G1 X107.294 Y118.643 E9.28923
G1 X107.108 Y118.482 E9.29741
G1 X106.833 Y118.235 E9.30971
G1 X106.484 Y117.91 E9.32557
G1 X105.881 Y117.3 E9.3541
G1 X105.577 Y116.965 E9.36914
G1 X104.971 Y116.23 E9.40083
G1 X104.728 Y115.906 E9.4143
G1 X104.273 Y115.248 E9.4409
G1 X103.885 Y114.636 E9.46501
G1 X103.377 Y113.736 E9.49938
G1 X103.194 Y113.357 E9.51338
G1 X102.969 Y112.866 E9.53134
G1 X102.651 Y112.088 E9.5593
G1 X102.516 Y111.715 E9.57249
G1 X102.38 Y111.316 E9.58651
G1 X102.356 Y111.24 E9.58916
G1 X102.218 Y110.76 E9.60577
G1 X102.099 Y110.307 E9.62135
G1 X101.997 Y109.882 E9.63589
G1 X101.977 Y109.79 E9.63902
G1 X101.894 Y109.368 E9.65332
G1 X101.844 Y109.08 E9.66305
G1 X101.775 Y108.614 E9.67871
G1 X101.742 Y108.353 E9.68746
G1 X101.694 Y107.893 E9.70285
G1 X101.677 Y107.682 E9.70989
G1 X101.644 Y106.863 E9.73715
G1 X101.644 Y106.389 E9.75291
G1 X101.653 Y105.952 E9.76745
G1 X101.675 Y105.439 E9.78453
G1 X101.726 Y104.767 E9.80695
