;FLAVOR:Marlin
;TIME:2165
;Filament used: 1.48812m
;Layer height: 0.2
;MINX:79.06
;MINY:82.138
;MINZ:0.2
;MAXX:156.037
;MAXY:119.786
;MAXZ:20.8
;Generated with Cura_SteamEngine 4.9.1
M140 S50
M105
M190 S50
M104 S215
M105
M109 S215
M82 ;absolute extrusion mode
; Ender 3 Custom Start G-code
G92 E0 ; Reset Extruder
G28 ; Home all axes
G1 Z2.0 F3000 ; Move Z Axis up little to prevent scratching of Heat Bed
G1 X0.1 Y20 Z0.3 F5000.0 ; Move to start position
G1 X0.1 Y200.0 Z0.3 F1500.0 E15 ; Draw the first line
G1 X0.4 Y200.0 Z0.3 F5000.0 ; Move to side a little
G1 X0.4 Y20 Z0.3 F1500.0 E30 ; Draw the second line
G92 E0 ; Reset Extruder
G1 Z2.0 F3000 ; Move Z Axis up little to prevent scratching of Heat Bed
G1 X5 Y20 Z0.3 F5000.0 ; Move over to prevent blob squish
G92 E0
G92 E0
G1 F2700 E-5
;LAYER_COUNT:104
;LAYER:0
M107
G0 F6000 X84.482 Y87.772 Z0.2
;TYPE:SKIRT
G1 F2700 E0
G1 F1200 X85.172 Y87.106 E0.0319
G1 X85.742 Y86.602 E0.0572
G1 X86.418 Y86.051 E0.08621
G1 X86.696 Y85.842 E0.09778
G1 X87.033 Y85.598 E0.11162
G1 X87.154 Y85.514 E0.11651
G1 X87.696 Y85.161 E0.13803
G1 X88.194 Y84.857 E0.15743
G1 X88.577 Y84.634 E0.17217
G1 X89.127 Y84.328 E0.19311
G1 X89.915 Y83.93 E0.22247
G1 X90.196 Y83.802 E0.23274
G1 X90.635 Y83.613 E0.24864
G1 X91.031 Y83.453 E0.26284
G1 X91.66 Y83.221 E0.28514
G1 X91.899 Y83.141 E0.29352
G1 X92.801 Y82.881 E0.32475
G1 X93.721 Y82.7 E0.35593
G1 X94.653 Y82.597 E0.38712
G1 X95.54 Y82.573 E0.41663
G1 X96.644 Y82.588 E0.45335
G1 X99.291 Y82.588 E0.54139
G1 X99.834 Y82.576 E0.55946
G1 X100.122 Y82.573 E0.56904
G1 X100.365 Y82.574 E0.57712
G1 X101.302 Y82.618 E0.60832
G1 X101.835 Y82.679 E0.62616
G1 X104.525 Y83.021 E0.71635
G1 X107.076 Y83.271 E0.80161
G1 X109.54 Y83.443 E0.88376
G1 X112.085 Y83.547 E0.96848
G1 X114.577 Y83.58 E1.05137
G1 X117.104 Y83.54 E1.13543
G1 X119.671 Y83.429 E1.22088
G1 X121.737 Y83.285 E1.28977
G1 X122.155 Y83.263 E1.30369
G1 X124.614 Y83.186 E1.38551
G1 X126.981 Y83.085 E1.46431
G1 X129.473 Y82.908 E1.54741
G1 X131.958 Y82.662 E1.63046
G1 X135.092 Y82.252 E1.73559
G1 X135.778 Y82.184 E1.75852
G1 X136.089 Y82.163 E1.76888
G1 X136.539 Y82.142 E1.78387
G1 X136.69 Y82.138 E1.78889
G1 X137.277 Y82.138 E1.80841
G1 X138.17 Y82.162 E1.83813
G1 X139.014 Y82.217 E1.86626
G1 X139.35 Y82.252 E1.87749
G1 X139.875 Y82.32 E1.8951
G1 X139.986 Y82.337 E1.89884
G1 X140.516 Y82.431 E1.91674
G1 X141.405 Y82.612 E1.94691
G1 X142.24 Y82.817 E1.97551
G1 X142.575 Y82.913 E1.9871
G1 X143.113 Y83.082 E2.00586
G1 X143.253 Y83.13 E2.01078
G1 X143.704 Y83.295 E2.02675
G1 X144.504 Y83.609 E2.05534
G1 X145.24 Y83.93 E2.08204
G1 X145.361 Y83.988 E2.08651
G1 X145.942 Y84.288 E2.10825
G1 X146.636 Y84.673 E2.13465
G1 X147.444 Y85.168 E2.16617
G1 X148.093 Y85.605 E2.19219
G1 X148.778 Y86.105 E2.2204
G1 X149.023 Y86.299 E2.23079
G1 X149.39 Y86.603 E2.24664
G1 X149.664 Y86.84 E2.25869
G1 X150.033 Y87.175 E2.27527
G1 X150.147 Y87.283 E2.28049
G1 X150.56 Y87.694 E2.29987
G1 X151.16 Y88.326 E2.32885
G1 X151.716 Y88.96 E2.3569
G1 X151.925 Y89.217 E2.36792
G1 X152.219 Y89.595 E2.38385
G1 X152.303 Y89.708 E2.38853
G1 X152.637 Y90.182 E2.40781
G1 X153.134 Y90.93 E2.43768
G1 X153.574 Y91.652 E2.46581
G1 X153.726 Y91.924 E2.47617
G1 X153.951 Y92.347 E2.49211
G1 X154.118 Y92.679 E2.50447
G1 X154.343 Y93.154 E2.52195
G1 X154.471 Y93.442 E2.53243
G1 X154.627 Y93.812 E2.54578
G1 X154.682 Y93.949 E2.5507
G1 X154.892 Y94.517 E2.57084
G1 X155.178 Y95.361 E2.60048
G1 X155.427 Y96.203 E2.62968
G1 X155.459 Y96.33 E2.63404
G1 X155.585 Y96.897 E2.65335
G1 X155.699 Y97.477 E2.67301
G1 X155.775 Y97.907 E2.68754
G1 X155.857 Y98.434 E2.70528
G1 X155.965 Y99.421 E2.7383
G1 X156.015 Y100.201 E2.7643
G1 X156.037 Y101.059 E2.79284
G1 X156.035 Y101.202 E2.7976
G1 X156.013 Y101.761 E2.81621
G1 X155.964 Y102.515 E2.84134
G1 X155.861 Y103.46 E2.87296
G1 X155.782 Y103.978 E2.89038
G1 X155.698 Y104.457 E2.90656
G1 X155.575 Y105.078 E2.92761
G1 X155.376 Y105.913 E2.95616
G1 X155.337 Y106.052 E2.96097
G1 X155.167 Y106.601 E2.98008
G1 X154.894 Y107.409 E3.00845
G1 X154.554 Y108.29 E3.03986
G1 X154.492 Y108.432 E3.04501
G1 X154.284 Y108.88 E3.06144
G1 X153.893 Y109.676 E3.09093
G1 X153.477 Y110.444 E3.11998
G1 X153.316 Y110.715 E3.13047
G1 X153.1 Y111.064 E3.14412
G1 X153.018 Y111.191 E3.14915
G1 X152.651 Y111.724 E3.17067
G1 X152.12 Y112.449 E3.20056
G1 X151.61 Y113.093 E3.22788
G1 X151.528 Y113.189 E3.23208
G1 X151.133 Y113.627 E3.2517
G1 X150.526 Y114.265 E3.28099
G1 X149.884 Y114.888 E3.31074
G1 X149.613 Y115.13 E3.32283
G1 X149.318 Y115.384 E3.33578
G1 X149.235 Y115.453 E3.33937
G1 X148.726 Y115.851 E3.36086
G1 X148.009 Y116.379 E3.39047
G1 X147.268 Y116.88 E3.42022
G1 X147.145 Y116.956 E3.42503
G1 X146.694 Y117.22 E3.44241
G1 X146.019 Y117.594 E3.46808
G1 X145.161 Y118.022 E3.49997
G1 X144.433 Y118.346 E3.52647
G1 X143.606 Y118.674 E3.55606
G1 X143.29 Y118.785 E3.5672
G1 X142.856 Y118.928 E3.5824
G1 X142.535 Y119.026 E3.59356
G1 X142.051 Y119.161 E3.61028
G1 X141.926 Y119.193 E3.61457
G1 X141.397 Y119.315 E3.63262
G1 X140.505 Y119.497 E3.6629
G1 X139.57 Y119.646 E3.69439
G1 X139.449 Y119.66 E3.69845
G1 X138.956 Y119.706 E3.71491
G1 X138.173 Y119.761 E3.74102
G1 X137.204 Y119.786 E3.77326
G1 X136.537 Y119.774 E3.79545
G1 X135.61 Y119.718 E3.82634
G1 X134.803 Y119.635 E3.85332
G1 X134.426 Y119.59 E3.86595
G1 X134.036 Y119.536 E3.87904
G1 X131.516 Y119.224 E3.9635
G1 X129 Y118.985 E4.04756
G1 X126.428 Y118.814 E4.13329
G1 X124.581 Y118.737 E4.19478
G1 X122.151 Y118.662 E4.27564
G1 X121.769 Y118.643 E4.28836
G1 X120.442 Y118.556 E4.33259
G1 X119.788 Y118.51 E4.3544
G1 X117.27 Y118.394 E4.43823
G1 X114.75 Y118.351 E4.52206
G1 X112.258 Y118.377 E4.60495
G1 X109.701 Y118.477 E4.69006
G1 X107.221 Y118.644 E4.77273
G1 X104.719 Y118.883 E4.85633
G1 X101.857 Y119.247 E4.95229
G1 X101.582 Y119.279 E4.96149
G1 X100.311 Y119.353 E5.00384
G1 X100.034 Y119.352 E5.01305
G1 X97.617 Y119.323 E5.09345
G1 X95.563 Y119.351 E5.16177
G1 X94.625 Y119.324 E5.19298
G1 X93.694 Y119.217 E5.22415
G1 X92.774 Y119.031 E5.25537
G1 X92.267 Y118.893 E5.27285
G1 X92.029 Y118.822 E5.28111
G1 X91.194 Y118.536 E5.31046
G1 X90.908 Y118.425 E5.32067
G1 X90.42 Y118.222 E5.33824
G1 X90.294 Y118.166 E5.34283
G1 X89.848 Y117.955 E5.35924
G1 X89.039 Y117.551 E5.38932
G1 X88.22 Y117.098 E5.42045
G1 X88.107 Y117.029 E5.42485
G1 X87.661 Y116.742 E5.44249
G1 X86.929 Y116.245 E5.47192
G1 X86.247 Y115.742 E5.5001
G1 X86.148 Y115.663 E5.50432
G1 X85.721 Y115.304 E5.52287
G1 X85.158 Y114.806 E5.54787
G1 X84.468 Y114.14 E5.57977
G1 X83.982 Y113.628 E5.60325
G1 X83.353 Y112.904 E5.63514
G1 X82.901 Y112.336 E5.65929
G1 X82.609 Y111.953 E5.67531
G1 X82.328 Y111.553 E5.69157
G1 X82.168 Y111.314 E5.70113
G1 X81.93 Y110.942 E5.71582
G1 X81.737 Y110.627 E5.72811
G1 X81.509 Y110.238 E5.7431
G1 X81.451 Y110.134 E5.74706
G1 X81.175 Y109.605 E5.76691
G1 X80.896 Y109.034 E5.78805
G1 X80.7 Y108.612 E5.80352
G1 X80.456 Y108.054 E5.82378
G1 X80.111 Y107.161 E5.85562
G1 X80.081 Y107.072 E5.85874
G1 X79.934 Y106.599 E5.87522
G1 X79.682 Y105.723 E5.90554
G1 X79.506 Y105.027 E5.92941
G1 X79.482 Y104.917 E5.93316
G1 X79.353 Y104.222 E5.95667
G1 X79.233 Y103.431 E5.98328
G1 X79.132 Y102.497 E6.01452
G1 X79.082 Y101.731 E6.04006
G1 X79.06 Y100.861 E6.069
G1 X79.062 Y100.718 E6.07376
G1 X79.085 Y100.153 E6.09257
G1 X79.142 Y99.283 E6.12156
G1 X79.231 Y98.427 E6.15019
G1 X79.254 Y98.268 E6.15553
G1 X79.353 Y97.694 E6.1749
G1 X79.454 Y97.187 E6.1921
G1 X79.556 Y96.728 E6.20774
G1 X79.719 Y96.06 E6.23061
G1 X79.953 Y95.239 E6.259
G1 X80.058 Y94.919 E6.2702
G1 X80.213 Y94.478 E6.28575
G1 X80.266 Y94.337 E6.29076
G1 X80.491 Y93.784 E6.31062
G1 X80.787 Y93.11 E6.3351
G1 X81.207 Y92.258 E6.36669
G1 X81.53 Y91.667 E6.3891
G1 X82.017 Y90.859 E6.42047
G1 X82.398 Y90.285 E6.44339
G1 X82.978 Y89.49 E6.47612
G1 X83.381 Y88.987 E6.49756
G1 X83.99 Y88.29 E6.52834
G1 X84.482 Y87.772 E6.5521
G0 F6000 X84.772 Y88.047
G1 F1200 X85.437 Y87.406 E6.58282
G1 X86.007 Y86.902 E6.60813
G1 X86.658 Y86.37 E6.63609
G1 X86.936 Y86.161 E6.64766
G1 X87.261 Y85.927 E6.66098
G1 X87.382 Y85.843 E6.66588
G1 X87.904 Y85.503 E6.6866
G1 X88.402 Y85.199 E6.706
G1 X88.771 Y84.983 E6.72023
G1 X89.321 Y84.677 E6.74116
G1 X90.081 Y84.294 E6.76947
G1 X90.362 Y84.166 E6.77974
G1 X90.785 Y83.984 E6.79505
G1 X91.181 Y83.824 E6.80926
G1 X91.787 Y83.6 E6.83075
G1 X92.026 Y83.52 E6.83913
G1 X92.911 Y83.266 E6.86975
G1 X93.815 Y83.09 E6.90038
G1 X94.73 Y82.993 E6.93099
G1 X95.535 Y82.973 E6.95777
G1 X96.639 Y82.988 E6.99449
G1 X99.3 Y82.988 E7.083
G1 X99.843 Y82.976 E7.10106
G1 X100.121 Y82.973 E7.11031
G1 X100.364 Y82.974 E7.11839
G1 X101.283 Y83.018 E7.14899
G1 X101.78 Y83.075 E7.16563
G1 X101.923 Y83.095 E7.17043
G1 X104.503 Y83.421 E7.25693
G1 X107.009 Y83.667 E7.34068
G1 X109.529 Y83.843 E7.4247
G1 X112.063 Y83.947 E7.50905
G1 X114.578 Y83.98 E7.59271
G1 X117.127 Y83.94 E7.6775
G1 X119.679 Y83.829 E7.76246
G1 X121.765 Y83.684 E7.832
G1 X122.167 Y83.663 E7.84539
G1 X124.645 Y83.585 E7.92785
G1 X126.99 Y83.485 E8.00592
G1 X129.508 Y83.307 E8.08988
G1 X132.016 Y83.058 E8.1737
G1 X135.144 Y82.649 E8.27863
G1 X135.805 Y82.583 E8.30072
G1 X136.116 Y82.562 E8.31109
G1 X136.549 Y82.542 E8.3255
G1 X136.7 Y82.538 E8.33053
G1 X137.266 Y82.538 E8.34935
G1 X138.159 Y82.562 E8.37907
G1 X138.972 Y82.615 E8.40616
G1 X139.308 Y82.65 E8.4174
G1 X139.815 Y82.715 E8.4344
G1 X139.926 Y82.732 E8.43814
G1 X140.436 Y82.823 E8.45537
G1 X141.325 Y83.004 E8.48554
G1 X142.13 Y83.201 E8.51311
G1 X142.465 Y83.297 E8.5247
G1 X142.983 Y83.46 E8.54276
G1 X143.123 Y83.508 E8.54768
G1 X143.558 Y83.668 E8.5631
G1 X144.358 Y83.982 E8.59168
G1 X145.067 Y84.29 E8.61739
G1 X145.188 Y84.348 E8.62185
G1 X145.748 Y84.638 E8.64283
G1 X146.442 Y85.023 E8.66923
G1 X147.22 Y85.499 E8.69956
G1 X147.869 Y85.936 E8.72558
G1 X148.529 Y86.419 E8.75279
G1 X148.774 Y86.613 E8.76318
G1 X149.128 Y86.906 E8.77846
G1 X149.402 Y87.143 E8.79051
G1 X149.758 Y87.465 E8.80648
G1 X149.872 Y87.573 E8.8117
G1 X150.269 Y87.97 E8.83038
G1 X150.869 Y88.602 E8.85936
G1 X151.406 Y89.212 E8.88639
G1 X151.615 Y89.469 E8.89741
G1 X151.898 Y89.833 E8.91274
G1 X151.982 Y89.946 E8.91743
G1 X152.304 Y90.404 E8.93605
G1 X152.801 Y91.152 E8.96592
G1 X153.225 Y91.847 E8.993
G1 X153.377 Y92.119 E9.00336
G1 X153.593 Y92.527 E9.01871
G1 X153.76 Y92.859 E9.03107
G1 X153.977 Y93.317 E9.04793
G1 X154.105 Y93.605 E9.05841
G1 X154.256 Y93.961 E9.07127
G1 X154.311 Y94.098 E9.07618
G1 X154.513 Y94.645 E9.09558
G1 X154.799 Y95.489 E9.12522
G1 X155.039 Y96.301 E9.15338
G1 X155.071 Y96.428 E9.15774
G1 X155.193 Y96.974 E9.17634
G1 X155.307 Y97.554 E9.196
G1 X155.38 Y97.968 E9.20999
G1 X155.462 Y98.495 E9.22773
G1 X155.566 Y99.447 E9.25958
G1 X155.616 Y100.227 E9.28557
G1 X155.637 Y101.053 E9.31306
G1 X155.635 Y101.196 E9.31781
G1 X155.614 Y101.735 E9.33575
G1 X155.565 Y102.489 E9.36088
G1 X155.466 Y103.4 E9.39136
G1 X155.387 Y103.918 E9.40879
G1 X155.306 Y104.38 E9.42439
G1 X155.183 Y105.001 E9.44545
G1 X154.991 Y105.805 E9.47294
G1 X154.952 Y105.944 E9.47774
G1 X154.788 Y106.473 E9.49616
G1 X154.515 Y107.281 E9.52453
G1 X154.187 Y108.13 E9.5548
G1 X154.125 Y108.272 E9.55995
G1 X153.925 Y108.703 E9.57576
G1 X153.534 Y109.499 E9.60525
G1 X153.133 Y110.24 E9.63328
G1 X152.972 Y110.511 E9.64376
G1 X152.764 Y110.847 E9.6569
G1 X152.682 Y110.974 E9.66193
G1 X152.329 Y111.487 E9.68264
G1 X151.798 Y112.212 E9.71253
G1 X151.306 Y112.834 E9.73891
G1 X151.224 Y112.93 E9.74311
G1 X150.844 Y113.351 E9.76197
G1 X150.237 Y113.989 E9.79126
G1 X149.617 Y114.589 E9.81996
G1 X149.346 Y114.831 E9.83204
G1 X149.062 Y115.076 E9.84452
G1 X148.979 Y115.145 E9.84811
G1 X148.488 Y115.529 E9.86884
G1 X147.771 Y116.057 E9.89846
G1 X147.058 Y116.539 E9.92708
G1 X146.935 Y116.615 E9.93189
G1 X146.5 Y116.87 E9.94866
G1 X145.825 Y117.244 E9.97433
G1 X144.998 Y117.656 E10.00506
G1 X144.27 Y117.98 E10.03156
G1 X143.473 Y118.297 E10.06009
G1 X143.157 Y118.408 E10.07123
G1 X142.739 Y118.545 E10.08586
G1 X142.418 Y118.643 E10.09702
G1 X141.952 Y118.774 E10.11312
G1 X141.827 Y118.806 E10.11741
G1 X141.317 Y118.923 E10.13482
G1 X140.425 Y119.105 E10.1651
G1 X139.524 Y119.249 E10.19544
G1 X139.403 Y119.263 E10.1995
G1 X138.928 Y119.307 E10.21536
G1 X138.145 Y119.362 E10.24147
G1 X137.211 Y119.386 E10.27254
G1 X136.544 Y119.374 E10.29473
G1 X135.651 Y119.32 E10.32449
G1 X134.844 Y119.237 E10.35147
G1 X134.48 Y119.194 E10.36366
G1 X134.063 Y119.136 E10.37766
G1 X131.57 Y118.827 E10.46122
G1 X129.026 Y118.586 E10.54621
G1 X126.473 Y118.416 E10.63131
G1 X124.52 Y118.335 E10.69632
G1 X122.163 Y118.262 E10.77475
G1 X121.795 Y118.244 E10.78701
G1 X120.47 Y118.157 E10.83117
G1 X119.836 Y118.113 E10.85231
G1 X117.26 Y117.994 E10.93808
G1 X114.752 Y117.951 E11.02151
G1 X112.238 Y117.977 E11.10513
G1 X109.694 Y118.076 E11.18981
G1 X107.188 Y118.245 E11.27335
G1 X104.667 Y118.487 E11.35758
G1 X101.811 Y118.85 E11.45334
G1 X101.536 Y118.882 E11.46254
G1 X100.311 Y118.953 E11.50336
G1 X100.039 Y118.952 E11.5124
G1 X97.616 Y118.923 E11.593
G1 X95.557 Y118.951 E11.66149
G1 X94.637 Y118.924 E11.6921
G1 X93.723 Y118.817 E11.72271
G1 X92.382 Y118.51 E11.76846
G1 X92.144 Y118.439 E11.77672
G1 X91.339 Y118.163 E11.80503
G1 X91.053 Y118.052 E11.81523
G1 X90.583 Y117.856 E11.83217
G1 X90.457 Y117.8 E11.83675
G1 X90.026 Y117.597 E11.8526
G1 X89.217 Y117.193 E11.88268
G1 X88.429 Y116.757 E11.91263
G1 X88.316 Y116.688 E11.91703
G1 X87.886 Y116.411 E11.93405
G1 X87.154 Y115.914 E11.96347
G1 X86.496 Y115.429 E11.99066
G1 X86.397 Y115.35 E11.99487
G1 X85.986 Y115.005 E12.01272
G1 X85.423 Y114.507 E12.03772
G1 X84.758 Y113.865 E12.06846
G1 X84.272 Y113.353 E12.09194
G1 X83.666 Y112.655 E12.12269
G1 X83.214 Y112.087 E12.14683
G1 X82.931 Y111.716 E12.16235
G1 X82.661 Y111.331 E12.17799
G1 X82.501 Y111.092 E12.18756
G1 X82.271 Y110.733 E12.20174
G1 X82.078 Y110.418 E12.21403
G1 X81.858 Y110.043 E12.22849
G1 X81.8 Y109.939 E12.23245
G1 X81.534 Y109.43 E12.25155
G1 X81.255 Y108.859 E12.27269
G1 X81.067 Y108.452 E12.2876
G1 X80.823 Y107.894 E12.30785
G1 X80.49 Y107.033 E12.33856
G1 X80.46 Y106.944 E12.34168
G1 X80.318 Y106.488 E12.35757
G1 X80.066 Y105.612 E12.38788
G1 X79.897 Y104.942 E12.41087
G1 X79.873 Y104.832 E12.41461
G1 X79.749 Y104.162 E12.43727
G1 X79.629 Y103.371 E12.46388
G1 X79.532 Y102.471 E12.49399
G1 X79.482 Y101.705 E12.51952
G1 X79.46 Y100.867 E12.5474
G1 X79.462 Y100.724 E12.55216
G1 X79.484 Y100.179 E12.5703
G1 X79.541 Y99.309 E12.5993
G1 X79.627 Y98.484 E12.62689
G1 X79.65 Y98.325 E12.63223
G1 X79.745 Y97.772 E12.65089
G1 X79.846 Y97.265 E12.66809
G1 X79.944 Y96.823 E12.68315
G1 X80.107 Y96.155 E12.70602
G1 X80.333 Y95.363 E12.73341
G1 X80.438 Y95.043 E12.74461
G1 X80.588 Y94.618 E12.7596
G1 X80.641 Y94.477 E12.76461
G1 X80.858 Y93.945 E12.78372
G1 X81.154 Y93.271 E12.8082
G1 X81.558 Y92.449 E12.83867
G1 X81.881 Y91.858 E12.86107
G1 X82.35 Y91.08 E12.89128
G1 X82.731 Y90.506 E12.9142
G1 X83.291 Y89.74 E12.94576
G1 X83.694 Y89.237 E12.96719
G1 X84.28 Y88.565 E12.99685
G1 X84.772 Y88.047 E13.02061
G0 F6000 X85.062 Y88.323
G1 F1200 X85.701 Y87.706 E13.05016
G1 X86.271 Y87.202 E13.07546
G1 X86.899 Y86.69 E13.10241
G1 X87.177 Y86.481 E13.11398
G1 X87.489 Y86.255 E13.12679
G1 X87.61 Y86.171 E13.13169
G1 X88.112 Y85.844 E13.15162
G1 X88.61 Y85.54 E13.17102
G1 X88.966 Y85.333 E13.18472
G1 X89.516 Y85.027 E13.20565
G1 X90.247 Y84.658 E13.23289
G1 X90.528 Y84.53 E13.24316
G1 X90.935 Y84.355 E13.2579
G1 X91.331 Y84.195 E13.2721
G1 X91.914 Y83.979 E13.29278
G1 X92.153 Y83.899 E13.30116
G1 X93.022 Y83.651 E13.33122
G1 X93.908 Y83.48 E13.36123
