;FLAVOR:Marlin
;TIME:17940
;Filament used: 21.053m
;Layer height: 0.28
;MINX:79.189
;MINY:56.855
;MINZ:0.28
;MAXX:155.811
;MAXY:172.213
;MAXZ:73.64
;Generated with Cura_SteamEngine 4.9.1
M140 S50
M105
M190 S50
M104 S215
M105
M109 S215
M82 ;absolute extrusion mode
; Ender 3 Custom Start G-code
G92 E0 ; Reset Extruder
G28 ; Home all axes
G1 Z2.0 F3000 ; Move Z Axis up little to prevent scratching of Heat Bed
G1 X0.1 Y20 Z0.3 F5000.0 ; Move to start position
G1 X0.1 Y200.0 Z0.3 F1500.0 E15 ; Draw the first line
G1 X0.4 Y200.0 Z0.3 F5000.0 ; Move to side a little
G1 X0.4 Y20 Z0.3 F1500.0 E30 ; Draw the second line
G92 E0 ; Reset Extruder
G1 Z2.0 F3000 ; Move Z Axis up little to prevent scratching of Heat Bed
G1 X5 Y20 Z0.3 F5000.0 ; Move over to prevent blob squish
G92 E0
G92 E0
G1 F2700 E-5
;LAYER_COUNT:263
;LAYER:0
M107
G0 F6000 X107.081 Y62.471 Z0.28
;TYPE:SKIRT
G1 F2700 E0
G1 F1200 X107.576 Y61.674 E0.04369
G1 X108.137 Y60.922 E0.08737
G1 X108.759 Y60.221 E0.13101
G1 X109.439 Y59.575 E0.17469
G1 X110.172 Y58.989 E0.21838
G1 X110.952 Y58.468 E0.26206
G1 X111.774 Y58.016 E0.30574
G1 X112.631 Y57.635 E0.34941
G1 X113.517 Y57.328 E0.39308
G1 X114.426 Y57.098 E0.43674
G1 X115.352 Y56.947 E0.48042
G1 X116.01 Y56.888 E0.51119
G1 X116.144 Y56.88 E0.51744
G1 X116.667 Y56.861 E0.54181
G1 X117.212 Y56.855 E0.56719
G1 X117.634 Y56.855 E0.58684
G1 X118.491 Y56.866 E0.62674
G1 X119.427 Y56.919 E0.6704
G1 X120.356 Y57.052 E0.7141
G1 X121.27 Y57.264 E0.75779
G1 X122.162 Y57.553 E0.80145
G1 X123.026 Y57.916 E0.84509
G1 X123.857 Y58.352 E0.88878
G1 X124.647 Y58.857 E0.93244
G1 X125.392 Y59.428 E0.97615
G1 X126.085 Y60.059 E1.01979
G1 X126.721 Y60.748 E1.06345
G1 X127.297 Y61.488 E1.10712
G1 X127.808 Y62.275 E1.15081
G1 X128.249 Y63.102 E1.19445
G1 X128.684 Y64.16 E1.24772
G1 X129.613 Y66.654 E1.37165
G1 X130.558 Y69 E1.48942
G1 X131.571 Y71.324 E1.60746
G1 X132.635 Y73.584 E1.72378
G1 X133.766 Y75.825 E1.84067
G1 X134.968 Y78.046 E1.95826
G1 X136.227 Y80.22 E2.07524
G1 X137.562 Y82.385 E2.19368
G1 X138.924 Y84.46 E2.30925
G1 X140.371 Y86.531 E2.42689
G1 X141.88 Y88.57 E2.54501
G1 X143.422 Y90.534 E2.66128
G1 X145.032 Y92.467 E2.77842
G1 X146.704 Y94.363 E2.89613
G1 X148.424 Y96.209 E3.01362
G1 X150.174 Y97.982 E3.12962
G1 X151.813 Y99.553 E3.23533
G1 X151.981 Y99.717 E3.24627
G1 X152.623 Y100.4 E3.28991
G1 X153.253 Y101.201 E3.33737
G1 X153.765 Y101.987 E3.38105
G1 X154.208 Y102.814 E3.42473
G1 X154.58 Y103.675 E3.46841
G1 X154.876 Y104.565 E3.51208
G1 X155.096 Y105.476 E3.55572
G1 X155.237 Y106.404 E3.59943
G1 X155.297 Y107.258 E3.63929
G1 X155.307 Y107.584 E3.65448
G1 X155.312 Y107.92 E3.67012
G1 X155.313 Y122.447 E4.34656
G1 X155.31 Y122.696 E4.35816
G1 X155.299 Y123.183 E4.38084
G1 X155.239 Y124.113 E4.42423
G1 X155.163 Y124.82 E4.45735
G1 X154.922 Y127.414 E4.57865
G1 X154.76 Y129.911 E4.69517
G1 X154.668 Y132.432 E4.81263
G1 X154.647 Y134.956 E4.93017
G1 X154.698 Y137.479 E5.04767
G1 X154.819 Y139.977 E5.16413
G1 X155.014 Y142.522 E5.28298
G1 X155.244 Y144.74 E5.38681
G1 X155.299 Y145.564 E5.42527
G1 X155.308 Y145.883 E5.44013
G1 X155.312 Y146.193 E5.45456
G1 X155.311 Y160.628 E6.12672
G1 X155.301 Y161.34 E6.15987
G1 X155.248 Y162.277 E6.20357
G1 X155.115 Y163.205 E6.24723
G1 X154.904 Y164.119 E6.29091
G1 X154.615 Y165.011 E6.33457
G1 X154.252 Y165.876 E6.37825
G1 X153.816 Y166.707 E6.42195
G1 X153.311 Y167.497 E6.4656
G1 X152.741 Y168.242 E6.50928
G1 X152.109 Y168.935 E6.55296
G1 X151.421 Y169.572 E6.59662
G1 X150.681 Y170.148 E6.64028
G1 X149.894 Y170.658 E6.68395
G1 X149.067 Y171.1 E6.72761
G1 X148.205 Y171.47 E6.77129
G1 X147.315 Y171.765 E6.81495
G1 X146.403 Y171.984 E6.85863
G1 X145.739 Y172.092 E6.88995
G1 X145.572 Y172.114 E6.89779
G1 X144.269 Y172.207 E6.95862
G1 X143.724 Y172.213 E6.984
G1 X129.321 Y172.213 E7.65466
G1 X129.013 Y172.209 E7.66901
G1 X128.692 Y172.2 E7.68396
G1 X127.756 Y172.133 E7.72766
G1 X125.044 Y171.866 E7.85455
G1 X122.498 Y171.686 E7.9734
G1 X120 Y171.58 E8.08982
G1 X117.484 Y171.545 E8.20699
G1 X114.954 Y171.582 E8.32481
G1 X112.432 Y171.689 E8.44235
G1 X109.961 Y171.864 E8.55769
G1 X107.127 Y172.149 E8.69032
G1 X106.336 Y172.2 E8.72723
G1 X106.016 Y172.209 E8.74214
G1 X105.708 Y172.213 E8.75648
G1 X91.204 Y172.213 E9.43185
G1 X90.555 Y172.203 E9.46207
G1 X89.618 Y172.148 E9.50578
G1 X88.69 Y172.014 E9.54944
G1 X87.777 Y171.802 E9.59308
G1 X86.884 Y171.512 E9.6368
G1 X86.02 Y171.148 E9.68046
G1 X85.19 Y170.711 E9.72414
G1 X84.401 Y170.205 E9.76778
G1 X83.657 Y169.634 E9.81145
G1 X82.965 Y169.001 E9.85512
G1 X82.329 Y168.312 E9.89878
G1 X81.754 Y167.571 E9.94246
G1 X81.244 Y166.783 E9.98616
G1 X80.803 Y165.956 E10.02981
G1 X80.434 Y165.093 E10.07351
G1 X80.141 Y164.203 E10.11714
G1 X79.895 Y163.138 E10.16804
G1 X79.865 Y162.97 E10.17598
G1 X79.74 Y162.04 E10.21968
G1 X79.695 Y161.157 E10.26085
G1 X79.689 Y160.583 E10.28758
G1 X79.69 Y146.413 E10.94739
G1 X79.7 Y145.716 E10.97985
G1 X79.723 Y145.153 E11.00609
G1 X79.756 Y144.736 E11.02556
G1 X79.909 Y143.212 E11.09688
G1 X79.935 Y142.981 E11.10771
G1 X80.144 Y140.446 E11.22615
G1 X80.283 Y137.912 E11.34432
G1 X80.347 Y135.433 E11.45979
G1 X80.34 Y132.902 E11.57765
G1 X80.264 Y130.389 E11.69472
G1 X80.116 Y127.896 E11.811
G1 X79.748 Y123.96 E11.99508
G1 X79.767 Y123.958 E11.99597
G1 X79.702 Y123.239 E12.02959
G1 X79.693 Y122.92 E12.04445
G1 X79.689 Y122.61 E12.05888
G1 X79.69 Y108.141 E12.73262
G1 X79.7 Y107.438 E12.76536
G1 X79.753 Y106.501 E12.80906
G1 X79.886 Y105.573 E12.85271
G1 X80.098 Y104.659 E12.8964
G1 X80.386 Y103.767 E12.94005
G1 X80.75 Y102.902 E12.98375
G1 X81.186 Y102.072 E13.0274
G1 X81.691 Y101.281 E13.0711
G1 X82.261 Y100.537 E13.11474
G1 X83.08 Y99.66 E13.17062
G1 X83.929 Y98.845 E13.22542
G1 X85.777 Y97.021 E13.34632
G1 X87.545 Y95.174 E13.46538
G1 X89.199 Y93.346 E13.58017
G1 X90.84 Y91.423 E13.69788
G1 X92.433 Y89.45 E13.81596
G1 X93.956 Y87.447 E13.93313
G1 X95.429 Y85.394 E14.05079
G1 X96.822 Y83.331 E14.1667
G1 X98.17 Y81.208 E14.2838
G1 X99.474 Y79.019 E14.40244
G1 X100.698 Y76.825 E14.51943
G1 X101.843 Y74.63 E14.6347
G1 X102.964 Y72.325 E14.75406
G1 X103.989 Y70.053 E14.87012
G1 X104.958 Y67.737 E14.98702
G1 X106.155 Y64.595 E15.14358
G1 X106.304 Y64.176 E15.16429
G1 X106.656 Y63.307 E15.20795
G1 X107.081 Y62.471 E15.25161
G0 F6000 X107.446 Y62.637
G1 F1200 X107.935 Y61.857 E15.29448
G1 X108.49 Y61.122 E15.33737
G1 X109.106 Y60.438 E15.38023
G1 X109.779 Y59.81 E15.42309
G1 X110.504 Y59.243 E15.46595
G1 X111.276 Y58.741 E15.50883
G1 X112.088 Y58.307 E15.5517
G1 X112.935 Y57.946 E15.59457
G1 X113.81 Y57.66 E15.63744
G1 X114.707 Y57.451 E15.68033
G1 X116.034 Y57.287 E15.74259
G1 X116.168 Y57.279 E15.74884
G1 X116.671 Y57.261 E15.77227
G1 X117.212 Y57.255 E15.79747
G1 X117.634 Y57.255 E15.81712
G1 X118.485 Y57.266 E15.85675
G1 X119.405 Y57.319 E15.89966
G1 X120.316 Y57.452 E15.94253
G1 X121.212 Y57.663 E15.98539
G1 X122.086 Y57.951 E16.02824
G1 X122.932 Y58.314 E16.0711
G1 X123.744 Y58.749 E16.114
G1 X124.514 Y59.253 E16.15685
G1 X125.238 Y59.822 E16.19973
G1 X125.91 Y60.451 E16.24259
G1 X126.525 Y61.137 E16.28549
G1 X127.078 Y61.873 E16.32836
G1 X127.565 Y62.654 E16.37121
G1 X127.982 Y63.475 E16.41409
G1 X128.311 Y64.298 E16.45536
G1 X129.238 Y66.793 E16.5793
G1 X130.197 Y69.173 E16.69878
G1 X131.201 Y71.476 E16.81577
G1 X132.273 Y73.755 E16.93304
G1 X133.422 Y76.031 E17.05176
G1 X134.613 Y78.232 E17.16829
G1 X135.889 Y80.435 E17.28683
G1 X137.214 Y82.584 E17.40439
G1 X138.595 Y84.687 E17.52154
G1 X140.054 Y86.776 E17.64019
G1 X141.559 Y88.809 E17.75797
G1 X143.099 Y90.77 E17.87408
G1 X144.741 Y92.742 E17.99357
G1 X146.412 Y94.637 E18.11121
G1 X148.129 Y96.48 E18.2285
G1 X149.895 Y98.269 E18.34555
G1 X151.533 Y99.839 E18.4512
G1 X151.701 Y100.003 E18.46214
G1 X152.332 Y100.674 E18.50503
G1 X152.928 Y101.434 E18.55
G1 X153.43 Y102.206 E18.59288
G1 X153.863 Y103.018 E18.63573
G1 X154.224 Y103.865 E18.6786
G1 X154.51 Y104.74 E18.72147
G1 X154.719 Y105.636 E18.76431
G1 X154.85 Y106.548 E18.80721
G1 X154.897 Y107.27 E18.8409
G1 X154.907 Y107.596 E18.85609
G1 X154.912 Y107.92 E18.87118
G1 X154.913 Y122.447 E19.54761
G1 X154.91 Y122.687 E19.55879
G1 X154.899 Y123.174 E19.58147
G1 X154.841 Y124.07 E19.62328
G1 X154.762 Y124.807 E19.6578
G1 X154.525 Y127.351 E19.77677
G1 X154.36 Y129.892 E19.89534
G1 X154.268 Y132.414 E20.01285
G1 X154.247 Y134.961 E20.13145
G1 X154.298 Y137.472 E20.2484
G1 X154.422 Y140.025 E20.36742
G1 X154.613 Y142.524 E20.48412
G1 X154.847 Y144.782 E20.58983
G1 X154.899 Y145.575 E20.62683
G1 X154.908 Y145.894 E20.64169
G1 X154.912 Y146.193 E20.65561
G1 X154.911 Y160.623 E21.32754
G1 X154.901 Y161.335 E21.36069
G1 X154.848 Y162.254 E21.40356
G1 X154.716 Y163.165 E21.44642
G1 X154.505 Y164.061 E21.48928
G1 X154.217 Y164.936 E21.53218
G1 X153.854 Y165.782 E21.57504
G1 X153.419 Y166.593 E21.6179
G1 X152.915 Y167.364 E21.66079
G1 X152.347 Y168.088 E21.70364
G1 X151.718 Y168.76 E21.7465
G1 X151.032 Y169.375 E21.7894
G1 X150.296 Y169.928 E21.83226
G1 X149.515 Y170.415 E21.87512
G1 X148.695 Y170.833 E21.91798
G1 X147.841 Y171.178 E21.96087
G1 X146.961 Y171.447 E22.00371
G1 X145.686 Y171.695 E22.0642
G1 X145.519 Y171.717 E22.07204
G1 X144.264 Y171.807 E22.13063
G1 X143.724 Y171.813 E22.15577
G1 X129.321 Y171.813 E22.82644
G1 X129.024 Y171.809 E22.84027
G1 X128.703 Y171.8 E22.85522
G1 X127.785 Y171.734 E22.89808
G1 X125.079 Y171.467 E23.02469
G1 X122.507 Y171.286 E23.14475
G1 X120.023 Y171.18 E23.26052
G1 X117.485 Y171.145 E23.37871
G1 X114.931 Y171.182 E23.49765
G1 X112.423 Y171.289 E23.61454
G1 X109.926 Y171.466 E23.7311
G1 X107.087 Y171.751 E23.86396
G1 X106.325 Y171.8 E23.89952
G1 X106.005 Y171.809 E23.91443
G1 X105.708 Y171.813 E23.92826
G1 X91.21 Y171.813 E24.60334
G1 X90.561 Y171.803 E24.63357
G1 X89.642 Y171.749 E24.67643
G1 X88.731 Y171.615 E24.71931
G1 X87.835 Y171.403 E24.76218
G1 X86.961 Y171.114 E24.80505
G1 X86.115 Y170.75 E24.84793
G1 X85.304 Y170.314 E24.89081
G1 X84.534 Y169.809 E24.93369
G1 X83.811 Y169.239 E24.97656
G1 X83.14 Y168.609 E25.01941
G1 X82.526 Y167.923 E25.06228
G1 X81.974 Y167.187 E25.10512
G1 X81.488 Y166.405 E25.14799
G1 X81.071 Y165.584 E25.19087
G1 X80.727 Y164.729 E25.23379
G1 X80.459 Y163.849 E25.27662
G1 X80.289 Y163.067 E25.31388
G1 X80.259 Y162.899 E25.32183
G1 X80.137 Y161.987 E25.36468
G1 X80.095 Y161.153 E25.40356
G1 X80.089 Y160.583 E25.4301
G1 X80.09 Y146.419 E26.08964
G1 X80.1 Y145.722 E26.1221
G1 X80.122 Y145.177 E26.14749
G1 X80.154 Y144.776 E26.16623
G1 X80.306 Y143.256 E26.23736
G1 X80.336 Y142.988 E26.24991
G1 X80.545 Y140.465 E26.3678
G1 X80.682 Y137.945 E26.48531
G1 X80.747 Y135.442 E26.6019
G1 X80.74 Y132.889 E26.72078
G1 X80.664 Y130.387 E26.83734
G1 X80.515 Y127.866 E26.95493
G1 X80.146 Y123.923 E27.13934
G1 X80.163 Y123.921 E27.14013
G1 X80.102 Y123.228 E27.17253
G1 X80.093 Y122.909 E27.18739
G1 X80.089 Y122.61 E27.20131
G1 X80.09 Y108.146 E27.87481
G1 X80.1 Y107.443 E27.90755
G1 X80.153 Y106.524 E27.95042
G1 X80.286 Y105.613 E27.99329
G1 X80.497 Y104.717 E28.03615
G1 X80.785 Y103.843 E28.079
G1 X81.148 Y102.996 E28.12191
G1 X81.583 Y102.185 E28.16476
G1 X82.087 Y101.414 E28.20765
G1 X82.655 Y100.69 E28.2505
G1 X83.357 Y99.949 E28.29803
G1 X84.204 Y99.136 E28.3527
G1 X86.046 Y97.317 E28.47324
G1 X87.83 Y95.454 E28.59335
G1 X89.5 Y93.608 E28.70926
G1 X91.173 Y91.649 E28.82922
G1 X92.743 Y89.703 E28.94565
G1 X94.271 Y87.694 E29.06318
G1 X95.752 Y85.629 E29.18151
G1 X97.158 Y83.548 E29.29845
G1 X98.524 Y81.397 E29.4171
G1 X99.809 Y79.239 E29.53405
G1 X101.044 Y77.026 E29.65206
G1 X102.214 Y74.783 E29.76986
G1 X103.311 Y72.528 E29.88662
G1 X104.365 Y70.193 E30.00592
G1 X105.332 Y67.88 E30.12265
G1 X106.531 Y64.731 E30.27955
G1 X106.681 Y64.31 E30.30036
G1 X107.027 Y63.457 E30.34322
G1 X107.446 Y62.637 E30.3861
G0 F6000 X107.811 Y62.805
G1 F1200 X108.294 Y62.041 E30.42819
G1 X108.842 Y61.324 E30.47021
G1 X109.452 Y60.657 E30.5123
G1 X110.118 Y60.048 E30.55432
G1 X110.835 Y59.499 E30.59637
G1 X111.598 Y59.016 E30.63842
G1 X112.401 Y58.602 E30.68049
G1 X113.237 Y58.262 E30.72251
G1 X114.101 Y57.996 E30.76461
G1 X114.984 Y57.808 E30.80665
G1 X116.058 Y57.686 E30.85698
G1 X116.192 Y57.678 E30.86323
G1 X116.676 Y57.661 E30.88578
G1 X117.212 Y57.655 E30.91074
G1 X117.634 Y57.655 E30.93039
G1 X118.48 Y57.666 E30.96979
G1 X119.381 Y57.719 E31.01181
G1 X120.275 Y57.851 E31.05389
G1 X121.153 Y58.062 E31.09594
G1 X122.009 Y58.35 E31.13799
G1 X122.836 Y58.712 E31.18003
G1 X123.628 Y59.146 E31.22208
G1 X124.378 Y59.649 E31.26413
G1 X125.081 Y60.216 E31.30619
G1 X125.732 Y60.842 E31.34824
G1 X126.324 Y61.524 E31.39029
G1 X126.853 Y62.256 E31.43235
G1 X127.316 Y63.031 E31.47439
G1 X127.708 Y63.845 E31.51646
G1 X127.938 Y64.436 E31.54599
G1 X128.868 Y66.946 E31.67063
G1 X129.818 Y69.303 E31.78896
G1 X130.85 Y71.67 E31.90919
G1 X131.905 Y73.913 E32.02461
G1 X133.071 Y76.222 E32.14506
G1 X134.254 Y78.408 E32.2608
G1 X135.546 Y80.64 E32.38089
G1 X136.873 Y82.792 E32.49861
G1 X138.276 Y84.929 E32.61765
G1 X139.72 Y86.997 E32.7351
G1 X141.239 Y89.049 E32.85398
G1 X142.793 Y91.028 E32.97114
G1 X144.435 Y92.999 E33.0906
G1 X146.12 Y94.91 E33.20923
G1 X147.851 Y96.768 E33.32748
G1 X149.616 Y98.556 E33.44447
G1 X151.254 Y100.125 E33.55008
G1 X151.422 Y100.289 E33.56102
G1 X152.04 Y100.948 E33.60308
G1 X152.602 Y101.666 E33.64554
G1 X153.094 Y102.424 E33.68762
G1 X153.517 Y103.222 E33.72967
G1 X153.868 Y104.054 E33.77172
G1 X154.143 Y104.914 E33.81377
G1 X154.342 Y105.795 E33.85582
G1 X154.462 Y106.69 E33.89787
G1 X154.497 Y107.282 E33.92548
G1 X154.507 Y107.608 E33.94067
G1 X154.512 Y107.92 E33.9552
G1 X154.513 Y122.447 E34.63164
G1 X154.51 Y122.678 E34.6424
G1 X154.499 Y123.165 E34.66508
G1 X154.443 Y124.028 E34.70535
G1 X154.367 Y124.733 E34.73837
G1 X154.126 Y127.325 E34.85958
G1 X153.959 Y129.892 E34.97936
G1 X153.868 Y132.397 E35.09608
G1 X153.847 Y134.966 E35.21571
G1 X153.898 Y137.499 E35.33368
G1 X154.021 Y140.041 E35.45219
G1 X154.214 Y142.556 E35.56964
G1 X154.449 Y144.823 E35.67577
G1 X154.499 Y145.586 E35.71137
G1 X154.508 Y145.905 E35.72623
G1 X154.512 Y146.193 E35.73964
G1 X154.511 Y160.617 E36.41129
G1 X154.501 Y161.329 E36.44444
G1 X154.448 Y162.231 E36.48652
G1 X154.316 Y163.124 E36.52855
G1 X154.105 Y164.002 E36.5706
G1 X153.818 Y164.858 E36.61264
G1 X153.456 Y165.686 E36.65472
G1 X153.022 Y166.478 E36.69677
G1 X152.52 Y167.228 E36.73879
G1 X151.953 Y167.932 E36.78088
G1 X151.326 Y168.582 E36.82294
G1 X150.645 Y169.174 E36.86495
G1 X149.913 Y169.704 E36.90703
G1 X149.138 Y170.167 E36.94907
G1 X148.324 Y170.559 E36.99114
G1 X147.479 Y170.878 E37.0332
G1 X146.61 Y171.122 E37.07523
G1 X145.634 Y171.299 E37.12142
G1 X145.467 Y171.321 E37.12926
G1 X144.259 Y171.407 E37.18565
G1 X143.724 Y171.413 E37.21056
G1 X129.321 Y171.413 E37.88123
G1 X129.035 Y171.409 E37.89455
G1 X128.714 Y171.4 E37.9095
G1 X127.761 Y171.331 E37.95399
G1 X125.11 Y171.068 E38.07804
G1 X122.552 Y170.888 E38.19744
G1 X120.011 Y170.78 E38.31587
G1 X117.484 Y170.745 E38.43355
G1 X114.944 Y170.782 E38.55184
G1 X112.376 Y170.891 E38.67152
G1 X109.894 Y171.067 E38.78738
G1 X107.047 Y171.353 E38.92062
G1 X106.314 Y171.4 E38.95482
G1 X105.994 Y171.409 E38.96973
G1 X105.708 Y171.413 E38.98305
G1 X91.216 Y171.413 E39.65785
G1 X90.567 Y171.403 E39.68808
G1 X89.665 Y171.349 E39.73015
G1 X88.772 Y171.216 E39.77219
G1 X87.894 Y171.004 E39.81425
G1 X87.039 Y170.715 E39.85628
G1 X86.212 Y170.352 E39.89833
G1 X85.42 Y169.917 E39.94041
G1 X84.67 Y169.413 E39.98248
G1 X83.968 Y168.846 E40.0245
G1 X83.319 Y168.218 E40.06655
G1 X82.727 Y167.536 E40.10861
G1 X82.198 Y166.804 E40.15066
