;FLAVOR:Marlin
M73 P0
M73 R51
;TIME:3078
;Filament used: 2.33814m
;Layer height: 0.2
;MINX:75.279
;MINY:85.279
;MINZ:0.2
;MAXX:159.72
;MAXY:149.665
;MAXZ:23.6
;POSTPROCESSED
;Generated with Cura_SteamEngine 5.0.0
M140 S50
M105
M190 S50
M104 S215
M105
M109 S215
M82 ;absolute extrusion mode
; Ender 3 Custom Start G-code
G92 E0 ; Reset Extruder
G28 ; Home all axes
G1 Z2.0 F3000 ; Move Z Axis up little to prevent scratching of Heat Bed
G1 X0.1 Y20 Z0.3 F5000.0 ; Move to start position
G1 X0.1 Y200.0 Z0.3 F1500.0 E15 ; Draw the first line
G1 X0.4 Y200.0 Z0.3 F5000.0 ; Move to side a little
G1 X0.4 Y20 Z0.3 F1500.0 E30 ; Draw the second line
G92 E0 ; Reset Extruder
G1 Z2.0 F3000 ; Move Z Axis up little to prevent scratching of Heat Bed
G1 X5 Y20 Z0.3 F5000.0 ; Move over to prevent blob squish
G92 E0
G92 E0
G1 F2700 E-5
;LAYER_COUNT:118
;LAYER:0
M107
G0 F6000 X89.127 Y96.233 Z0.2
G0 X83.073 Y103.059
;TYPE:SKIRT
G1 F2700 E0
G1 F1200 X83.35 Y102.673 E0.0158
G1 X84.166 Y101.588 E0.06096
G1 X84.445 Y101.233 E0.07597
G1 X85.27 Y100.225 E0.1193
G1 X85.593 Y99.848 E0.13581
G1 X86.54 Y98.792 E0.18299
G1 X86.878 Y98.431 E0.19943
G1 X87.828 Y97.463 E0.24454
G1 X88.157 Y97.142 E0.25983
G1 X89.127 Y96.233 E0.30405
G1 X89.491 Y95.907 E0.3203
G1 X90.54 Y95.008 E0.36625
G1 X90.916 Y94.7 E0.38242
G1 X92.009 Y93.844 E0.42859
G1 X92.392 Y93.557 E0.44451
G1 X93.512 Y92.756 E0.49031
G1 X93.9 Y92.49 E0.50595
G1 X94.976 Y91.788 E0.54868
G1 X95.371 Y91.542 E0.56416
G1 X96.55 Y90.842 E0.60977
G1 X97.087 Y90.544 E0.63019
G1 X98.818 Y89.643 E0.6951
G1 X99.924 Y89.11 E0.73593
G1 X100.329 Y88.927 E0.75071
G1 X101.576 Y88.396 E0.79579
G1 X102.007 Y88.223 E0.81124
G1 X103.478 Y87.674 E0.86346
G1 X104.091 Y87.465 E0.885
G1 X105.107 Y87.138 E0.9205
G1 X105.528 Y87.012 E0.93512
G1 X106.818 Y86.653 E0.97965
G1 X107.264 Y86.539 E0.99497
G1 X108.565 Y86.235 E1.0394
G1 X109.054 Y86.132 E1.05602
G1 X110.45 Y85.872 E1.10325
G1 X110.934 Y85.793 E1.11956
G1 X112.322 Y85.598 E1.16618
G1 X112.817 Y85.54 E1.18276
G1 X114.203 Y85.409 E1.22906
G1 X114.657 Y85.375 E1.24421
G1 X115.923 Y85.308 E1.28637
G1 X116.38 Y85.294 E1.30158
G1 X117.708 Y85.279 E1.34575
G1 X118.202 Y85.284 E1.36218
G1 X119.6 Y85.331 E1.40871
G1 X120.071 Y85.357 E1.4244
G1 X121.401 Y85.459 E1.46876
G1 X121.878 Y85.506 E1.4847
G1 X123.237 Y85.67 E1.53023
G1 X123.701 Y85.736 E1.54582
G1 X124.968 Y85.944 E1.58852
G1 X125.437 Y86.032 E1.6044
G1 X126.843 Y86.326 E1.65217
G1 X127.322 Y86.437 E1.66852
G1 X128.614 Y86.768 E1.71288
G1 X129.064 Y86.894 E1.72843
G1 X130.362 Y87.286 E1.77352
G1 X130.826 Y87.437 E1.78975
G1 X132.162 Y87.906 E1.83685
G1 X132.628 Y88.082 E1.85342
G1 X133.884 Y88.588 E1.89845
G1 X134.31 Y88.77 E1.91386
G1 X135.523 Y89.319 E1.95815
G1 X136.065 Y89.582 E1.97818
G1 X137.783 Y90.476 E2.0426
G1 X138.871 Y91.086 E2.08408
G1 X139.241 Y91.306 E2.0984
G1 X140.362 Y92.003 E2.1423
G1 X140.764 Y92.265 E2.15826
G1 X141.884 Y93.031 E2.20339
G1 X142.274 Y93.311 E2.21936
G1 X143.378 Y94.139 E2.26526
G1 X143.741 Y94.423 E2.28059
G1 X144.761 Y95.257 E2.32441
G1 X145.134 Y95.576 E2.34074
G1 X146.324 Y96.647 E2.39399
G1 X146.766 Y97.068 E2.41429
G1 X147.56 Y97.851 E2.45138
G1 X147.862 Y98.16 E2.46575
G1 X148.774 Y99.133 E2.5101
G1 X149.095 Y99.492 E2.52612
G1 X150.111 Y100.681 E2.57814
G1 X150.49 Y101.15 E2.5982
G1 X151.157 Y102.006 E2.63429
G1 X151.423 Y102.363 E2.6491
G1 X152.205 Y103.455 E2.69377
G1 X152.472 Y103.844 E2.70946
G1 X153.227 Y105 E2.75538
G1 X153.476 Y105.4 E2.77106
G1 X154.278 Y106.761 E2.8236
G1 X154.544 Y107.244 E2.84194
G1 X155.074 Y108.243 E2.87955
G1 X155.274 Y108.639 E2.89431
G1 X155.858 Y109.856 E2.9392
G1 X156.052 Y110.284 E2.95483
G1 X156.557 Y111.463 E2.99749
G1 X156.735 Y111.904 E3.01331
G1 X157.228 Y113.208 E3.05968
G1 X157.427 Y113.78 E3.07982
G1 X158.018 Y115.648 E3.14499
G1 X158.336 Y116.77 E3.18377
G1 X158.449 Y117.211 E3.19891
G1 X158.768 Y118.579 E3.24564
G1 X158.864 Y119.035 E3.26113
G1 X159.1 Y120.284 E3.30341
G1 X159.177 Y120.746 E3.31899
G1 X159.382 Y122.158 E3.36644
G1 X159.441 Y122.643 E3.38269
G1 X159.569 Y123.923 E3.42548
G1 X159.607 Y124.399 E3.44136
G1 X159.689 Y125.853 E3.4898
G1 X159.705 Y126.352 E3.5064
G1 X159.72 Y127.724 E3.55204
G1 X159.716 Y128.187 E3.56744
G1 X159.676 Y129.469 E3.6101
G1 X159.65 Y129.949 E3.62609
G1 X159.543 Y131.375 E3.67365
G1 X159.496 Y131.863 E3.68996
G1 X159.336 Y133.196 E3.73461
G1 X159.27 Y133.662 E3.75027
G1 X159.061 Y134.939 E3.7933
G1 X158.95 Y135.518 E3.81291
G1 X158.525 Y137.456 E3.8789
G1 X158.24 Y138.591 E3.91782
G1 X158.114 Y139.039 E3.9333
G1 X157.705 Y140.389 E3.98022
G1 X157.547 Y140.873 E3.99715
G1 X156.997 Y142.413 E4.05154
G1 X156.928 Y142.593 E4.05795
G1 X156.555 Y143.454 E4.08916
G1 X156.111 Y144.28 E4.12035
G1 X155.597 Y145.065 E4.15156
G1 X155.019 Y145.803 E4.18274
G1 X154.38 Y146.489 E4.21392
G1 X153.684 Y147.119 E4.24515
G1 X152.938 Y147.686 E4.27631
G1 X152.146 Y148.189 E4.30752
G1 X151.314 Y148.622 E4.33871
G1 X150.448 Y148.982 E4.3699
G1 X149.555 Y149.267 E4.40108
G1 X148.64 Y149.476 E4.4323
G1 X147.712 Y149.605 E4.46346
G1 X146.829 Y149.655 E4.49288
G1 X146.086 Y149.665 E4.51759
G1 X143.656 Y149.665 E4.59841
G1 X142.988 Y149.655 E4.62063
G1 X142.052 Y149.601 E4.65182
G1 X141.124 Y149.467 E4.683
G1 X140.531 Y149.339 E4.70318
G1 X139.509 Y149.087 E4.73819
G1 X138.668 Y148.868 E4.76709
G1 X136.163 Y148.293 E4.85258
G1 X133.757 Y147.811 E4.93419
G1 X131.226 Y147.379 E5.01959
G1 X128.764 Y147.028 E5.10231
G1 X126.285 Y146.748 E5.18528
G1 X123.751 Y146.533 E5.26987
G1 X121.235 Y146.392 E5.35368
G1 X118.711 Y146.321 E5.43766
G1 X116.188 Y146.321 E5.52158
G1 X113.702 Y146.392 E5.60429
G1 X111.17 Y146.537 E5.68865
G1 X108.682 Y146.748 E5.7717
G1 X106.164 Y147.036 E5.85599
G1 X103.681 Y147.39 E5.93941
G1 X101.206 Y147.815 E6.02293
G1 X98.693 Y148.32 E6.10819
G1 X96.284 Y148.874 E6.1904
G1 X94.57 Y149.312 E6.24924
G1 X93.653 Y149.505 E6.28041
G1 X92.722 Y149.62 E6.31161
G1 X92.032 Y149.653 E6.33459
G1 X91.261 Y149.665 E6.36023
G1 X88.855 Y149.665 E6.44026
G1 X88.195 Y149.656 E6.46221
G1 X87.259 Y149.603 E6.49339
G1 X86.33 Y149.471 E6.5246
G1 X85.416 Y149.26 E6.5558
G1 X84.524 Y148.972 E6.58698
G1 X83.659 Y148.609 E6.61818
G1 X82.828 Y148.174 E6.64937
G1 X82.038 Y147.669 E6.68056
G1 X81.293 Y147.099 E6.71176
G1 X80.599 Y146.468 E6.74296
G1 X79.962 Y145.779 E6.77417
G1 X79.386 Y145.039 E6.80536
G1 X78.875 Y144.253 E6.83654
G1 X78.433 Y143.426 E6.86773
G1 X78.143 Y142.771 E6.89155
G1 X77.907 Y142.158 E6.9134
G1 X77.437 Y140.821 E6.96053
G1 X77.128 Y139.859 E6.99414
G1 X77.006 Y139.454 E7.00821
G1 X76.67 Y138.251 E7.04975
G1 X76.526 Y137.673 E7.06956
G1 X76.095 Y135.729 E7.13579
G1 X76.009 Y135.302 E7.15028
G1 X75.85 Y134.421 E7.18005
G1 X75.784 Y134.009 E7.19393
G1 X75.608 Y132.766 E7.23569
G1 X75.551 Y132.292 E7.25157
G1 X75.417 Y130.918 E7.29748
G1 X75.381 Y130.447 E7.31319
G1 X75.308 Y129.105 E7.35789
G1 X75.292 Y128.612 E7.3743
G1 X75.279 Y127.233 E7.42017
G1 X75.285 Y126.753 E7.43613
G1 X75.332 Y125.377 E7.48193
G1 X75.358 Y124.914 E7.49735
G1 X75.456 Y123.633 E7.54008
G1 X75.503 Y123.152 E7.55616
G1 X75.675 Y121.729 E7.60383
G1 X75.745 Y121.243 E7.62016
G1 X75.969 Y119.897 E7.66554
G1 X76.058 Y119.429 E7.68139
G1 X76.342 Y118.085 E7.72708
G1 X76.449 Y117.626 E7.74275
G1 X76.765 Y116.394 E7.78506
G1 X76.894 Y115.934 E7.80095
G1 X77.315 Y114.546 E7.84919
G1 X77.469 Y114.076 E7.86564
G1 X77.914 Y112.816 E7.91008
G1 X78.082 Y112.371 E7.9259
G1 X78.698 Y110.853 E7.98039
G1 X78.929 Y110.327 E7.9995
G1 X79.395 Y109.315 E8.03655
G1 X79.583 Y108.927 E8.05089
G1 X80.306 Y107.517 E8.1036
G1 X80.569 Y107.039 E8.12174
G1 X81.144 Y106.033 E8.16028
G1 X81.369 Y105.658 E8.17483
G1 X82.071 Y104.536 E8.21885
G1 X82.328 Y104.144 E8.23444
G1 X83.073 Y103.059 E8.27821
G1 F2700 E3.27821
G0 F6000 X79.431 Y111.172
G1 F2700 E8.27821
G1 F1200 X79.656 Y110.662 E8.29675
G1 X80.122 Y109.65 E8.33381
G1 X80.296 Y109.29 E8.34711
G1 X81.008 Y107.9 E8.39905
G1 X81.263 Y107.436 E8.41666
G1 X81.838 Y106.43 E8.4552
G1 X82.047 Y106.082 E8.4687
G1 X82.749 Y104.96 E8.51272
G1 X82.987 Y104.596 E8.52719
G1 X83.732 Y103.511 E8.57096
G1 X83.989 Y103.154 E8.5856
G1 X84.805 Y102.069 E8.63075
G1 X85.064 Y101.74 E8.64468
G1 X85.889 Y100.732 E8.688
G1 X86.188 Y100.382 E8.70331
G1 X87.135 Y99.326 E8.75049
G1 X87.449 Y98.992 E8.76573
G1 X88.399 Y98.024 E8.81084
G1 X88.704 Y97.725 E8.82505
G1 X89.674 Y96.816 E8.86927
G1 X90.012 Y96.514 E8.88434
G1 X91.061 Y95.615 E8.93029
G1 X91.409 Y95.33 E8.94525
G1 X92.502 Y94.474 E8.99143
G1 X92.857 Y94.207 E9.0062
G1 X93.977 Y93.406 E9.052
G1 X94.338 Y93.16 E9.06653
G1 X95.414 Y92.458 E9.10926
G1 X95.78 Y92.23 E9.1236
G1 X96.959 Y91.53 E9.16921
G1 X97.457 Y91.253 E9.18816
G1 X99.188 Y90.352 E9.25306
G1 X100.267 Y89.832 E9.2929
G1 X100.643 Y89.663 E9.30661
G1 X101.89 Y89.132 E9.35169
G1 X102.289 Y88.972 E9.36599
G1 X103.739 Y88.43 E9.41748
G1 X104.336 Y88.227 E9.43845
G1 X105.352 Y87.9 E9.47395
G1 X105.742 Y87.782 E9.4875
G1 X107.032 Y87.423 E9.53204
G1 X107.446 Y87.318 E9.54624
G1 X108.747 Y87.014 E9.59068
G1 X109.2 Y86.918 E9.60608
G1 X110.596 Y86.658 E9.65331
G1 X111.045 Y86.585 E9.66844
G1 X112.433 Y86.39 E9.71506
G1 X112.892 Y86.336 E9.73043
G1 X114.278 Y86.205 E9.77673
G1 X114.699 Y86.174 E9.79077
G1 X115.965 Y86.107 E9.83294
G1 X116.389 Y86.094 E9.84705
G1 X117.717 Y86.079 E9.89122
G1 X118.175 Y86.084 E9.90646
G1 X119.573 Y86.131 E9.95298
G1 X120.01 Y86.155 E9.96754
G1 X121.34 Y86.257 E10.0119
G1 X121.782 Y86.3 E10.02667
G1 X123.141 Y86.464 E10.0722
G1 X123.571 Y86.526 E10.08665
G1 X124.838 Y86.734 E10.12936
G1 X125.274 Y86.815 E10.14411
G1 X126.68 Y87.109 E10.19188
G1 X127.123 Y87.212 E10.20701
G1 X128.415 Y87.543 E10.25137
G1 X128.833 Y87.66 E10.26581
G1 X130.131 Y88.052 E10.3109
G1 X130.561 Y88.192 E10.32594
G1 X131.897 Y88.661 E10.37304
G1 X132.33 Y88.824 E10.38843
G1 X133.586 Y89.33 E10.43346
G1 X133.98 Y89.498 E10.44771
G1 X135.193 Y90.047 E10.49199
G1 X135.695 Y90.292 E10.51057
G1 X137.413 Y91.186 E10.57499
G1 X137.747 Y91.367 E10.58762
G1 X138.475 Y91.781 E10.61548
G1 X138.819 Y91.986 E10.6288
G1 X139.94 Y92.683 E10.6727
G1 X140.312 Y92.926 E10.68748
G1 X141.432 Y93.692 E10.73261
G1 X141.794 Y93.951 E10.74741
G1 X142.898 Y94.779 E10.79331
G1 X143.234 Y95.043 E10.80752
G1 X144.254 Y95.877 E10.85135
G1 X144.6 Y96.172 E10.86647
G1 X145.775 Y97.229 E10.91904
G1 X146.204 Y97.637 E10.93873
G1 X146.998 Y98.42 E10.97582
G1 X147.278 Y98.708 E10.98918
G1 X148.19 Y99.681 E11.03353
G1 X148.488 Y100.013 E11.04837
G1 X149.491 Y101.186 E11.0997
G1 X149.859 Y101.642 E11.11919
G1 X150.526 Y102.498 E11.15529
G1 X150.773 Y102.828 E11.169
G1 X151.555 Y103.92 E11.21367
G1 X151.802 Y104.281 E11.22822
G1 X152.557 Y105.437 E11.27414
G1 X152.788 Y105.809 E11.2887
G1 X153.579 Y107.149 E11.34046
G1 X153.837 Y107.619 E11.35829
G1 X154.367 Y108.618 E11.3959
G1 X154.553 Y108.985 E11.40959
G1 X155.137 Y110.202 E11.45448
G1 X155.317 Y110.599 E11.46898
G1 X155.822 Y111.778 E11.51164
G1 X155.987 Y112.187 E11.52631
G1 X156.48 Y113.491 E11.57268
G1 X156.664 Y114.021 E11.59134
G1 X157.255 Y115.889 E11.6565
G1 X157.565 Y116.984 E11.69435
G1 X157.67 Y117.393 E11.7084
G1 X157.989 Y118.761 E11.75512
G1 X158.078 Y119.183 E11.76946
G1 X158.314 Y120.432 E11.81174
G1 X158.385 Y120.86 E11.82617
G1 X158.59 Y122.272 E11.87363
G1 X158.645 Y122.723 E11.88874
G1 X158.773 Y124.003 E11.93152
G1 X158.808 Y124.444 E11.94624
G1 X158.89 Y125.898 E11.99467
G1 X158.905 Y126.36 E12.01005
G1 X158.92 Y127.732 E12.05568
G1 X158.916 Y128.162 E12.06999
G1 X158.876 Y129.444 E12.11265
G1 X158.852 Y129.889 E12.12747
G1 X158.745 Y131.315 E12.17503
G1 X158.701 Y131.768 E12.19017
G1 X158.541 Y133.101 E12.23482
G1 X158.48 Y133.532 E12.2493
G1 X158.271 Y134.809 E12.29234
G1 X158.168 Y135.347 E12.31056
G1 X157.743 Y137.285 E12.37655
G1 X157.465 Y138.392 E12.41451
G1 X157.349 Y138.807 E12.42884
G1 X156.94 Y140.157 E12.47576
G1 X156.793 Y140.606 E12.49147
G1 X156.25 Y142.127 E12.54519
G1 X156.181 Y142.307 E12.5516
G1 X155.821 Y143.135 E12.58163
G1 X155.389 Y143.928 E12.61167
G1 X154.888 Y144.68 E12.64172
G1 X154.323 Y145.384 E12.67174
G1 X153.698 Y146.036 E12.70178
G1 X153.018 Y146.63 E12.73181
G1 X152.287 Y147.161 E12.76186
G1 X151.513 Y147.626 E12.7919
G1 X150.701 Y148.02 E12.82192
G1 X149.856 Y148.341 E12.85198
G1 X148.987 Y148.586 E12.88201
G1 X148.1 Y148.753 E12.91203
G1 X146.816 Y148.855 E12.95487
G1 X146.086 Y148.865 E12.97915
G1 X143.668 Y148.865 E13.05958
G1 X143 Y148.855 E13.0818
G1 X142.099 Y148.801 E13.11182
G1 X141.206 Y148.668 E13.14185
G1 X140.722 Y148.562 E13.15832
G1 X139.711 Y148.313 E13.19296
G1 X138.846 Y148.088 E13.22268
G1 X136.355 Y147.516 E13.30769
G1 X133.878 Y147.02 E13.39171
G1 X131.359 Y146.589 E13.47671
G1 X128.863 Y146.235 E13.56056
G1 X126.335 Y145.949 E13.64518
G1 X123.83 Y145.736 E13.72879
G1 X121.267 Y145.592 E13.81417
G1 X118.733 Y145.521 E13.89849
G1 X116.2 Y145.521 E13.98274
G1 X113.635 Y145.594 E14.06808
G1 X111.127 Y145.738 E14.15164
G1 X108.597 Y145.953 E14.23609
G1 X106.064 Y146.242 E14.32088
G1 X103.57 Y146.598 E14.40467
G1 X101.021 Y147.036 E14.4907
G1 X98.576 Y147.527 E14.57364
G1 X96.072 Y148.102 E14.65909
G1 X94.372 Y148.537 E14.71746
G1 X93.488 Y148.722 E14.7475
G1 X92.591 Y148.828 E14.77754
G1 X92.018 Y148.854 E14.79662
G1 X91.261 Y148.865 E14.8218
G1 X88.866 Y148.865 E14.90145
G1 X88.206 Y148.856 E14.92341
G1 X87.304 Y148.804 E14.95346
G1 X86.411 Y148.672 E14.98348
G1 X85.533 Y148.462 E15.01351
G1 X84.676 Y148.174 E15.04358
G1 X83.849 Y147.813 E15.07359
G1 X83.057 Y147.379 E15.10363
G1 X82.306 Y146.877 E15.13367
G1 X81.603 Y146.311 E15.16369
G1 X80.952 Y145.684 E15.19375
G1 X80.359 Y145.003 E15.22379
G1 X79.829 Y144.272 E15.25382
G1 X79.366 Y143.496 E15.28387
G1 X78.885 Y142.472 E15.3215
G1 X78.66 Y141.89 E15.34226
G1 X78.199 Y140.576 E15.38857
G1 X77.89 Y139.614 E15.42218
G1 X77.777 Y139.239 E15.4352
G1 X77.441 Y138.036 E15.47675
G1 X77.307 Y137.5 E15.49512
G1 X76.876 Y135.556 E15.56135
G1 X76.796 Y135.16 E15.57479
G1 X76.637 Y134.279 E15.60456
G1 X76.576 Y133.897 E15.61743
G1 X76.4 Y132.654 E15.65919
G1 X76.347 Y132.214 E15.67393
G1 X76.213 Y130.84 E15.71984
G1 X76.18 Y130.404 E15.73438
G1 X76.107 Y129.062 E15.77909
G1 X76.092 Y128.604 E15.79433
G1 X76.079 Y127.225 E15.84019
G1 X76.085 Y126.781 E15.85496
G1 X76.132 Y125.405 E15.90076
G1 X76.156 Y124.975 E15.91508
G1 X76.254 Y123.694 E15.95781
G1 X76.298 Y123.248 E15.97272
G1 X76.47 Y121.825 E16.02039
G1 X76.534 Y121.375 E16.03551
G1 X76.758 Y120.029 E16.08089
G1 X76.84 Y119.594 E16.09562
G1 X77.124 Y118.25 E16.1413
G1 X77.224 Y117.825 E16.15583
G1 X77.54 Y116.593 E16.19813
G1 X77.659 Y116.166 E16.21287
G1 X78.08 Y114.778 E16.26111
G1 X78.223 Y114.342 E16.27638
G1 X78.668 Y113.082 E16.32082
G1 X78.824 Y112.67 E16.33547
G1 X79.431 Y111.172 E16.38923
G1 F2700 E11.38923
G0 F6000 X76.364 Y119.963
G1 F2700 E16.38923
G1 F1200 X76.449 Y119.512 E16.4045
G1 X76.733 Y118.168 E16.45018
G1 X76.836 Y117.725 E16.46531
G1 X77.152 Y116.493 E16.50761
G1 X77.276 Y116.05 E16.52292
G1 X77.697 Y114.662 E16.57116
G1 X77.846 Y114.209 E16.58702
G1 X78.291 Y112.949 E16.63146
G1 X78.453 Y112.52 E16.64671
G1 X79.064 Y111.013 E16.7008
G1 X79.293 Y110.494 E16.71967
G1 X79.759 Y109.482 E16.75672
G1 X79.94 Y109.109 E16.77051
G1 X80.657 Y107.708 E16.82286
G1 X80.916 Y107.238 E16.84071
G1 X81.491 Y106.232 E16.87925
G1 X81.708 Y105.87 E16.89329
G1 X82.41 Y104.748 E16.93731
G1 X82.658 Y104.37 E16.95234
G1 X83.403 Y103.285 E16.99612
G1 X83.669 Y102.914 E17.0113
G1 X84.485 Y101.829 E17.05646
G1 X84.754 Y101.486 E17.07095
G1 X85.579 Y100.478 E17.11428
