;FLAVOR:Marlin
M73 P0
M73 R47
;TIME:2837
;Filament used: 2.07155m
;Layer height: 0.2
;MINX:73.912
;MINY:84.968
;MINZ:0.2
;MAXX:160.003
;MAXY:174.424
;MAXZ:23
;POSTPROCESSED
;Generated with Cura_SteamEngine 5.0.0
M140 S50
M105
M190 S50
M104 S215
M105
M109 S215
M82 ;absolute extrusion mode
; Ender 3 Custom Start G-code
G92 E0 ; Reset Extruder
G28 ; Home all axes
G1 Z2.0 F3000 ; Move Z Axis up little to prevent scratching of Heat Bed
G1 X0.1 Y20 Z0.3 F5000.0 ; Move to start position
G1 X0.1 Y200.0 Z0.3 F1500.0 E15 ; Draw the first line
G1 X0.4 Y200.0 Z0.3 F5000.0 ; Move to side a little
G1 X0.4 Y20 Z0.3 F1500.0 E30 ; Draw the second line
G92 E0 ; Reset Extruder
G1 Z2.0 F3000 ; Move Z Axis up little to prevent scratching of Heat Bed
G1 X5 Y20 Z0.3 F5000.0 ; Move over to prevent blob squish
G92 E0
G92 E0
G1 F2700 E-5
;LAYER_COUNT:115
;LAYER:0
M107
G0 F6000 X79.884 Y99.098 Z0.2
G0 X73.929 Y110.766
;TYPE:SKIRT
G1 F2700 E0
G1 F1200 X73.969 Y110.201 E0.01884
G1 X74.072 Y109.295 E0.04917
G1 X74.133 Y108.901 E0.06243
G1 X74.262 Y108.213 E0.08571
G1 X74.33 Y107.905 E0.0962
G1 X74.572 Y106.995 E0.12752
G1 X74.707 Y106.563 E0.14257
G1 X75.013 Y105.709 E0.17274
G1 X75.313 Y105.005 E0.1982
G1 X75.479 Y104.647 E0.21132
G1 X75.947 Y103.748 E0.24503
G1 X76.18 Y103.347 E0.26046
G1 X76.563 Y102.735 E0.28447
G1 X77.054 Y102.038 E0.31283
G1 X77.315 Y101.695 E0.32716
G1 X77.956 Y100.928 E0.36041
G1 X78.249 Y100.608 E0.37484
G1 X78.945 Y99.913 E0.40755
G1 X79.244 Y99.64 E0.42102
G1 X79.884 Y99.098 E0.44891
G1 X80.219 Y98.836 E0.46306
G1 X80.999 Y98.279 E0.49494
G1 X81.345 Y98.054 E0.50867
G1 X82.157 Y97.575 E0.54002
G1 X82.578 Y97.35 E0.5559
G1 X83.331 Y96.983 E0.58376
G1 X84.746 Y96.361 E0.63517
G1 X85.485 Y96.046 E0.66189
G1 X87.768 Y94.994 E0.74549
G1 X90.021 Y93.88 E0.82909
G1 X92.203 Y92.722 E0.91125
G1 X94.034 Y91.667 E0.98153
G1 X94.396 Y91.479 E0.9951
G1 X96.63 Y90.189 E1.0809
G1 X97.007 Y89.981 E1.09522
G1 X97.83 Y89.548 E1.12615
G1 X98.216 Y89.355 E1.14051
G1 X99.369 Y88.805 E1.183
G1 X99.794 Y88.613 E1.19851
G1 X101.024 Y88.089 E1.24298
G1 X101.463 Y87.913 E1.25871
G1 X102.734 Y87.435 E1.30387
G1 X103.174 Y87.28 E1.31939
G1 X104.735 Y86.773 E1.37398
G1 X105.324 Y86.602 E1.39437
G1 X106.286 Y86.338 E1.42755
G1 X106.689 Y86.236 E1.44138
G1 X107.996 Y85.93 E1.48603
G1 X108.474 Y85.829 E1.50228
G1 X109.864 Y85.568 E1.54932
G1 X110.332 Y85.49 E1.5651
G1 X111.615 Y85.306 E1.60821
G1 X112.107 Y85.247 E1.62469
G1 X113.56 Y85.105 E1.67324
G1 X114.038 Y85.069 E1.68919
G1 X115.337 Y84.999 E1.73246
G1 X115.799 Y84.984 E1.74783
G1 X117.153 Y84.968 E1.79287
G1 X117.654 Y84.973 E1.80953
G1 X119.048 Y85.02 E1.85592
G1 X119.507 Y85.045 E1.87121
G1 X120.816 Y85.144 E1.91487
G1 X121.298 Y85.192 E1.93098
G1 X122.655 Y85.355 E1.97644
G1 X123.133 Y85.423 E1.9925
G1 X124.497 Y85.648 E2.03848
G1 X124.969 Y85.736 E2.05445
G1 X126.306 Y86.017 E2.09989
G1 X126.783 Y86.128 E2.11618
G1 X128.16 Y86.482 E2.16347
G1 X128.612 Y86.609 E2.17908
G1 X130.097 Y87.064 E2.23074
G1 X130.676 Y87.26 E2.25107
G1 X131.665 Y87.613 E2.286
G1 X132.073 Y87.768 E2.30052
G1 X133.343 Y88.279 E2.34605
G1 X133.788 Y88.47 E2.36215
G1 X135.062 Y89.049 E2.4087
G1 X135.489 Y89.254 E2.42445
G1 X136.634 Y89.835 E2.46716
G1 X137.155 Y90.117 E2.48686
G1 X139.832 Y91.662 E2.58966
G1 X139.933 Y91.714 E2.59344
G1 X140.615 Y92.113 E2.61972
G1 X142.833 Y93.33 E2.70387
G1 X145.044 Y94.461 E2.78647
G1 X147.348 Y95.56 E2.87137
G1 X149.216 Y96.392 E2.93938
G1 X150.38 Y96.895 E2.98156
G1 X151.093 Y97.228 E3.00773
G1 X151.909 Y97.661 E3.03846
G1 X152.283 Y97.88 E3.05287
G1 X153.011 Y98.345 E3.0816
G1 X153.258 Y98.517 E3.09161
G1 X153.844 Y98.954 E3.11593
G1 X154.189 Y99.23 E3.13062
G1 X154.887 Y99.839 E3.16143
G1 X155.14 Y100.079 E3.17303
G1 X155.674 Y100.622 E3.19836
G1 X155.92 Y100.89 E3.21046
G1 X156.519 Y101.601 E3.24138
G1 X156.805 Y101.971 E3.25694
G1 X157.384 Y102.795 E3.29043
G1 X157.639 Y103.196 E3.30624
G1 X158.104 Y104.001 E3.33716
G1 X158.24 Y104.261 E3.34692
G1 X158.543 Y104.887 E3.37005
G1 X158.721 Y105.287 E3.38461
G1 X159.058 Y106.138 E3.41505
G1 X159.157 Y106.422 E3.42506
G1 X159.387 Y107.166 E3.45096
G1 X159.497 Y107.572 E3.46495
G1 X159.694 Y108.436 E3.49442
G1 X159.777 Y108.882 E3.50951
G1 X159.915 Y109.865 E3.54253
G1 X159.95 Y110.237 E3.55495
G1 X159.997 Y111.133 E3.5848
G1 X160.003 Y111.625 E3.60116
G1 X159.985 Y112.412 E3.62734
G1 X159.91 Y113.296 E3.65685
G1 X159.836 Y113.891 E3.67679
G1 X159.557 Y116.449 E3.76238
G1 X159.355 Y118.945 E3.84567
G1 X159.223 Y121.462 E3.9295
G1 X159.163 Y123.965 E4.01277
G1 X159.175 Y125.689 E4.07011
G1 X159.165 Y125.963 E4.07923
G1 X159.176 Y127.45 E4.12869
G1 X159.17 Y127.897 E4.14356
G1 X159.124 Y129.277 E4.18949
G1 X159.099 Y129.741 E4.20494
G1 X159 Y131.05 E4.2486
G1 X158.952 Y131.532 E4.26471
G1 X158.789 Y132.889 E4.31017
G1 X158.721 Y133.367 E4.32623
G1 X158.496 Y134.731 E4.37221
G1 X158.408 Y135.203 E4.38818
G1 X158.127 Y136.54 E4.43362
G1 X158.019 Y137.005 E4.4495
G1 X157.625 Y138.527 E4.50179
G1 X157.474 Y139.038 E4.51951
G1 X156.982 Y140.587 E4.57357
G1 X156.834 Y141.021 E4.58882
G1 X156.303 Y142.479 E4.64043
G1 X156.15 Y142.876 E4.65458
G1 X155.81 Y143.708 E4.68447
G1 X155.636 Y144.109 E4.69901
G1 X155.09 Y145.307 E4.7428
G1 X154.887 Y145.73 E4.7584
G1 X154.281 Y146.922 E4.80288
G1 X154.051 Y147.35 E4.81904
G1 X153.376 Y148.544 E4.86466
G1 X153.145 Y148.933 E4.87971
G1 X152.454 Y150.046 E4.92328
G1 X152.191 Y150.451 E4.93934
G1 X151.444 Y151.544 E4.98337
G1 X151.164 Y151.935 E4.99937
G1 X150.305 Y153.081 E5.047
G1 X149.993 Y153.477 E5.06377
G1 X149.081 Y154.584 E5.11148
G1 X148.777 Y154.938 E5.127
G1 X147.97 Y155.837 E5.16718
G1 X147.656 Y156.172 E5.18245
G1 X146.682 Y157.17 E5.22883
G1 X146.338 Y157.508 E5.24487
G1 X145.312 Y158.471 E5.29167
G1 X144.943 Y158.802 E5.30816
G1 X143.949 Y159.654 E5.3517
G1 X143.588 Y159.95 E5.36723
G1 X142.508 Y160.799 E5.41292
G1 X142.114 Y161.095 E5.42931
G1 X140.987 Y161.902 E5.47542
G1 X140.608 Y162.161 E5.49068
G1 X139.493 Y162.891 E5.53501
G1 X139.067 Y163.156 E5.5517
G1 X137.402 Y164.136 E5.61595
G1 X135.608 Y165.152 E5.68453
G1 X133.47 Y166.444 E5.76761
G1 X131.329 Y167.821 E5.85228
G1 X129.305 Y169.208 E5.93389
G1 X126.495 Y171.269 E6.04979
G1 X126.086 Y171.555 E6.06639
G1 X125.553 Y171.91 E6.08769
G1 X124.877 Y172.326 E6.11409
G1 X124.674 Y172.441 E6.12185
G1 X123.828 Y172.873 E6.15345
G1 X123.428 Y173.056 E6.16808
G1 X122.647 Y173.377 E6.19616
G1 X122.258 Y173.52 E6.20995
G1 X121.271 Y173.832 E6.24438
G1 X120.843 Y173.945 E6.2591
G1 X120.01 Y174.13 E6.28748
G1 X119.632 Y174.199 E6.30026
G1 X118.689 Y174.329 E6.33192
G1 X118.201 Y174.375 E6.34822
G1 X117.169 Y174.424 E6.38259
G1 X116.755 Y174.424 E6.39636
G1 X115.889 Y174.39 E6.42518
G1 X115.509 Y174.36 E6.43786
G1 X114.567 Y174.244 E6.46943
G1 X114.081 Y174.163 E6.48581
G1 X113.052 Y173.941 E6.52083
G1 X112.595 Y173.819 E6.53656
G1 X111.681 Y173.532 E6.56842
G1 X111.375 Y173.421 E6.57925
G1 X110.827 Y173.205 E6.59884
G1 X110.542 Y173.084 E6.60914
G1 X109.888 Y172.781 E6.63311
G1 X109.12 Y172.375 E6.662
G1 X108.821 Y172.203 E6.67348
G1 X108.046 Y171.713 E6.70397
G1 X107.402 Y171.261 E6.73014
G1 X105.181 Y169.62 E6.82199
G1 X103.111 Y168.18 E6.90586
G1 X101.005 Y166.801 E6.98959
G1 X98.871 Y165.49 E7.07289
G1 X97.088 Y164.466 E7.14127
G1 X96.928 Y164.365 E7.14757
G1 X95.58 Y163.599 E7.19913
G1 X95.207 Y163.377 E7.21357
G1 X93.884 Y162.55 E7.26546
G1 X93.368 Y162.206 E7.28609
G1 X92.486 Y161.596 E7.32176
G1 X92.15 Y161.354 E7.33553
G1 X91.099 Y160.567 E7.3792
G1 X90.717 Y160.267 E7.39536
G1 X89.683 Y159.419 E7.43983
G1 X89.326 Y159.114 E7.45545
G1 X88.324 Y158.218 E7.50016
G1 X87.977 Y157.894 E7.51595
G1 X86.978 Y156.92 E7.56235
G1 X86.637 Y156.572 E7.57856
G1 X85.673 Y155.545 E7.62541
G1 X85.341 Y155.175 E7.64194
G1 X84.49 Y154.182 E7.68544
G1 X84.198 Y153.827 E7.70073
G1 X83.348 Y152.747 E7.74644
G1 X83.046 Y152.344 E7.76319
G1 X82.239 Y151.216 E7.80932
G1 X81.971 Y150.824 E7.82511
G1 X81.21 Y149.657 E7.87145
G1 X80.945 Y149.23 E7.88817
G1 X80.215 Y147.99 E7.93602
G1 X79.99 Y147.589 E7.95132
G1 X79.421 Y146.523 E7.99151
G1 X79.212 Y146.111 E8.00687
G1 X78.604 Y144.847 E8.05352
G1 X78.4 Y144.397 E8.06996
G1 X77.866 Y143.146 E8.1152
G1 X77.642 Y142.579 E8.13548
G1 X76.977 Y140.746 E8.20033
G1 X76.61 Y139.635 E8.23925
G1 X76.479 Y139.2 E8.25436
G1 X76.116 Y137.901 E8.29922
G1 X75.999 Y137.444 E8.31491
G1 X75.695 Y136.143 E8.35934
G1 X75.596 Y135.675 E8.37525
G1 X75.336 Y134.294 E8.42199
G1 X75.257 Y133.821 E8.43794
G1 X75.072 Y132.531 E8.48129
G1 X75.014 Y132.049 E8.49743
G1 X74.875 Y130.64 E8.54452
G1 X74.838 Y130.156 E8.56067
G1 X74.765 Y128.811 E8.60547
G1 X74.75 Y128.345 E8.62098
G1 X74.733 Y126.811 E8.672
G1 X74.745 Y124.009 E8.7652
G1 X74.683 Y121.483 E8.84924
G1 X74.551 Y118.978 E8.93267
G1 X74.347 Y116.486 E9.01583
G1 X74.133 Y114.624 E9.07817
G1 X74.109 Y114.284 E9.08951
G1 X73.99 Y113.22 E9.12512
G1 X73.932 Y112.481 E9.14977
G1 X73.912 Y112.023 E9.16502
G1 X73.929 Y110.766 E9.20683
G0 F6000 X74.312 Y112.005
G1 F1200 X74.328 Y110.794 E9.24711
G1 X74.368 Y110.229 E9.26595
G1 X74.467 Y109.356 E9.29517
G1 X74.528 Y108.962 E9.30843
G1 X74.652 Y108.299 E9.33087
G1 X74.72 Y107.991 E9.34136
G1 X74.954 Y107.114 E9.37155
G1 X75.089 Y106.682 E9.3866
G1 X75.383 Y105.859 E9.41567
G1 X75.676 Y105.173 E9.44048
G1 X75.842 Y104.815 E9.4536
G1 X76.293 Y103.949 E9.48608
G1 X76.526 Y103.548 E9.5015
G1 X76.895 Y102.958 E9.52465
G1 X77.372 Y102.28 E9.55222
G1 X77.633 Y101.937 E9.56656
G1 X78.251 Y101.198 E9.5986
G1 X78.544 Y100.878 E9.61303
G1 X79.215 Y100.208 E9.64457
G1 X79.514 Y99.935 E9.65803
G1 X80.131 Y99.413 E9.68491
G1 X80.466 Y99.151 E9.69906
G1 X81.217 Y98.615 E9.72975
G1 X81.563 Y98.39 E9.74347
G1 X82.346 Y97.927 E9.77373
G1 X82.767 Y97.702 E9.78961
G1 X83.492 Y97.35 E9.81641
G1 X84.903 Y96.729 E9.86769
G1 X85.631 Y96.419 E9.894
G1 X87.948 Y95.351 E9.97886
G1 X90.193 Y94.241 E10.06216
G1 X92.401 Y93.069 E10.1453
G1 X94.234 Y92.013 E10.21566
G1 X94.604 Y91.821 E10.22952
G1 X96.83 Y90.536 E10.31501
G1 X97.193 Y90.335 E10.32881
G1 X98.016 Y89.902 E10.35974
G1 X98.388 Y89.716 E10.37358
G1 X99.541 Y89.166 E10.41606
G1 X99.951 Y88.981 E10.43102
G1 X101.181 Y88.457 E10.47549
G1 X101.604 Y88.287 E10.49065
G1 X102.875 Y87.809 E10.53582
G1 X103.298 Y87.66 E10.55074
G1 X104.848 Y87.157 E10.60494
G1 X105.43 Y86.988 E10.62509
G1 X106.392 Y86.724 E10.65827
G1 X106.781 Y86.625 E10.67162
G1 X108.088 Y86.319 E10.71627
G1 X108.548 Y86.222 E10.7319
G1 X109.938 Y85.961 E10.77894
G1 X110.389 Y85.886 E10.79415
G1 X111.672 Y85.702 E10.83726
G1 X112.146 Y85.645 E10.85314
G1 X113.599 Y85.503 E10.9017
G1 X114.06 Y85.468 E10.91707
G1 X115.359 Y85.398 E10.96034
G1 X115.804 Y85.384 E10.97515
G1 X117.158 Y85.368 E11.02019
G1 X117.64 Y85.373 E11.03622
G1 X119.034 Y85.42 E11.08261
G1 X119.476 Y85.444 E11.09733
G1 X120.785 Y85.543 E11.14099
G1 X121.25 Y85.589 E11.15654
G1 X122.607 Y85.752 E11.20199
G1 X123.068 Y85.817 E11.21748
G1 X124.432 Y86.042 E11.26346
G1 X124.887 Y86.128 E11.27886
G1 X126.224 Y86.409 E11.3243
G1 X126.683 Y86.516 E11.33998
G1 X128.06 Y86.87 E11.38726
G1 X128.496 Y86.992 E11.40232
G1 X129.97 Y87.443 E11.45359
G1 X130.541 Y87.637 E11.47365
G1 X131.53 Y87.99 E11.50858
G1 X131.924 Y88.139 E11.52259
G1 X133.194 Y88.65 E11.56812
G1 X133.623 Y88.834 E11.58364
G1 X134.897 Y89.413 E11.63019
G1 X135.308 Y89.61 E11.64535
G1 X136.453 Y90.191 E11.68805
G1 X136.955 Y90.464 E11.70706
G1 X139.577 Y91.977 E11.80774
G1 X139.731 Y92.059 E11.81355
G1 X140.443 Y92.475 E11.84097
G1 X142.623 Y93.671 E11.92368
G1 X144.897 Y94.835 E12.00864
G1 X147.144 Y95.906 E12.09143
G1 X149.13 Y96.791 E12.16375
G1 X150.583 Y97.427 E12.2165
G1 X150.92 Y97.588 E12.22892
G1 X151.707 Y98.006 E12.25856
G1 X152.081 Y98.225 E12.27298
G1 X152.782 Y98.673 E12.30065
G1 X153.029 Y98.845 E12.31066
G1 X153.594 Y99.267 E12.33411
G1 X153.939 Y99.543 E12.34881
G1 X154.612 Y100.13 E12.37851
G1 X154.865 Y100.37 E12.39011
G1 X155.379 Y100.892 E12.41448
G1 X155.625 Y101.16 E12.42658
G1 X156.203 Y101.845 E12.45639
G1 X156.489 Y102.215 E12.47194
G1 X157.047 Y103.01 E12.50424
G1 X157.302 Y103.411 E12.52005
G1 X157.75 Y104.186 E12.54982
G1 X157.886 Y104.446 E12.55958
G1 X158.177 Y105.049 E12.58185
G1 X158.355 Y105.449 E12.59641
G1 X158.68 Y106.27 E12.62578
G1 X158.779 Y106.554 E12.63579
G1 X159.001 Y107.271 E12.66075
G1 X159.111 Y107.677 E12.67474
G1 X159.301 Y108.51 E12.70316
G1 X159.384 Y108.956 E12.71825
G1 X159.516 Y109.902 E12.75002
G1 X159.551 Y110.274 E12.76244
G1 X159.597 Y111.138 E12.79122
G1 X159.603 Y111.63 E12.80759
G1 X159.585 Y112.388 E12.8328
G1 X159.513 Y113.247 E12.86147
G1 X159.433 Y113.893 E12.88312
G1 X159.159 Y116.406 E12.9672
G1 X158.955 Y118.927 E13.05133
G1 X158.824 Y121.431 E13.13472
G1 X158.763 Y123.958 E13.2188
G1 X158.775 Y125.692 E13.27647
G1 X158.765 Y125.962 E13.28546
G1 X158.776 Y127.453 E13.33505
G1 X158.77 Y127.884 E13.34939
G1 X158.724 Y129.264 E13.39531
G1 X158.7 Y129.71 E13.41017
G1 X158.601 Y131.019 E13.45383
G1 X158.555 Y131.484 E13.46937
G1 X158.392 Y132.841 E13.51483
G1 X158.327 Y133.302 E13.53031
G1 X158.102 Y134.666 E13.57629
G1 X158.016 Y135.121 E13.59169
G1 X157.735 Y136.458 E13.63713
G1 X157.631 Y136.906 E13.65243
G1 X157.24 Y138.417 E13.70434
G1 X157.093 Y138.917 E13.72168
G1 X156.601 Y140.466 E13.77573
G1 X156.458 Y140.884 E13.79043
G1 X155.927 Y142.342 E13.84203
G1 X155.779 Y142.725 E13.85569
G1 X155.439 Y143.557 E13.88559
G1 X155.272 Y143.943 E13.89957
G1 X154.726 Y145.141 E13.94336
G1 X154.53 Y145.549 E13.95842
G1 X153.924 Y146.741 E14.00289
G1 X153.703 Y147.154 E14.01847
G1 X153.028 Y148.348 E14.06409
G1 X152.806 Y148.722 E14.07856
G1 X152.115 Y149.835 E14.12213
G1 X151.86 Y150.225 E14.13763
G1 X151.113 Y151.318 E14.18166
G1 X150.844 Y151.695 E14.19706
G1 X149.985 Y152.841 E14.2447
G1 X149.684 Y153.223 E14.26087
G1 X148.772 Y154.33 E14.30858
G1 X148.479 Y154.671 E14.32353
G1 X147.672 Y155.57 E14.36371
G1 X147.37 Y155.893 E14.37842
G1 X146.396 Y156.891 E14.4248
G1 X146.064 Y157.216 E14.44026
G1 X145.038 Y158.179 E14.48706
G1 X144.682 Y158.498 E14.50296
G1 X143.688 Y159.35 E14.5465
G1 X143.341 Y159.635 E14.56143
G1 X142.261 Y160.484 E14.60713
G1 X141.881 Y160.769 E14.62292
G1 X140.754 Y161.576 E14.66903
G1 X140.389 Y161.826 E14.68374
G1 X139.274 Y162.556 E14.72807
G1 X138.863 Y162.812 E14.74417
G1 X137.436 Y163.653 E14.79926
G1 X135.425 Y164.796 E14.8762
G1 X133.252 Y166.109 E14.96064
G1 X131.108 Y167.488 E15.04543
G1 X129.077 Y168.879 E15.1273
G1 X126.258 Y170.947 E15.24359
G1 X125.864 Y171.222 E15.25957
G1 X125.331 Y171.577 E15.28087
G1 X124.68 Y171.978 E15.3063
G1 X124.477 Y172.093 E15.31406
G1 X123.662 Y172.509 E15.34449
G1 X123.262 Y172.692 E15.35912
G1 X122.509 Y173.002 E15.38621
G1 X122.12 Y173.145 E15.39999
G1 X121.169 Y173.445 E15.43316
G1 X120.741 Y173.558 E15.44788
G1 X119.938 Y173.737 E15.47525
G1 X119.56 Y173.806 E15.48803
G1 X118.652 Y173.931 E15.51851
G1 X118.164 Y173.977 E15.53481
G1 X117.169 Y174.024 E15.56795
G1 X116.755 Y174.024 E15.58172
G1 X115.921 Y173.991 E15.60948
G1 X115.541 Y173.961 E15.62215
G1 X114.632 Y173.85 E15.65261
G1 X114.146 Y173.769 E15.669
G1 X113.155 Y173.554 E15.70273
G1 X112.698 Y173.432 E15.71846
G1 X111.817 Y173.156 E15.74917
G1 X111.511 Y173.045 E15.75999
G1 X110.984 Y172.837 E15.77884
G1 X110.699 Y172.716 E15.78913
G1 X110.068 Y172.424 E15.81226
G1 X109.832 Y172.305 E15.82105
G1 X109.319 Y172.028 E15.84044
G1 X109.02 Y171.856 E15.85191
G1 X108.274 Y171.384 E15.88128
G1 X107.64 Y170.939 E15.90704
G1 X105.418 Y169.297 E15.99893
G1 X103.336 Y167.849 E16.08328
