;FLAVOR:Marlin
;TIME:1573
;Filament used: 0.965567m
;Layer height: 0.2
;MINX:96.482
;MINY:96.482
;MINZ:0.2
;MAXX:138.519
;MAXY:138.518
;MAXZ:19
;Generated with Cura_SteamEngine 4.9.1
M140 S50
M105
M190 S50
M104 S215
M105
M109 S215
M82 ;absolute extrusion mode
; Ender 3 Custom Start G-code
G92 E0 ; Reset Extruder
G28 ; Home all axes
G1 Z2.0 F3000 ; Move Z Axis up little to prevent scratching of Heat Bed
G1 X0.1 Y20 Z0.3 F5000.0 ; Move to start position
G1 X0.1 Y200.0 Z0.3 F1500.0 E15 ; Draw the first line
G1 X0.4 Y200.0 Z0.3 F5000.0 ; Move to side a little
G1 X0.4 Y20 Z0.3 F1500.0 E30 ; Draw the second line
G92 E0 ; Reset Extruder
G1 Z2.0 F3000 ; Move Z Axis up little to prevent scratching of Heat Bed
G1 X5 Y20 Z0.3 F5000.0 ; Move over to prevent blob squish
G92 E0
G92 E0
G1 F2700 E-5
;LAYER_COUNT:95
;LAYER:0
M107
G0 F6000 X102.951 Y102.341 Z0.2
;TYPE:SKIRT
G1 F2700 E0
G1 F1200 X103.682 Y101.671 E0.03298
G1 X104.317 Y101.139 E0.06053
G1 X105.048 Y100.577 E0.0912
G1 X105.788 Y100.056 E0.1213
G1 X106.632 Y99.517 E0.15461
G1 X107.391 Y99.08 E0.18374
G1 X108.225 Y98.647 E0.21499
G1 X109.03 Y98.271 E0.24455
G1 X109.431 Y98.093 E0.25914
G1 X109.524 Y98.054 E0.26249
G1 X109.925 Y97.895 E0.27684
G1 X110.179 Y97.8 E0.28586
G1 X110.73 Y97.61 E0.30524
G1 X111.677 Y97.312 E0.33826
G1 X112.112 Y97.185 E0.35334
G1 X112.55 Y97.074 E0.36836
G1 X112.83 Y97.009 E0.37793
G1 X113.396 Y96.893 E0.39714
G1 X114.236 Y96.744 E0.42552
G1 X115.196 Y96.617 E0.45772
G1 X116.188 Y96.53 E0.49084
G1 X116.689 Y96.497 E0.50754
G1 X117.106 Y96.486 E0.52142
G1 X117.522 Y96.482 E0.53526
G1 X118.051 Y96.489 E0.55285
G1 X118.493 Y96.506 E0.56756
G1 X118.964 Y96.534 E0.58326
G1 X119.283 Y96.56 E0.5939
G1 X119.8 Y96.615 E0.61119
G1 X120.627 Y96.722 E0.63893
G1 X121.024 Y96.781 E0.65228
G1 X121.168 Y96.805 E0.65713
G1 X121.65 Y96.896 E0.67345
G1 X122.087 Y96.989 E0.68831
G1 X122.611 Y97.114 E0.70623
G1 X122.868 Y97.182 E0.71507
G1 X123.352 Y97.322 E0.73183
G1 X124.278 Y97.613 E0.76411
G1 X124.694 Y97.753 E0.77871
G1 X124.786 Y97.786 E0.78196
G1 X125.202 Y97.945 E0.79677
G1 X125.592 Y98.103 E0.81077
G1 X126.055 Y98.303 E0.82754
G1 X126.462 Y98.49 E0.84244
G1 X126.838 Y98.671 E0.85632
G1 X127.077 Y98.792 E0.86523
G1 X127.591 Y99.07 E0.88467
G1 X128.365 Y99.515 E0.91436
G1 X128.724 Y99.73 E0.92828
G1 X129.235 Y100.062 E0.94855
G1 X129.452 Y100.212 E0.95732
G1 X129.891 Y100.532 E0.97539
G1 X130.629 Y101.098 E1.00632
G1 X131.363 Y101.714 E1.03819
G1 X131.849 Y102.159 E1.06011
G1 X132.183 Y102.477 E1.07545
G1 X132.659 Y102.951 E1.09779
G1 X133.329 Y103.682 E1.13077
G1 X133.861 Y104.317 E1.15832
G1 X134.421 Y105.045 E1.18887
G1 X134.941 Y105.783 E1.2189
G1 X135.483 Y106.632 E1.2524
G1 X135.921 Y107.393 E1.28161
G1 X136.352 Y108.222 E1.31268
G1 X136.718 Y109.005 E1.34143
G1 X136.873 Y109.351 E1.35404
G1 X136.922 Y109.466 E1.3582
G1 X137.095 Y109.898 E1.37367
G1 X137.19 Y110.15 E1.38263
G1 X137.391 Y110.731 E1.40308
G1 X137.689 Y111.679 E1.43613
G1 X137.815 Y112.111 E1.4511
G1 X137.928 Y112.557 E1.4664
G1 X137.993 Y112.838 E1.47599
G1 X138.107 Y113.394 E1.49487
G1 X138.256 Y114.233 E1.52321
G1 X138.383 Y115.196 E1.55552
G1 X138.47 Y116.189 E1.58867
G1 X138.502 Y116.67 E1.60471
G1 X138.515 Y117.107 E1.61925
G1 X138.519 Y117.533 E1.63342
G1 X138.512 Y118.032 E1.65002
G1 X138.497 Y118.448 E1.66386
G1 X138.468 Y118.937 E1.68015
G1 X138.442 Y119.259 E1.6909
G1 X138.387 Y119.788 E1.70859
G1 X138.278 Y120.629 E1.73679
G1 X138.223 Y120.999 E1.74924
G1 X138.199 Y121.145 E1.75416
G1 X138.104 Y121.649 E1.77122
G1 X138.013 Y122.077 E1.78577
G1 X137.899 Y122.561 E1.80231
G1 X137.83 Y122.826 E1.81142
G1 X137.675 Y123.365 E1.83007
G1 X137.383 Y124.29 E1.86233
G1 X137.239 Y124.717 E1.87732
G1 X137.055 Y125.203 E1.8946
G1 X136.897 Y125.593 E1.9086
G1 X136.702 Y126.045 E1.92497
G1 X136.516 Y126.451 E1.93983
G1 X136.322 Y126.854 E1.9547
G1 X136.201 Y127.092 E1.96358
G1 X135.929 Y127.594 E1.98257
G1 X135.487 Y128.362 E2.01204
G1 X135.298 Y128.678 E2.02429
G1 X134.936 Y129.238 E2.04647
G1 X134.781 Y129.462 E2.05553
G1 X134.463 Y129.898 E2.07348
G1 X133.903 Y130.628 E2.10408
G1 X133.286 Y131.363 E2.136
G1 X132.839 Y131.851 E2.15801
G1 X132.514 Y132.191 E2.17365
G1 X132.04 Y132.666 E2.19597
G1 X131.326 Y133.321 E2.2282
G1 X130.691 Y133.854 E2.25577
G1 X129.952 Y134.423 E2.28679
G1 X129.212 Y134.944 E2.31689
G1 X128.368 Y135.483 E2.3502
G1 X127.609 Y135.92 E2.37933
G1 X126.777 Y136.353 E2.41053
G1 X125.983 Y136.724 E2.43967
G1 X125.612 Y136.889 E2.45318
G1 X125.508 Y136.933 E2.45694
G1 X125.075 Y137.105 E2.47243
G1 X124.821 Y137.2 E2.48145
G1 X124.27 Y137.39 E2.50084
G1 X123.323 Y137.688 E2.53386
G1 X122.888 Y137.815 E2.54893
G1 X122.45 Y137.926 E2.56396
G1 X122.17 Y137.991 E2.57352
G1 X121.604 Y138.107 E2.59273
G1 X120.764 Y138.256 E2.62111
G1 X119.804 Y138.383 E2.65332
G1 X118.812 Y138.47 E2.68644
G1 X118.311 Y138.503 E2.70314
G1 X117.894 Y138.514 E2.71701
G1 X117.478 Y138.518 E2.73085
G1 X116.948 Y138.511 E2.74848
G1 X116.507 Y138.494 E2.76316
G1 X116.043 Y138.466 E2.77862
G1 X115.722 Y138.44 E2.78933
G1 X115.195 Y138.385 E2.80695
G1 X114.37 Y138.278 E2.83462
G1 X114.001 Y138.223 E2.84703
G1 X113.855 Y138.199 E2.85195
G1 X113.349 Y138.104 E2.86907
G1 X112.912 Y138.011 E2.88393
G1 X112.407 Y137.891 E2.9012
G1 X112.152 Y137.824 E2.90997
G1 X111.639 Y137.676 E2.92773
G1 X110.713 Y137.384 E2.96002
G1 X110.283 Y137.239 E2.97511
G1 X109.797 Y137.055 E2.9924
G1 X109.402 Y136.895 E3.00657
G1 X108.945 Y136.698 E3.02312
G1 X108.544 Y136.514 E3.0378
G1 X108.146 Y136.322 E3.0525
G1 X107.906 Y136.2 E3.06145
G1 X107.402 Y135.927 E3.08051
G1 X106.624 Y135.479 E3.11037
G1 X106.272 Y135.268 E3.12402
G1 X105.755 Y134.93 E3.14457
G1 X105.527 Y134.772 E3.15379
G1 X105.096 Y134.458 E3.17153
G1 X104.37 Y133.901 E3.20197
G1 X103.637 Y133.286 E3.23379
G1 X103.15 Y132.84 E3.25575
G1 X102.817 Y132.523 E3.27105
G1 X102.341 Y132.049 E3.29339
G1 X101.672 Y131.319 E3.32632
G1 X101.139 Y130.683 E3.35392
G1 X100.574 Y129.948 E3.38476
G1 X100.054 Y129.209 E3.41481
G1 X99.516 Y128.365 E3.4481
G1 X99.077 Y127.602 E3.47738
G1 X98.643 Y126.768 E3.50865
G1 X98.271 Y125.971 E3.5379
G1 X98.107 Y125.602 E3.55133
G1 X98.066 Y125.505 E3.55483
G1 X97.895 Y125.075 E3.57023
G1 X97.8 Y124.821 E3.57925
G1 X97.61 Y124.27 E3.59863
G1 X97.312 Y123.323 E3.63165
G1 X97.185 Y122.888 E3.64672
G1 X97.074 Y122.45 E3.66175
G1 X97.009 Y122.17 E3.67131
G1 X96.893 Y121.604 E3.69053
G1 X96.744 Y120.764 E3.7189
G1 X96.617 Y119.804 E3.75111
G1 X96.53 Y118.812 E3.78423
G1 X96.498 Y118.33 E3.8003
G1 X96.486 Y117.895 E3.81477
G1 X96.482 Y117.477 E3.82868
G1 X96.489 Y116.948 E3.84627
G1 X96.506 Y116.507 E3.86095
G1 X96.534 Y116.043 E3.87641
G1 X96.56 Y115.722 E3.88712
G1 X96.615 Y115.196 E3.90471
G1 X96.723 Y114.363 E3.93265
G1 X96.78 Y113.981 E3.9455
G1 X96.803 Y113.842 E3.95018
G1 X96.897 Y113.343 E3.96707
G1 X96.99 Y112.907 E3.9819
G1 X97.103 Y112.43 E3.9982
G1 X97.172 Y112.165 E4.00731
G1 X97.33 Y111.617 E4.02628
G1 X97.62 Y110.701 E4.05824
G1 X97.761 Y110.283 E4.07291
G1 X97.945 Y109.797 E4.09019
G1 X98.103 Y109.407 E4.10419
G1 X98.298 Y108.955 E4.12056
G1 X98.484 Y108.549 E4.13541
G1 X98.678 Y108.146 E4.15029
G1 X98.799 Y107.908 E4.15917
G1 X99.072 Y107.405 E4.17821
G1 X99.521 Y106.625 E4.20814
G1 X99.714 Y106.302 E4.22065
G1 X100.064 Y105.762 E4.24206
G1 X100.219 Y105.538 E4.25112
G1 X100.54 Y105.098 E4.26923
G1 X101.102 Y104.366 E4.29993
G1 X101.715 Y103.636 E4.33163
G1 X102.161 Y103.149 E4.3536
G1 X102.478 Y102.816 E4.36889
G1 X102.951 Y102.341 E4.39118
G0 F6000 X103.235 Y102.623
G1 F1200 X103.939 Y101.978 E4.42294
G1 X104.574 Y101.446 E4.45049
G1 X105.279 Y100.904 E4.48007
G1 X106.019 Y100.383 E4.51017
G1 X106.832 Y99.864 E4.54225
G1 X107.591 Y99.427 E4.57138
G1 X108.394 Y99.009 E4.60149
G1 X109.199 Y98.633 E4.63104
G1 X109.586 Y98.462 E4.64511
G1 X109.679 Y98.423 E4.64847
G1 X110.065 Y98.27 E4.66228
G1 X110.319 Y98.175 E4.6713
G1 X110.85 Y97.992 E4.68998
G1 X111.797 Y97.694 E4.723
G1 X112.218 Y97.571 E4.73759
G1 X112.64 Y97.464 E4.75207
G1 X112.92 Y97.399 E4.76163
G1 X113.466 Y97.287 E4.78016
G1 X114.306 Y97.138 E4.80854
G1 X115.231 Y97.016 E4.83957
G1 X116.223 Y96.929 E4.87269
G1 X116.708 Y96.897 E4.88886
G1 X117.11 Y96.885 E4.90223
G1 X117.526 Y96.881 E4.91607
G1 X118.035 Y96.889 E4.933
G1 X118.477 Y96.906 E4.94771
G1 X118.931 Y96.933 E4.96284
G1 X119.25 Y96.959 E4.97349
G1 X119.749 Y97.012 E4.99018
G1 X120.576 Y97.119 E5.01791
G1 X120.959 Y97.175 E5.03079
G1 X121.103 Y97.199 E5.03564
G1 X121.566 Y97.287 E5.05132
G1 X122.003 Y97.38 E5.06618
G1 X122.508 Y97.501 E5.08345
G1 X122.765 Y97.569 E5.09229
G1 X123.232 Y97.704 E5.10846
G1 X124.158 Y97.995 E5.14074
G1 X124.559 Y98.129 E5.15481
G1 X124.651 Y98.162 E5.15806
G1 X125.052 Y98.316 E5.17234
G1 X125.442 Y98.474 E5.18634
G1 X125.888 Y98.666 E5.20249
G1 X126.295 Y98.853 E5.21739
G1 X126.657 Y99.028 E5.23076
G1 X126.896 Y99.149 E5.23967
G1 X127.391 Y99.417 E5.25839
G1 X128.165 Y99.862 E5.28809
G1 X128.515 Y100.071 E5.30165
G1 X129.007 Y100.391 E5.32117
G1 X129.224 Y100.541 E5.32994
G1 X129.648 Y100.85 E5.34739
G1 X130.386 Y101.416 E5.37832
G1 X131.093 Y102.009 E5.40901
G1 X131.579 Y102.454 E5.43093
G1 X131.901 Y102.761 E5.44573
G1 X132.377 Y103.235 E5.46807
G1 X133.022 Y103.939 E5.49983
G1 X133.554 Y104.574 E5.52738
G1 X134.094 Y105.276 E5.55684
G1 X134.614 Y106.014 E5.58687
G1 X135.136 Y106.831 E5.61911
G1 X135.574 Y107.592 E5.64832
G1 X135.99 Y108.391 E5.67828
G1 X136.356 Y109.174 E5.70702
G1 X136.505 Y109.508 E5.71919
G1 X136.554 Y109.623 E5.72335
G1 X136.721 Y110.039 E5.73826
G1 X136.816 Y110.291 E5.74721
G1 X137.009 Y110.851 E5.76691
G1 X137.307 Y111.799 E5.79997
G1 X137.429 Y112.217 E5.81445
G1 X137.538 Y112.647 E5.8292
G1 X137.603 Y112.928 E5.8388
G1 X137.713 Y113.464 E5.85699
G1 X137.862 Y114.303 E5.88534
G1 X137.985 Y115.231 E5.91647
G1 X138.072 Y116.224 E5.94963
G1 X138.102 Y116.689 E5.96512
G1 X138.115 Y117.11 E5.97913
G1 X138.119 Y117.536 E5.9933
G1 X138.112 Y118.018 E6.00934
G1 X138.097 Y118.434 E6.02318
G1 X138.07 Y118.905 E6.03887
G1 X138.044 Y119.227 E6.04962
G1 X137.99 Y119.736 E6.06664
G1 X137.881 Y120.577 E6.09485
G1 X137.829 Y120.934 E6.10685
G1 X137.805 Y121.08 E6.11177
G1 X137.713 Y121.565 E6.12819
G1 X137.622 Y121.993 E6.14274
G1 X137.512 Y122.46 E6.1587
G1 X137.443 Y122.725 E6.1678
G1 X137.293 Y123.245 E6.1858
G1 X137.001 Y124.17 E6.21807
G1 X136.862 Y124.584 E6.23259
G1 X136.684 Y125.053 E6.24928
G1 X136.526 Y125.443 E6.26327
G1 X136.339 Y125.878 E6.27902
G1 X136.153 Y126.284 E6.29387
G1 X135.965 Y126.673 E6.30824
G1 X135.844 Y126.911 E6.31712
G1 X135.582 Y127.394 E6.3354
G1 X135.14 Y128.162 E6.36487
G1 X134.956 Y128.471 E6.37683
G1 X134.607 Y129.011 E6.39822
G1 X134.452 Y129.235 E6.40728
G1 X134.145 Y129.655 E6.42458
G1 X133.585 Y130.385 E6.45518
G1 X132.991 Y131.093 E6.48592
G1 X132.544 Y131.581 E6.50793
G1 X132.231 Y131.908 E6.52299
G1 X131.757 Y132.383 E6.54531
G1 X131.069 Y133.015 E6.57638
G1 X130.434 Y133.548 E6.60395
G1 X129.721 Y134.096 E6.63386
G1 X128.981 Y134.617 E6.66396
G1 X128.168 Y135.136 E6.69604
G1 X127.409 Y135.573 E6.72517
G1 X126.607 Y135.99 E6.75524
G1 X125.813 Y136.361 E6.78439
G1 X125.456 Y136.52 E6.79739
G1 X125.352 Y136.564 E6.80114
G1 X124.935 Y136.73 E6.81607
G1 X124.681 Y136.825 E6.82509
G1 X124.15 Y137.008 E6.84377
G1 X123.203 Y137.306 E6.87679
G1 X122.782 Y137.429 E6.89138
G1 X122.36 Y137.536 E6.90586
G1 X122.08 Y137.601 E6.91542
G1 X121.534 Y137.713 E6.93396
G1 X120.694 Y137.862 E6.96233
G1 X119.769 Y137.984 E6.99336
G1 X118.777 Y138.071 E7.02648
G1 X118.292 Y138.103 E7.04265
G1 X117.89 Y138.115 E7.05603
G1 X117.474 Y138.119 E7.06986
G1 X116.964 Y138.111 E7.08683
G1 X116.523 Y138.094 E7.10151
G1 X116.075 Y138.067 E7.11643
G1 X115.754 Y138.041 E7.12715
G1 X115.247 Y137.988 E7.1441
G1 X114.422 Y137.881 E7.17177
G1 X114.066 Y137.829 E7.18374
G1 X113.92 Y137.805 E7.18866
G1 X113.433 Y137.713 E7.20514
G1 X112.996 Y137.62 E7.22
G1 X112.508 Y137.504 E7.23669
G1 X112.253 Y137.437 E7.24545
G1 X111.759 Y137.294 E7.26256
G1 X110.833 Y137.002 E7.29485
G1 X110.416 Y136.862 E7.30948
G1 X109.947 Y136.685 E7.32616
G1 X109.552 Y136.525 E7.34033
G1 X109.111 Y136.334 E7.35632
G1 X108.71 Y136.15 E7.37099
G1 X108.328 Y135.965 E7.38511
G1 X108.088 Y135.843 E7.39406
G1 X107.601 Y135.58 E7.41247
G1 X106.823 Y135.132 E7.44233
G1 X106.481 Y134.927 E7.45559
G1 X105.982 Y134.601 E7.47542
G1 X105.754 Y134.443 E7.48464
G1 X105.34 Y134.141 E7.50169
G1 X104.614 Y133.584 E7.53212
G1 X103.907 Y132.991 E7.56281
G1 X103.42 Y132.545 E7.58478
G1 X103.099 Y132.239 E7.59953
G1 X102.623 Y131.765 E7.62187
G1 X101.979 Y131.063 E7.65356
G1 X101.446 Y130.427 E7.68115
G1 X100.901 Y129.718 E7.7109
G1 X100.381 Y128.979 E7.74095
G1 X99.862 Y128.165 E7.77306
G1 X99.423 Y127.402 E7.80234
G1 X99.006 Y126.599 E7.83243
G1 X98.634 Y125.802 E7.86169
G1 X98.475 Y125.446 E7.87466
G1 X98.434 Y125.349 E7.87816
G1 X98.27 Y124.935 E7.89297
G1 X98.175 Y124.681 E7.90199
G1 X97.992 Y124.15 E7.92067
G1 X97.694 Y123.203 E7.95369
G1 X97.571 Y122.782 E7.96828
G1 X97.464 Y122.36 E7.98276
G1 X97.399 Y122.08 E7.99232
G1 X97.287 Y121.534 E8.01086
G1 X97.138 Y120.694 E8.03923
G1 X97.016 Y119.769 E8.07026
G1 X96.929 Y118.777 E8.10338
G1 X96.898 Y118.311 E8.11892
G1 X96.885 Y117.891 E8.13289
G1 X96.881 Y117.473 E8.1468
G1 X96.889 Y116.964 E8.16373
G1 X96.906 Y116.523 E8.17841
G1 X96.933 Y116.075 E8.19333
G1 X96.959 Y115.754 E8.20404
G1 X97.012 Y115.247 E8.221
G1 X97.12 Y114.414 E8.24894
G1 X97.174 Y114.047 E8.26127
G1 X97.197 Y113.908 E8.26596
G1 X97.288 Y113.427 E8.28224
G1 X97.381 Y112.991 E8.29707
G1 X97.49 Y112.531 E8.31279
G1 X97.559 Y112.266 E8.3219
G1 X97.711 Y111.738 E8.34018
G1 X98.001 Y110.822 E8.37213
G1 X98.138 Y110.416 E8.38638
G1 X98.316 Y109.947 E8.40307
G1 X98.474 Y109.557 E8.41706
G1 X98.661 Y109.122 E8.43281
G1 X98.847 Y108.716 E8.44767
G1 X99.035 Y108.327 E8.46204
G1 X99.156 Y108.089 E8.47092
G1 X99.418 Y107.605 E8.48922
G1 X99.867 Y106.825 E8.51916
G1 X100.055 Y106.51 E8.53136
G1 X100.393 Y105.989 E8.55201
G1 X100.548 Y105.765 E8.56107
G1 X100.857 Y105.342 E8.5785
G1 X101.419 Y104.61 E8.60919
G1 X102.01 Y103.906 E8.63976
G1 X102.456 Y103.419 E8.66173
G1 X102.762 Y103.098 E8.67648
G1 X103.235 Y102.623 E8.69877
G0 F6000 X103.518 Y102.906
G1 F1200 X104.196 Y102.284 E8.72937
G1 X104.831 Y101.752 E8.75693
G1 X105.509 Y101.231 E8.78537
G1 X106.249 Y100.71 E8.81547
G1 X107.032 Y100.21 E8.84637
G1 X107.791 Y99.773 E8.8755
G1 X108.563 Y99.371 E8.90445
G1 X109.368 Y98.995 E8.934
G1 X109.74 Y98.831 E8.94752
G1 X109.833 Y98.792 E8.95087
G1 X110.205 Y98.644 E8.96419
G1 X110.459 Y98.549 E8.97321
G1 X110.97 Y98.373 E8.99118
G1 X111.917 Y98.075 E9.0242
G1 X112.325 Y97.956 E9.03834
G1 X112.73 Y97.853 E9.05224
G1 X113.01 Y97.788 E9.0618
G1 X113.536 Y97.681 E9.07965
G1 X114.376 Y97.532 E9.10803
G1 X115.266 Y97.414 E9.13789
G1 X116.258 Y97.327 E9.17101
G1 X116.727 Y97.297 E9.18664
G1 X117.114 Y97.285 E9.19952
G1 X117.53 Y97.281 E9.21335
G1 X118.02 Y97.289 E9.22965
G1 X118.462 Y97.306 E9.24437
G1 X118.899 Y97.332 E9.25893
G1 X119.218 Y97.358 E9.26957
G1 X119.698 Y97.408 E9.28562
G1 X120.525 Y97.515 E9.31336
G1 X120.893 Y97.57 E9.32573
G1 X121.037 Y97.594 E9.33059
G1 X121.483 Y97.678 E9.34568
G1 X121.92 Y97.771 E9.36054
G1 X122.406 Y97.887 E9.37716
G1 X122.663 Y97.955 E9.386
G1 X123.112 Y98.085 E9.40155
G1 X124.038 Y98.376 E9.43384
G1 X124.424 Y98.506 E9.44738
G1 X124.516 Y98.539 E9.45063
G1 X124.902 Y98.686 E9.46437
G1 X125.292 Y98.844 E9.47837
G1 X125.721 Y99.029 E9.49391
G1 X126.128 Y99.216 E9.5088
G1 X126.476 Y99.385 E9.52167
G1 X126.715 Y99.506 E9.53058
