;FLAVOR:Marlin
;TIME:1571
;Filament used: 0.963483m
;Layer height: 0.2
;MINX:96.482
;MINY:79.682
;MINZ:0.2
;MAXX:138.519
;MAXY:121.718
;MAXZ:19
;Generated with Cura_SteamEngine 4.9.1
M140 S50
M105
M190 S50
M104 S215
M105
M109 S215
M82 ;absolute extrusion mode
; Ender 3 Custom Start G-code
G92 E0 ; Reset Extruder
G28 ; Home all axes
G1 Z2.0 F3000 ; Move Z Axis up little to prevent scratching of Heat Bed
G1 X0.1 Y20 Z0.3 F5000.0 ; Move to start position
G1 X0.1 Y200.0 Z0.3 F1500.0 E15 ; Draw the first line
G1 X0.4 Y200.0 Z0.3 F5000.0 ; Move to side a little
G1 X0.4 Y20 Z0.3 F1500.0 E30 ; Draw the second line
G92 E0 ; Reset Extruder
G1 Z2.0 F3000 ; Move Z Axis up little to prevent scratching of Heat Bed
G1 X5 Y20 Z0.3 F5000.0 ; Move over to prevent blob squish
G92 E0
G92 E0
G1 F2700 E-5
;LAYER_COUNT:95
;LAYER:0
M107
G0 F6000 X101.715 Y86.836 Z0.2
;TYPE:SKIRT
G1 F2700 E0
G1 F1200 X102.161 Y86.349 E0.02196
G1 X102.478 Y86.016 E0.03726
G1 X102.951 Y85.541 E0.05955
G1 X103.682 Y84.871 E0.09253
G1 X104.317 Y84.339 E0.12008
G1 X105.048 Y83.777 E0.15075
G1 X105.788 Y83.256 E0.18085
G1 X106.632 Y82.717 E0.21416
G1 X107.391 Y82.28 E0.24329
G1 X108.225 Y81.847 E0.27455
G1 X109.03 Y81.471 E0.3041
G1 X109.431 Y81.293 E0.31869
G1 X109.524 Y81.254 E0.32204
G1 X109.925 Y81.095 E0.33639
G1 X110.179 Y81 E0.34541
G1 X110.73 Y80.81 E0.3648
G1 X111.677 Y80.512 E0.39782
G1 X112.112 Y80.385 E0.41289
G1 X112.55 Y80.274 E0.42792
G1 X112.83 Y80.209 E0.43748
G1 X113.396 Y80.093 E0.45669
G1 X114.236 Y79.944 E0.48507
G1 X115.196 Y79.817 E0.51728
G1 X116.188 Y79.73 E0.5504
G1 X116.689 Y79.697 E0.5671
G1 X117.106 Y79.686 E0.58097
G1 X117.522 Y79.682 E0.59481
G1 X118.051 Y79.689 E0.6124
G1 X118.493 Y79.706 E0.62711
G1 X118.964 Y79.734 E0.64281
G1 X119.283 Y79.76 E0.65345
G1 X119.8 Y79.815 E0.67075
G1 X120.627 Y79.922 E0.69848
G1 X121.024 Y79.981 E0.71183
G1 X121.168 Y80.005 E0.71669
G1 X121.65 Y80.096 E0.733
G1 X122.087 Y80.189 E0.74786
G1 X122.611 Y80.314 E0.76578
G1 X122.868 Y80.382 E0.77462
G1 X123.352 Y80.522 E0.79138
G1 X124.278 Y80.813 E0.82366
G1 X124.694 Y80.953 E0.83826
G1 X124.786 Y80.986 E0.84151
G1 X125.202 Y81.145 E0.85632
G1 X125.592 Y81.303 E0.87032
G1 X126.055 Y81.503 E0.88709
G1 X126.462 Y81.69 E0.90199
G1 X126.838 Y81.871 E0.91587
G1 X127.077 Y81.992 E0.92478
G1 X127.591 Y82.27 E0.94422
G1 X128.365 Y82.715 E0.97391
G1 X128.724 Y82.93 E0.98783
G1 X129.235 Y83.262 E1.0081
G1 X129.452 Y83.412 E1.01687
G1 X129.891 Y83.732 E1.03494
G1 X130.629 Y84.298 E1.06587
G1 X131.363 Y84.914 E1.09774
G1 X131.849 Y85.359 E1.11966
G1 X132.183 Y85.677 E1.135
G1 X132.659 Y86.151 E1.15734
G1 X133.329 Y86.882 E1.19032
G1 X133.861 Y87.517 E1.21788
G1 X134.421 Y88.245 E1.24842
G1 X134.941 Y88.983 E1.27845
G1 X135.483 Y89.832 E1.31195
G1 X135.921 Y90.593 E1.34116
G1 X136.352 Y91.422 E1.37223
G1 X136.718 Y92.205 E1.40098
G1 X136.873 Y92.551 E1.41359
G1 X136.922 Y92.666 E1.41775
G1 X137.095 Y93.098 E1.43323
G1 X137.19 Y93.35 E1.44218
G1 X137.391 Y93.931 E1.46263
G1 X137.689 Y94.879 E1.49568
G1 X137.815 Y95.311 E1.51065
G1 X137.928 Y95.757 E1.52595
G1 X137.993 Y96.038 E1.53555
G1 X138.107 Y96.594 E1.55442
G1 X138.256 Y97.433 E1.58276
G1 X138.383 Y98.396 E1.61507
G1 X138.47 Y99.389 E1.64823
G1 X138.502 Y99.87 E1.66426
G1 X138.515 Y100.307 E1.6788
G1 X138.519 Y100.733 E1.69297
G1 X138.512 Y101.232 E1.70957
G1 X138.497 Y101.648 E1.72341
G1 X138.468 Y102.137 E1.73971
G1 X138.442 Y102.459 E1.75045
G1 X138.387 Y102.988 E1.76814
G1 X138.278 Y103.829 E1.79635
G1 X138.223 Y104.199 E1.80879
G1 X138.199 Y104.345 E1.81371
G1 X138.104 Y104.849 E1.83077
G1 X138.013 Y105.277 E1.84532
G1 X137.899 Y105.761 E1.86186
G1 X137.83 Y106.026 E1.87097
G1 X137.675 Y106.565 E1.88962
G1 X137.383 Y107.49 E1.92188
G1 X137.239 Y107.917 E1.93687
G1 X137.055 Y108.403 E1.95415
G1 X136.897 Y108.793 E1.96815
G1 X136.702 Y109.245 E1.98452
G1 X136.516 Y109.651 E1.99938
G1 X136.322 Y110.054 E2.01425
G1 X136.201 Y110.292 E2.02313
G1 X135.929 Y110.794 E2.04212
G1 X135.487 Y111.562 E2.07159
G1 X135.298 Y111.878 E2.08384
G1 X134.936 Y112.438 E2.10602
G1 X134.781 Y112.662 E2.11508
G1 X134.463 Y113.098 E2.13303
G1 X133.903 Y113.828 E2.16363
G1 X133.286 Y114.563 E2.19555
G1 X132.839 Y115.051 E2.21756
G1 X132.514 Y115.391 E2.2332
G1 X132.04 Y115.866 E2.25552
G1 X131.326 Y116.521 E2.28775
G1 X130.691 Y117.054 E2.31532
G1 X129.952 Y117.623 E2.34634
G1 X129.212 Y118.144 E2.37644
G1 X128.368 Y118.683 E2.40975
G1 X127.609 Y119.12 E2.43888
G1 X126.777 Y119.553 E2.47008
G1 X125.983 Y119.924 E2.49923
G1 X125.612 Y120.089 E2.51273
G1 X125.508 Y120.133 E2.51649
G1 X125.075 Y120.305 E2.53198
G1 X124.821 Y120.4 E2.541
G1 X124.27 Y120.59 E2.56039
G1 X123.323 Y120.888 E2.59341
G1 X122.888 Y121.015 E2.60848
G1 X122.45 Y121.126 E2.62351
G1 X122.17 Y121.191 E2.63307
G1 X121.604 Y121.307 E2.65229
G1 X120.764 Y121.456 E2.68066
G1 X119.804 Y121.583 E2.71287
G1 X118.812 Y121.67 E2.74599
G1 X118.311 Y121.703 E2.76269
G1 X117.894 Y121.714 E2.77656
G1 X117.478 Y121.718 E2.7904
G1 X116.948 Y121.711 E2.80803
G1 X116.507 Y121.694 E2.82271
G1 X116.043 Y121.666 E2.83817
G1 X115.722 Y121.64 E2.84888
G1 X115.195 Y121.585 E2.8665
G1 X114.37 Y121.478 E2.89417
G1 X114.001 Y121.423 E2.90658
G1 X113.855 Y121.399 E2.9115
G1 X113.349 Y121.304 E2.92863
G1 X112.912 Y121.211 E2.94349
G1 X112.407 Y121.091 E2.96075
G1 X112.152 Y121.024 E2.96952
G1 X111.639 Y120.876 E2.98728
G1 X110.713 Y120.584 E3.01957
G1 X110.283 Y120.439 E3.03466
G1 X109.797 Y120.255 E3.05195
G1 X109.402 Y120.095 E3.06612
G1 X108.945 Y119.898 E3.08267
G1 X108.544 Y119.714 E3.09735
G1 X108.146 Y119.522 E3.11205
G1 X107.906 Y119.4 E3.121
G1 X107.402 Y119.127 E3.14007
G1 X106.624 Y118.679 E3.16993
G1 X106.272 Y118.468 E3.18358
G1 X105.755 Y118.13 E3.20412
G1 X105.527 Y117.972 E3.21335
G1 X105.096 Y117.658 E3.23108
G1 X104.37 Y117.101 E3.26152
G1 X103.637 Y116.486 E3.29334
G1 X103.15 Y116.04 E3.3153
G1 X102.817 Y115.723 E3.3306
G1 X102.341 Y115.249 E3.35294
G1 X101.672 Y114.519 E3.38587
G1 X101.139 Y113.883 E3.41347
G1 X100.574 Y113.148 E3.44431
G1 X100.054 Y112.409 E3.47436
G1 X99.516 Y111.565 E3.50765
G1 X99.077 Y110.802 E3.53693
G1 X98.643 Y109.968 E3.5682
G1 X98.271 Y109.171 E3.59745
G1 X98.107 Y108.802 E3.61088
G1 X98.066 Y108.705 E3.61439
G1 X97.895 Y108.275 E3.62978
G1 X97.8 Y108.021 E3.6388
G1 X97.61 Y107.47 E3.65818
G1 X97.312 Y106.523 E3.6912
G1 X97.185 Y106.088 E3.70627
G1 X97.074 Y105.65 E3.7213
G1 X97.009 Y105.37 E3.73086
G1 X96.893 Y104.804 E3.75008
G1 X96.744 Y103.964 E3.77845
G1 X96.617 Y103.004 E3.81066
G1 X96.53 Y102.012 E3.84378
G1 X96.498 Y101.53 E3.85985
G1 X96.486 Y101.095 E3.87432
G1 X96.482 Y100.677 E3.88823
G1 X96.489 Y100.148 E3.90582
G1 X96.506 Y99.707 E3.9205
G1 X96.534 Y99.243 E3.93596
G1 X96.56 Y98.922 E3.94667
G1 X96.615 Y98.396 E3.96426
G1 X96.723 Y97.563 E3.9922
G1 X96.78 Y97.181 E4.00505
G1 X96.803 Y97.042 E4.00973
G1 X96.897 Y96.543 E4.02662
G1 X96.99 Y96.107 E4.04145
G1 X97.103 Y95.63 E4.05775
G1 X97.172 Y95.365 E4.06686
G1 X97.33 Y94.817 E4.08583
G1 X97.62 Y93.901 E4.11779
G1 X97.761 Y93.483 E4.13246
G1 X97.945 Y92.997 E4.14974
G1 X98.103 Y92.607 E4.16374
G1 X98.298 Y92.155 E4.18011
G1 X98.484 Y91.749 E4.19497
G1 X98.678 Y91.346 E4.20984
G1 X98.799 Y91.108 E4.21872
G1 X99.072 Y90.605 E4.23776
G1 X99.521 Y89.825 E4.26769
G1 X99.714 Y89.502 E4.28021
G1 X100.064 Y88.962 E4.30161
G1 X100.219 Y88.738 E4.31067
G1 X100.54 Y88.298 E4.32878
G1 X101.102 Y87.566 E4.35948
G1 X101.715 Y86.836 E4.39118
G0 F6000 X102.01 Y87.106
G1 F1200 X102.456 Y86.619 E4.41315
G1 X102.762 Y86.298 E4.4279
G1 X103.235 Y85.823 E4.45019
G1 X103.939 Y85.178 E4.48195
G1 X104.574 Y84.646 E4.5095
G1 X105.279 Y84.104 E4.53908
G1 X106.019 Y83.583 E4.56918
G1 X106.832 Y83.064 E4.60126
G1 X107.591 Y82.627 E4.63039
G1 X108.394 Y82.209 E4.6605
G1 X109.199 Y81.833 E4.69005
G1 X109.586 Y81.662 E4.70412
G1 X109.679 Y81.623 E4.70748
G1 X110.065 Y81.47 E4.72129
G1 X110.319 Y81.375 E4.73031
G1 X110.85 Y81.192 E4.74899
G1 X111.797 Y80.894 E4.78201
G1 X112.218 Y80.771 E4.7966
G1 X112.64 Y80.664 E4.81108
G1 X112.92 Y80.599 E4.82064
G1 X113.466 Y80.487 E4.83917
G1 X114.306 Y80.338 E4.86755
G1 X115.231 Y80.216 E4.89858
G1 X116.223 Y80.129 E4.9317
G1 X116.708 Y80.097 E4.94787
G1 X117.11 Y80.085 E4.96124
G1 X117.526 Y80.081 E4.97508
G1 X118.035 Y80.089 E4.99201
G1 X118.477 Y80.106 E5.00672
G1 X118.931 Y80.133 E5.02185
G1 X119.25 Y80.159 E5.0325
G1 X119.749 Y80.212 E5.04919
G1 X120.576 Y80.319 E5.07692
G1 X120.959 Y80.375 E5.0898
G1 X121.103 Y80.399 E5.09465
G1 X121.566 Y80.487 E5.11033
G1 X122.003 Y80.58 E5.12519
G1 X122.508 Y80.701 E5.14246
G1 X122.765 Y80.769 E5.1513
G1 X123.232 Y80.904 E5.16747
G1 X124.158 Y81.195 E5.19975
G1 X124.559 Y81.329 E5.21382
G1 X124.651 Y81.362 E5.21707
G1 X125.052 Y81.516 E5.23135
G1 X125.442 Y81.674 E5.24535
G1 X125.888 Y81.866 E5.2615
G1 X126.295 Y82.053 E5.2764
G1 X126.657 Y82.228 E5.28977
G1 X126.896 Y82.349 E5.29868
G1 X127.391 Y82.617 E5.3174
G1 X128.165 Y83.062 E5.3471
G1 X128.515 Y83.271 E5.36065
G1 X129.007 Y83.591 E5.38018
G1 X129.224 Y83.741 E5.38895
G1 X129.648 Y84.05 E5.4064
G1 X130.386 Y84.616 E5.43733
G1 X131.093 Y85.209 E5.46802
G1 X131.579 Y85.654 E5.48994
G1 X131.901 Y85.961 E5.50474
G1 X132.377 Y86.435 E5.52708
G1 X133.022 Y87.139 E5.55884
G1 X133.554 Y87.774 E5.58639
G1 X134.094 Y88.476 E5.61585
G1 X134.614 Y89.214 E5.64588
G1 X135.136 Y90.031 E5.67812
G1 X135.574 Y90.792 E5.70733
G1 X135.99 Y91.591 E5.73729
G1 X136.356 Y92.374 E5.76603
G1 X136.505 Y92.708 E5.7782
G1 X136.554 Y92.823 E5.78236
G1 X136.721 Y93.239 E5.79727
G1 X136.816 Y93.491 E5.80622
G1 X137.009 Y94.051 E5.82592
G1 X137.307 Y94.999 E5.85898
G1 X137.429 Y95.417 E5.87346
G1 X137.538 Y95.847 E5.88821
G1 X137.603 Y96.128 E5.89781
G1 X137.713 Y96.664 E5.916
G1 X137.862 Y97.503 E5.94435
G1 X137.985 Y98.431 E5.97548
G1 X138.072 Y99.424 E6.00864
G1 X138.102 Y99.889 E6.02413
G1 X138.115 Y100.31 E6.03814
G1 X138.119 Y100.736 E6.05231
G1 X138.112 Y101.218 E6.06834
G1 X138.097 Y101.634 E6.08219
G1 X138.07 Y102.105 E6.09788
G1 X138.044 Y102.427 E6.10863
G1 X137.99 Y102.936 E6.12565
G1 X137.881 Y103.777 E6.15386
G1 X137.829 Y104.134 E6.16586
G1 X137.805 Y104.28 E6.17078
G1 X137.713 Y104.765 E6.1872
G1 X137.622 Y105.193 E6.20175
G1 X137.512 Y105.66 E6.21771
G1 X137.443 Y105.925 E6.22681
G1 X137.293 Y106.445 E6.24481
G1 X137.001 Y107.37 E6.27708
G1 X136.862 Y107.784 E6.2916
G1 X136.684 Y108.253 E6.30829
G1 X136.526 Y108.643 E6.32228
G1 X136.339 Y109.078 E6.33803
G1 X136.153 Y109.484 E6.35288
G1 X135.965 Y109.873 E6.36725
G1 X135.844 Y110.111 E6.37613
G1 X135.582 Y110.594 E6.39441
G1 X135.14 Y111.362 E6.42388
G1 X134.956 Y111.671 E6.43584
G1 X134.607 Y112.211 E6.45723
G1 X134.452 Y112.435 E6.46629
G1 X134.145 Y112.855 E6.48359
G1 X133.585 Y113.585 E6.51419
G1 X132.991 Y114.293 E6.54493
G1 X132.544 Y114.781 E6.56694
G1 X132.231 Y115.108 E6.582
G1 X131.757 Y115.583 E6.60432
G1 X131.069 Y116.215 E6.63539
G1 X130.434 Y116.748 E6.66296
G1 X129.721 Y117.296 E6.69287
G1 X128.981 Y117.817 E6.72297
G1 X128.168 Y118.336 E6.75505
G1 X127.409 Y118.773 E6.78418
G1 X126.607 Y119.19 E6.81425
G1 X125.813 Y119.561 E6.8434
G1 X125.456 Y119.72 E6.8564
G1 X125.352 Y119.764 E6.86015
G1 X124.935 Y119.93 E6.87508
G1 X124.681 Y120.025 E6.8841
G1 X124.15 Y120.208 E6.90278
G1 X123.203 Y120.506 E6.9358
G1 X122.782 Y120.629 E6.95039
G1 X122.36 Y120.736 E6.96487
G1 X122.08 Y120.801 E6.97443
G1 X121.534 Y120.913 E6.99297
G1 X120.694 Y121.062 E7.02134
G1 X119.769 Y121.184 E7.05237
G1 X118.777 Y121.271 E7.08549
G1 X118.292 Y121.303 E7.10166
G1 X117.89 Y121.315 E7.11504
G1 X117.474 Y121.319 E7.12887
G1 X116.964 Y121.311 E7.14584
G1 X116.523 Y121.294 E7.16052
G1 X116.075 Y121.267 E7.17544
G1 X115.754 Y121.241 E7.18616
G1 X115.247 Y121.188 E7.20311
G1 X114.422 Y121.081 E7.23078
G1 X114.066 Y121.029 E7.24275
G1 X113.92 Y121.005 E7.24767
G1 X113.433 Y120.913 E7.26415
G1 X112.996 Y120.82 E7.27901
G1 X112.508 Y120.704 E7.29569
G1 X112.253 Y120.637 E7.30446
G1 X111.759 Y120.494 E7.32157
G1 X110.833 Y120.202 E7.35386
G1 X110.416 Y120.062 E7.36849
G1 X109.947 Y119.885 E7.38517
G1 X109.552 Y119.725 E7.39934
G1 X109.111 Y119.534 E7.41533
G1 X108.71 Y119.35 E7.43
G1 X108.328 Y119.165 E7.44412
G1 X108.088 Y119.043 E7.45307
G1 X107.601 Y118.78 E7.47148
G1 X106.823 Y118.332 E7.50134
G1 X106.481 Y118.127 E7.5146
G1 X105.982 Y117.801 E7.53443
G1 X105.754 Y117.643 E7.54365
G1 X105.34 Y117.341 E7.5607
G1 X104.614 Y116.784 E7.59113
G1 X103.907 Y116.191 E7.62182
G1 X103.42 Y115.745 E7.64379
G1 X103.099 Y115.439 E7.65854
G1 X102.623 Y114.965 E7.68088
G1 X101.979 Y114.263 E7.71256
G1 X101.446 Y113.627 E7.74016
G1 X100.901 Y112.918 E7.76991
G1 X100.381 Y112.179 E7.79996
G1 X99.862 Y111.365 E7.83207
G1 X99.423 Y110.602 E7.86135
G1 X99.006 Y109.799 E7.89144
G1 X98.634 Y109.002 E7.9207
G1 X98.475 Y108.646 E7.93366
G1 X98.434 Y108.549 E7.93717
G1 X98.27 Y108.135 E7.95198
G1 X98.175 Y107.881 E7.961
G1 X97.992 Y107.35 E7.97968
G1 X97.694 Y106.403 E8.0127
G1 X97.571 Y105.982 E8.02729
G1 X97.464 Y105.56 E8.04177
G1 X97.399 Y105.28 E8.05133
G1 X97.287 Y104.734 E8.06986
G1 X97.138 Y103.894 E8.09824
G1 X97.016 Y102.969 E8.12927
G1 X96.929 Y101.977 E8.16239
G1 X96.898 Y101.511 E8.17793
G1 X96.885 Y101.091 E8.1919
G1 X96.881 Y100.673 E8.20581
G1 X96.889 Y100.164 E8.22274
G1 X96.906 Y99.723 E8.23742
G1 X96.933 Y99.275 E8.25234
G1 X96.959 Y98.954 E8.26305
G1 X97.012 Y98.447 E8.28001
G1 X97.12 Y97.614 E8.30795
G1 X97.174 Y97.247 E8.32028
G1 X97.197 Y97.108 E8.32497
G1 X97.288 Y96.627 E8.34125
G1 X97.381 Y96.191 E8.35608
G1 X97.49 Y95.731 E8.3718
G1 X97.559 Y95.466 E8.38091
G1 X97.711 Y94.938 E8.39919
G1 X98.001 Y94.022 E8.43114
G1 X98.138 Y93.616 E8.44539
G1 X98.316 Y93.147 E8.46208
G1 X98.474 Y92.757 E8.47607
G1 X98.661 Y92.322 E8.49182
G1 X98.847 Y91.916 E8.50668
G1 X99.035 Y91.527 E8.52105
G1 X99.156 Y91.289 E8.52993
G1 X99.418 Y90.805 E8.54823
G1 X99.867 Y90.025 E8.57817
G1 X100.055 Y89.71 E8.59037
G1 X100.393 Y89.189 E8.61102
G1 X100.548 Y88.965 E8.62008
G1 X100.857 Y88.542 E8.63751
G1 X101.419 Y87.81 E8.6682
G1 X102.01 Y87.106 E8.69877
G0 F6000 X102.305 Y87.376
G1 F1200 X102.751 Y86.889 E8.72074
G1 X103.045 Y86.581 E8.7349
G1 X103.518 Y86.106 E8.75719
G1 X104.196 Y85.484 E8.7878
G1 X104.831 Y84.952 E8.81535
G1 X105.509 Y84.431 E8.84379
G1 X106.249 Y83.91 E8.87389
G1 X107.032 Y83.41 E8.90479
G1 X107.791 Y82.973 E8.93392
G1 X108.563 Y82.571 E8.96287
G1 X109.368 Y82.195 E8.99242
G1 X109.74 Y82.031 E9.00594
G1 X109.833 Y81.992 E9.00929
G1 X110.205 Y81.844 E9.02261
G1 X110.459 Y81.749 E9.03163
G1 X110.97 Y81.573 E9.04961
G1 X111.917 Y81.275 E9.08263
G1 X112.325 Y81.156 E9.09676
G1 X112.73 Y81.053 E9.11066
G1 X113.01 Y80.988 E9.12022
G1 X113.536 Y80.881 E9.13807
G1 X114.376 Y80.732 E9.16645
G1 X115.266 Y80.614 E9.19631
G1 X116.258 Y80.527 E9.22943
G1 X116.727 Y80.497 E9.24506
G1 X117.114 Y80.485 E9.25794
G1 X117.53 Y80.481 E9.27178
G1 X118.02 Y80.489 E9.28807
G1 X118.462 Y80.506 E9.30279
G1 X118.899 Y80.532 E9.31735
G1 X119.218 Y80.558 E9.32799
G1 X119.698 Y80.608 E9.34404
G1 X120.525 Y80.715 E9.37178
G1 X120.893 Y80.77 E9.38415
G1 X121.037 Y80.794 E9.38901
G1 X121.483 Y80.878 E9.40411
G1 X121.92 Y80.971 E9.41897
G1 X122.406 Y81.087 E9.43558
G1 X122.663 Y81.155 E9.44443
G1 X123.112 Y81.285 E9.45997
G1 X124.038 Y81.576 E9.49226
G1 X124.424 Y81.706 E9.5058
G1 X124.516 Y81.739 E9.50905
G1 X124.902 Y81.886 E9.52279
G1 X125.292 Y82.044 E9.53679
G1 X125.721 Y82.229 E9.55233
G1 X126.128 Y82.416 E9.56722
G1 X126.476 Y82.585 E9.58009
G1 X126.715 Y82.706 E9.589
G1 X127.192 Y82.963 E9.60702
G1 X127.966 Y83.408 E9.63672
