;FLAVOR:Marlin
M73 P0
M73 R54
;TIME:3235
;Filament used: 2.29762m
;Layer height: 0.2
;MINX:76.517
;MINY:41.095
;MINZ:0.2
;MAXX:158.483
;MAXY:105.905
;MAXZ:4
;POSTPROCESSED
;Generated with Cura_SteamEngine 5.0.0
M140 S50
M105
M190 S50
M104 S215
M105
M109 S215
M82 ;absolute extrusion mode
; Ender 3 Custom Start G-code
G92 E0 ; Reset Extruder
G28 ; Home all axes
G1 Z2.0 F3000 ; Move Z Axis up little to prevent scratching of Heat Bed
G1 X0.1 Y20 Z0.3 F5000.0 ; Move to start position
G1 X0.1 Y200.0 Z0.3 F1500.0 E15 ; Draw the first line
G1 X0.4 Y200.0 Z0.3 F5000.0 ; Move to side a little
G1 X0.4 Y20 Z0.3 F1500.0 E30 ; Draw the second line
G92 E0 ; Reset Extruder
G1 Z2.0 F3000 ; Move Z Axis up little to prevent scratching of Heat Bed
G1 X5 Y20 Z0.3 F5000.0 ; Move over to prevent blob squish
G92 E0
G92 E0
G1 F2700 E-5
;LAYER_COUNT:20
;LAYER:0
M107
G0 F6000 X78.014 Y48.577 Z0.2
G0 X76.518 Y54.645
;TYPE:SKIRT
G1 F2700 E0
G1 F1200 X76.528 Y53.943 E0.02335
G1 X76.581 Y53.007 E0.05453
G1 X76.714 Y52.079 E0.08571
G1 X76.926 Y51.165 E0.11692
G1 X77.214 Y50.272 E0.14813
G1 X77.578 Y49.408 E0.17931
G1 X78.014 Y48.577 E0.21052
G1 X78.519 Y47.787 E0.24171
G1 X79.089 Y47.043 E0.27288
G1 X79.574 Y46.501 E0.29707
G1 X80.068 Y45.988 E0.32076
G1 X81.38 Y44.677 E0.38245
G1 X81.866 Y44.206 E0.40496
G1 X82.566 Y43.582 E0.43615
G1 X83.318 Y43.021 E0.46735
G1 X84.114 Y42.526 E0.49853
G1 X84.95 Y42.1 E0.52974
G1 X85.819 Y41.747 E0.56093
G1 X86.714 Y41.469 E0.5921
G1 X87.631 Y41.269 E0.62332
G1 X88.56 Y41.147 E0.65448
G1 X89.324 Y41.107 E0.67993
G1 X90.079 Y41.095 E0.70504
G1 X144.776 Y41.095 E2.52427
G1 X145.634 Y41.106 E2.55281
G1 X146.57 Y41.159 E2.584
G1 X147.499 Y41.292 E2.61521
G1 X148.412 Y41.504 E2.64638
G1 X149.305 Y41.792 E2.67759
G1 X150.169 Y42.156 E2.70877
G1 X151 Y42.592 E2.73999
G1 X151.79 Y43.097 E2.77117
G1 X152.534 Y43.667 E2.80234
G1 X153.051 Y44.128 E2.82538
G1 X153.572 Y44.628 E2.8494
G1 X154.909 Y45.967 E2.91234
G1 X155.38 Y46.454 E2.93487
G1 X156.003 Y47.155 E2.96606
G1 X156.563 Y47.907 E2.99725
G1 X157.058 Y48.704 E3.02845
G1 X157.483 Y49.54 E3.05964
G1 X157.835 Y50.409 E3.09083
G1 X158.112 Y51.305 E3.12202
G1 X158.311 Y52.222 E3.15323
G1 X158.432 Y53.152 E3.18442
G1 X158.471 Y53.904 E3.20947
G1 X158.483 Y54.658 E3.23455
G1 X158.482 Y89.527 E4.3943
G1 X158.472 Y90.229 E4.41765
G1 X158.419 Y91.165 E4.44883
G1 X158.286 Y92.093 E4.48001
G1 X158.074 Y93.007 E4.51122
G1 X157.786 Y93.9 E4.54243
G1 X157.422 Y94.764 E4.57361
G1 X156.986 Y95.595 E4.60482
G1 X156.481 Y96.385 E4.63601
G1 X155.911 Y97.129 E4.66718
G1 X155.402 Y97.697 E4.69255
G1 X154.874 Y98.242 E4.71778
G1 X150.83 Y102.284 E4.90796
G1 X150.312 Y102.787 E4.93197
G1 X149.612 Y103.411 E4.96316
G1 X148.861 Y103.973 E4.99436
G1 X148.065 Y104.469 E5.02555
G1 X147.23 Y104.896 E5.05675
G1 X146.362 Y105.25 E5.08792
G1 X145.466 Y105.528 E5.11913
G1 X144.55 Y105.729 E5.15032
G1 X143.62 Y105.852 E5.18152
G1 X142.871 Y105.893 E5.20647
G1 X142.154 Y105.905 E5.23032
G1 X90.067 Y105.904 E6.96274
G1 X89.366 Y105.894 E6.98606
G1 X88.43 Y105.841 E7.01724
G1 X87.501 Y105.708 E7.04845
G1 X86.588 Y105.496 E7.07963
G1 X85.695 Y105.208 E7.11083
G1 X84.831 Y104.844 E7.14202
G1 X84 Y104.408 E7.17323
G1 X83.21 Y103.903 E7.20441
G1 X82.466 Y103.333 E7.23559
G1 X81.93 Y102.854 E7.2595
G1 X81.397 Y102.341 E7.2841
G1 X80.099 Y101.041 E7.3452
G1 X79.628 Y100.555 E7.36771
G1 X79.004 Y99.855 E7.3989
G1 X78.443 Y99.103 E7.43011
G1 X77.948 Y98.307 E7.46128
G1 X77.522 Y97.471 E7.49249
G1 X77.169 Y96.602 E7.52369
G1 X76.891 Y95.707 E7.55486
G1 X76.691 Y94.79 E7.58607
G1 X76.569 Y93.861 E7.61724
G1 X76.529 Y93.097 E7.64268
G1 X76.517 Y92.343 E7.66777
G1 X76.518 Y54.645 E8.92161
G0 F6000 X76.918 Y54.651
G1 F1200 X76.928 Y53.949 E8.94496
G1 X76.981 Y53.03 E8.97557
G1 X77.114 Y52.119 E9.0062
G1 X77.325 Y51.223 E9.03681
G1 X77.613 Y50.348 E9.06745
G1 X77.976 Y49.502 E9.09807
G1 X78.411 Y48.691 E9.12868
G1 X78.915 Y47.92 E9.15931
G1 X79.483 Y47.196 E9.18992
G1 X79.863 Y46.777 E9.20873
G1 X80.351 Y46.271 E9.23212
G1 X81.658 Y44.964 E9.29359
G1 X82.144 Y44.493 E9.3161
G1 X82.832 Y43.882 E9.34671
G1 X83.571 Y43.332 E9.37735
G1 X84.355 Y42.849 E9.40797
G1 X85.177 Y42.436 E9.43857
G1 X86.033 Y42.095 E9.46922
G1 X86.915 Y41.83 E9.49985
G1 X87.816 Y41.643 E9.53045
G1 X88.73 Y41.535 E9.56107
G1 X89.331 Y41.507 E9.58108
G1 X90.079 Y41.495 E9.60596
G1 X144.776 Y41.495 E11.42519
G1 X145.628 Y41.506 E11.45353
G1 X146.547 Y41.559 E11.48414
G1 X147.458 Y41.692 E11.51477
G1 X148.354 Y41.903 E11.54538
G1 X149.229 Y42.191 E11.57602
G1 X150.075 Y42.554 E11.60664
G1 X150.886 Y42.989 E11.63725
G1 X151.657 Y43.493 E11.66789
G1 X152.381 Y44.062 E11.69851
G1 X152.776 Y44.418 E11.7162
G1 X153.289 Y44.911 E11.73986
G1 X154.621 Y46.245 E11.80256
G1 X155.092 Y46.732 E11.8251
G1 X155.703 Y47.421 E11.85573
G1 X156.252 Y48.16 E11.88635
G1 X156.734 Y48.944 E11.91696
G1 X157.147 Y49.767 E11.94758
G1 X157.486 Y50.623 E11.9782
G1 X157.75 Y51.505 E12.00882
G1 X157.937 Y52.407 E12.03946
G1 X158.044 Y53.321 E12.07007
G1 X158.071 Y53.911 E12.08971
G1 X158.083 Y54.658 E12.11456
G1 X158.082 Y89.521 E13.27411
G1 X158.072 Y90.223 E13.29746
G1 X158.019 Y91.142 E13.32808
G1 X157.886 Y92.053 E13.3587
G1 X157.675 Y92.949 E13.38932
G1 X157.387 Y93.824 E13.41996
M73 P1
G1 X157.024 Y94.67 E13.45057
G1 X156.589 Y95.481 E13.48118
G1 X156.085 Y96.252 E13.51182
G1 X155.517 Y96.976 E13.54243
G1 X155.113 Y97.419 E13.56237
G1 X154.591 Y97.959 E13.58735
G1 X150.551 Y101.997 E13.77733
G1 X150.033 Y102.5 E13.80135
G1 X149.346 Y103.112 E13.83195
G1 X148.607 Y103.662 E13.86259
G1 X147.824 Y104.146 E13.8932
G1 X147.002 Y104.56 E13.92381
G1 X146.147 Y104.901 E13.95443
G1 X145.266 Y105.167 E13.98504
G1 X144.364 Y105.355 E14.01568
G1 X143.45 Y105.465 E14.0463
G1 X142.863 Y105.493 E14.06585
G1 X142.154 Y105.505 E14.08943
G1 X90.073 Y105.504 E15.82165
G1 X89.372 Y105.494 E15.84497
G1 X88.453 Y105.441 E15.87559
G1 X87.542 Y105.308 E15.90621
G1 X86.646 Y105.097 E15.93683
G1 X85.771 Y104.809 E15.96747
G1 X84.925 Y104.446 E15.99808
G1 X84.114 Y104.011 E16.02869
G1 X83.343 Y103.507 E16.05933
G1 X82.619 Y102.938 E16.08996
G1 X82.206 Y102.565 E16.10847
G1 X81.68 Y102.058 E16.13276
G1 X80.386 Y100.763 E16.19365
G1 X79.915 Y100.277 E16.21616
G1 X79.304 Y99.589 E16.24677
G1 X78.754 Y98.85 E16.27741
G1 X78.271 Y98.066 E16.30803
G1 X77.858 Y97.244 E16.33863
G1 X77.517 Y96.388 E16.36928
G1 X77.252 Y95.506 E16.39991
G1 X77.065 Y94.605 E16.43052
G1 X76.957 Y93.691 E16.46113
G1 X76.929 Y93.09 E16.48114
G1 X76.917 Y92.343 E16.50599
G1 X76.918 Y54.651 E17.75963
G0 F6000 X77.318 Y54.657
G1 F1200 X77.328 Y53.955 E17.78298
G1 X77.381 Y53.053 E17.81303
G1 X77.513 Y52.16 E17.84305
G1 X77.724 Y51.282 E17.87309
G1 X78.012 Y50.426 E17.90313
G1 X78.374 Y49.598 E17.93318
G1 X78.808 Y48.806 E17.96322
G1 X79.311 Y48.056 E17.99326
G1 X80.152 Y47.054 E18.03677
G1 X80.633 Y46.554 E18.05984
G1 X81.936 Y45.251 E18.12113
G1 X82.422 Y44.78 E18.14364
G1 X83.098 Y44.181 E18.17368
G1 X83.824 Y43.644 E18.20372
G1 X84.595 Y43.173 E18.23377
G1 X85.404 Y42.773 E18.26378
G1 X86.246 Y42.445 E18.29384
G1 X87.113 Y42.193 E18.32387
G1 X87.999 Y42.019 E18.3539
G1 X89.338 Y41.907 E18.39859
G1 X90.079 Y41.895 E18.42324
G1 X144.776 Y41.895 E20.24247
G1 X145.622 Y41.906 E20.27061
G1 X146.524 Y41.959 E20.30066
G1 X147.417 Y42.091 E20.33069
G1 X148.296 Y42.302 E20.36075
G1 X149.152 Y42.59 E20.39079
G1 X149.979 Y42.952 E20.42082
G1 X150.771 Y43.386 E20.45085
G1 X151.521 Y43.889 E20.48089
G1 X152.5 Y44.708 E20.52334
G1 X153.006 Y45.194 E20.54668
G1 X154.334 Y46.523 E20.60917
G1 X154.805 Y47.01 E20.6317
G1 X155.403 Y47.686 E20.66172
G1 X155.94 Y48.413 E20.69178
G1 X156.41 Y49.184 E20.72181
G1 X156.81 Y49.994 E20.75186
G1 X157.136 Y50.836 E20.78189
G1 X157.387 Y51.703 E20.81191
G1 X157.56 Y52.59 E20.84197
G1 X157.671 Y53.918 E20.88629
G1 X157.683 Y54.658 E20.91091
G1 X157.682 Y89.515 E22.07026
G1 X157.672 Y90.217 E22.09361
G1 X157.619 Y91.119 E22.12366
G1 X157.487 Y92.012 E22.15368
G1 X157.276 Y92.89 E22.18372
G1 X156.988 Y93.746 E22.21376
G1 X156.626 Y94.574 E22.24381
G1 X156.192 Y95.366 E22.27385
G1 X155.689 Y96.116 E22.30389
G1 X154.825 Y97.142 E22.3485
G1 X154.309 Y97.676 E22.3732
G1 X150.273 Y101.71 E22.56299
G1 X149.755 Y102.213 E22.58701
G1 X149.08 Y102.813 E22.61705
G1 X148.354 Y103.35 E22.64708
G1 X147.584 Y103.822 E22.67712
G1 X146.775 Y104.223 E22.70715
G1 X145.934 Y104.552 E22.73719
G1 X145.067 Y104.804 E22.76722
G1 X144.181 Y104.979 E22.79725
G1 X142.855 Y105.093 E22.84152
G1 X142.154 Y105.105 E22.86484
G1 X90.079 Y105.104 E24.59686
G1 X89.378 Y105.094 E24.62018
G1 X88.476 Y105.041 E24.65023
G1 X87.583 Y104.909 E24.68025
G1 X86.704 Y104.698 E24.71032
G1 X85.848 Y104.41 E24.74036
G1 X85.021 Y104.048 E24.77038
G1 X84.229 Y103.614 E24.80042
G1 X83.479 Y103.111 E24.83046
G1 X82.482 Y102.275 E24.87373
G1 X81.963 Y101.775 E24.8977
G1 X80.673 Y100.485 E24.95838
G1 X80.202 Y99.999 E24.98089
G1 X79.603 Y99.323 E25.01093
G1 X79.066 Y98.597 E25.04097
G1 X78.595 Y97.826 E25.07102
G1 X78.195 Y97.017 E25.10103
G1 X77.867 Y96.175 E25.13109
G1 X77.615 Y95.308 E25.16112
G1 X77.441 Y94.422 E25.19115
G1 X77.329 Y93.083 E25.23584
G1 X77.317 Y92.343 E25.26046
G1 X77.318 Y54.657 E26.5139
G1 F2700 E21.5139
;MESH:gearStand3.stl
G0 F6000 X99.173 Y60.694
G0 X99.903 Y61.6
G0 X100.281 Y61.84
G0 X100.978 Y62.075
G1 F2700 E26.5139
G0 F6000 X100.962 Y61.665
;TYPE:WALL-OUTER
G1 F1200 X100.541 Y61.584 E26.52816
G1 X100.165 Y61.36 E26.54271
G1 X99.894 Y61.03 E26.55692
G1 X99.751 Y60.62 E26.57136
G1 X99.742 Y60.278 E26.58274
G1 X99.863 Y59.867 E26.59699
G1 X100.115 Y59.521 E26.61122
G1 X100.471 Y59.279 E26.62554
G1 X100.894 Y59.172 E26.64005
G1 X101.324 Y59.216 E26.65443
G1 X101.671 Y59.376 E26.66714
G1 X101.921 Y59.594 E26.67817
G1 X102.141 Y59.954 E26.6922
G1 X102.229 Y60.33 E26.70505
M73 P2
G1 X102.184 Y60.759 E26.71939
G1 X101.995 Y61.15 E26.73384
G1 X101.984 Y61.169 E26.73457
G1 X101.686 Y61.45 E26.74819
G1 X101.339 Y61.615 E26.76097
G1 X100.962 Y61.665 E26.77362
G0 F6000 X101.501 Y61.981
;TYPE:WALL-INNER
G1 F1200 X101.004 Y62.063 E26.79037
G1 X100.455 Y61.975 E26.80887
G1 X100.262 Y61.895 E26.81582
G1 X99.951 Y61.698 E26.82806
G1 X99.799 Y61.56 E26.83489
G1 X99.578 Y61.276 E26.84686
G1 X99.479 Y61.088 E26.85392
G1 X99.369 Y60.74 E26.86606
G1 X99.342 Y60.278 E26.88146
G1 X99.482 Y59.745 E26.89978
G1 X99.578 Y59.563 E26.90663
G1 X99.798 Y59.277 E26.91863
G1 X99.95 Y59.137 E26.9255
G1 X100.255 Y58.942 E26.93754
G1 X100.448 Y58.862 E26.94449
G1 X100.834 Y58.777 E26.95764
G1 X101.376 Y58.819 E26.97572
G1 X101.849 Y59.018 E26.99279
G1 X102.191 Y59.298 E27.00749
G1 X102.487 Y59.753 E27.02554
G1 X102.621 Y60.25 E27.04266
G1 X102.581 Y60.811 E27.06137
G1 X102.518 Y61.01 E27.06831
G1 X102.333 Y61.364 E27.0816
G1 X102.316 Y61.392 E27.08269
G1 X101.956 Y61.745 E27.09946
G1 X101.501 Y61.981 E27.1165
G1 F2700 E22.1165
G0 F6000 X101.504 Y61.992
G0 X102.394 Y61.584
G0 X120.435 Y61.387
G0 X121.417 Y61.975
G1 F2700 E27.1165
G0 F6000 X121.541 Y61.584
;TYPE:WALL-OUTER
G1 F1200 X121.165 Y61.36 E27.13106
G1 X120.894 Y61.03 E27.14526
G1 X120.751 Y60.62 E27.1597
G1 X120.742 Y60.278 E27.17108
G1 X120.863 Y59.867 E27.18533
G1 X121.115 Y59.521 E27.19957
G1 X121.471 Y59.279 E27.21389
G1 X121.894 Y59.172 E27.2284
G1 X122.324 Y59.216 E27.24278
G1 X122.671 Y59.376 E27.25549
G1 X122.921 Y59.594 E27.26652
G1 X123.141 Y59.954 E27.28055
G1 X123.229 Y60.33 E27.29339
G1 X123.184 Y60.759 E27.30774
G1 X122.995 Y61.15 E27.32219
G1 X122.686 Y61.45 E27.33651
G1 X122.339 Y61.615 E27.34929
G1 X121.962 Y61.665 E27.36194
G1 X121.541 Y61.584 E27.3762
G0 F6000 X121.632 Y62.014
;TYPE:WALL-INNER
G1 F1200 X121.355 Y61.943 E27.38571
G1 X120.951 Y61.698 E27.40142
G1 X120.799 Y61.56 E27.40825
G1 X120.558 Y61.249 E27.42134
G1 X120.369 Y60.74 E27.4394
G1 X120.342 Y60.278 E27.45479
G1 X120.482 Y59.745 E27.47312
G1 X120.578 Y59.563 E27.47996
G1 X120.798 Y59.277 E27.49196
G1 X120.95 Y59.137 E27.49884
G1 X121.255 Y58.942 E27.51088
G1 X121.448 Y58.862 E27.51783
G1 X121.834 Y58.777 E27.53097
G1 X122.376 Y58.819 E27.54905
G1 X122.849 Y59.018 E27.56612
G1 X123.191 Y59.298 E27.58082
G1 X123.487 Y59.753 E27.59887
G1 X123.621 Y60.25 E27.616
G1 X123.581 Y60.811 E27.6347
G1 X123.518 Y61.01 E27.64164
G1 X123.326 Y61.377 E27.65542
G1 X122.956 Y61.745 E27.67278
G1 X122.501 Y61.981 E27.68982
G1 X122.004 Y62.063 E27.70658
G1 X121.632 Y62.014 E27.71906
G1 F2700 E22.71906
G0 F6000 X121.625 Y62.04
G0 X122.248 Y61.979
G0 X123.399 Y61.579
G0 X133.965 Y61.425
G0 X135.138 Y61.982
G0 X135.967 Y62.004
G1 F2700 E27.71906
G0 F6000 X135.839 Y61.615
;TYPE:WALL-OUTER
G1 F1200 X135.462 Y61.665 E27.73171
G1 X135.041 Y61.584 E27.74597
G1 X134.665 Y61.36 E27.76052
G1 X134.424 Y61.068 E27.77312
G1 X134.251 Y60.62 E27.78909
G1 X134.242 Y60.37 E27.79741
G1 X134.251 Y60.216 E27.80254
G1 X134.363 Y59.867 E27.81473
G1 X134.615 Y59.521 E27.82897
G1 X134.971 Y59.279 E27.84329
G1 X135.394 Y59.172 E27.8578
G1 X135.824 Y59.216 E27.87217
G1 X136.171 Y59.376 E27.88488
G1 X136.421 Y59.594 E27.89592
G1 X136.641 Y59.954 E27.90995
G1 X136.728 Y60.33 E27.92278
G1 X136.733 Y60.37 E27.92412
G1 X136.683 Y60.768 E27.93747
G1 X136.495 Y61.15 E27.95163
G1 X136.212 Y61.426 E27.96477
G1 X135.839 Y61.615 E27.97868
G0 F6000 X134.955 Y61.975
;TYPE:WALL-INNER
G1 F1200 X134.762 Y61.895 E27.98563
G1 X134.415 Y61.674 E27.99931
G1 X134.108 Y61.314 E28.01505
G1 X133.979 Y61.088 E28.02371
G1 X133.869 Y60.74 E28.03584
G1 X133.842 Y60.37 E28.04818
G1 X133.864 Y60.114 E28.05673
G1 X133.982 Y59.745 E28.06962
G1 X134.078 Y59.563 E28.07646
G1 X134.298 Y59.277 E28.08846
G1 X134.45 Y59.137 E28.09533
G1 X134.755 Y58.942 E28.10737
G1 X134.948 Y58.862 E28.11432
G1 X135.334 Y58.777 E28.12747
G1 X135.876 Y58.819 E28.14555
G1 X136.349 Y59.018 E28.16262
G1 X136.691 Y59.298 E28.17732
G1 X136.987 Y59.753 E28.19537
G1 X137.12 Y60.25 E28.21248
G1 X137.133 Y60.37 E28.2165
G1 X137.081 Y60.811 E28.23127
G1 X137.018 Y61.01 E28.23821
G1 X136.832 Y61.366 E28.25157
G1 X136.482 Y61.721 E28.26815
G1 X136.294 Y61.851 E28.27575
G1 X135.981 Y61.989 E28.28713
G1 X135.505 Y62.063 E28.30315
G1 X134.955 Y61.975 E28.32168
G1 F2700 E23.32168
G0 F6000 X134.951 Y61.986
G0 X135.271 Y62.229
G0 X139.232 Y68.792
G0 X139.079 Y70.277
G0 X139.177 Y71.019
M73 P3
G0 X139.462 Y71.704
G0 X139.915 Y72.295
G0 X140.248 Y72.549
G0 X140.987 Y73.028
G1 F2700 E28.32168
G0 F6000 X141.108 Y72.64
;TYPE:WALL-OUTER
G1 F1200 X140.721 Y72.463 E28.33583
G1 X140.338 Y72.206 E28.35117
G1 X140.026 Y71.899 E28.36573
G1 X139.772 Y71.542 E28.3803
G1 X139.582 Y71.137 E28.39518
G1 X139.468 Y70.719 E28.40959
G1 X139.429 Y70.295 E28.42376
G1 X139.459 Y69.877 E28.43769
G1 X139.566 Y69.457 E28.45211
G1 X139.758 Y69.039 E28.46741
G1 X139.974 Y68.726 E28.48006
G1 X140.307 Y68.375 E28.49615
G1 X140.662 Y68.122 E28.51065
G1 X140.987 Y67.966 E28.52264
G1 X141.089 Y67.922 E28.52633
G1 X141.5 Y67.814 E28.54047
G1 X141.908 Y67.777 E28.55409
G1 X142.329 Y67.807 E28.56813
G1 X142.75 Y67.915 E28.58259
G1 X143.167 Y68.107 E28.59786
G1 X143.519 Y68.35 E28.61208
G1 X143.832 Y68.655 E28.62662
G1 X144.088 Y69.017 E28.64136
G1 X144.272 Y69.404 E28.65562
G1 X144.389 Y69.837 E28.67054
G1 X144.429 Y70.255 E28.6845
G1 X144.399 Y70.678 E28.69861
G1 X144.291 Y71.099 E28.71306
G1 X144.103 Y71.51 E28.72809
G1 X143.858 Y71.868 E28.74252
G1 X143.55 Y72.181 E28.75713
G1 X143.197 Y72.432 E28.77153
G1 X142.787 Y72.624 E28.78659
G1 X142.37 Y72.738 E28.80097
G1 X141.95 Y72.777 E28.815
G1 X141.67 Y72.758 E28.82433
G1 X141.108 Y72.64 E28.84343
G0 F6000 X141.006 Y73.027
;TYPE:WALL-INNER
