;FLAVOR:Marlin
M73 P0
M73 R56
;TIME:3375
;Filament used: 2.51969m
;Layer height: 0.2
;MINX:71.53
;MINY:85.399
;MINZ:0.2
;MAXX:152.995
;MAXY:154.854
;MAXZ:4
;POSTPROCESSED
;Generated with Cura_SteamEngine 5.0.0
M140 S50
M105
M190 S50
M104 S215
M105
M109 S215
M82 ;absolute extrusion mode
; Ender 3 Custom Start G-code
G92 E0 ; Reset Extruder
G28 ; Home all axes
G1 Z2.0 F3000 ; Move Z Axis up little to prevent scratching of Heat Bed
G1 X0.1 Y20 Z0.3 F5000.0 ; Move to start position
G1 X0.1 Y200.0 Z0.3 F1500.0 E15 ; Draw the first line
G1 X0.4 Y200.0 Z0.3 F5000.0 ; Move to side a little
G1 X0.4 Y20 Z0.3 F1500.0 E30 ; Draw the second line
G92 E0 ; Reset Extruder
G1 Z2.0 F3000 ; Move Z Axis up little to prevent scratching of Heat Bed
G1 X5 Y20 Z0.3 F5000.0 ; Move over to prevent blob squish
G92 E0
G92 E0
G1 F2700 E-5
;LAYER_COUNT:20
;LAYER:0
M107
G0 F6000 X77.579 Y87.886 Z0.2
G0 X71.531 Y98.949
;TYPE:SKIRT
G1 F2700 E0
G1 F1200 X71.541 Y98.247 E0.02335
G1 X71.594 Y97.311 E0.05453
G1 X71.727 Y96.383 E0.08571
G1 X71.939 Y95.469 E0.11692
G1 X72.227 Y94.576 E0.14813
G1 X72.591 Y93.712 E0.17931
G1 X73.027 Y92.881 E0.21052
G1 X73.532 Y92.091 E0.24171
G1 X74.102 Y91.347 E0.27288
G1 X74.587 Y90.805 E0.29707
G1 X75.081 Y90.292 E0.32076
G1 X76.393 Y88.981 E0.38245
G1 X76.879 Y88.51 E0.40496
G1 X77.579 Y87.886 E0.43615
G1 X78.331 Y87.325 E0.46735
G1 X79.127 Y86.83 E0.49853
G1 X79.963 Y86.404 E0.52974
G1 X80.832 Y86.051 E0.56093
G1 X81.727 Y85.773 E0.5921
G1 X82.644 Y85.573 E0.62332
G1 X83.573 Y85.451 E0.65448
G1 X84.337 Y85.411 E0.67993
G1 X85.092 Y85.399 E0.70504
G1 X139.288 Y85.399 E2.50761
G1 X140.146 Y85.41 E2.53615
G1 X141.082 Y85.463 E2.56733
G1 X142.011 Y85.596 E2.59855
G1 X142.924 Y85.808 E2.62972
G1 X143.817 Y86.096 E2.66093
G1 X144.681 Y86.46 E2.69211
G1 X145.512 Y86.896 E2.72332
G1 X146.302 Y87.401 E2.75451
G1 X147.046 Y87.971 E2.78568
G1 X147.563 Y88.432 E2.80872
G1 X148.084 Y88.932 E2.83274
G1 X149.421 Y90.271 E2.89567
G1 X149.892 Y90.758 E2.91821
G1 X150.515 Y91.459 E2.9494
G1 X151.075 Y92.211 E2.98058
G1 X151.57 Y93.008 E3.01179
G1 X151.995 Y93.844 E3.04298
G1 X152.347 Y94.713 E3.07417
G1 X152.624 Y95.609 E3.10536
G1 X152.823 Y96.526 E3.13657
G1 X152.944 Y97.456 E3.16776
G1 X152.983 Y98.208 E3.19281
G1 X152.995 Y98.962 E3.21789
G1 X152.994 Y138.475 E4.53209
G1 X152.984 Y139.177 E4.55545
G1 X152.931 Y140.113 E4.58663
G1 X152.798 Y141.041 E4.61781
G1 X152.586 Y141.955 E4.64901
G1 X152.298 Y142.848 E4.68022
G1 X151.934 Y143.712 E4.71141
G1 X151.498 Y144.543 E4.74262
G1 X150.993 Y145.333 E4.7738
G1 X150.423 Y146.077 E4.80498
G1 X149.913 Y146.646 E4.83039
G1 X149.385 Y147.191 E4.85563
G1 X145.365 Y151.21 E5.04469
G1 X144.821 Y151.738 E5.06991
G1 X144.121 Y152.362 E5.1011
G1 X143.37 Y152.924 E5.1323
G1 X142.574 Y153.42 E5.16349
G1 X141.739 Y153.847 E5.19468
G1 X140.87 Y154.2 E5.22588
G1 X139.975 Y154.479 E5.25706
G1 X139.059 Y154.68 E5.28825
G1 X138.129 Y154.802 E5.31945
G1 X137.341 Y154.844 E5.34569
G1 X136.613 Y154.854 E5.36991
G1 X85.08 Y154.853 E7.0839
G1 X84.379 Y154.843 E7.10722
G1 X83.443 Y154.79 E7.1384
G1 X82.514 Y154.657 E7.16962
G1 X81.601 Y154.445 E7.20079
G1 X80.708 Y154.157 E7.232
G1 X79.844 Y153.793 E7.26318
G1 X79.013 Y153.357 E7.2944
G1 X78.223 Y152.852 E7.32558
G1 X77.479 Y152.282 E7.35675
G1 X76.943 Y151.803 E7.38066
G1 X76.41 Y151.29 E7.40527
G1 X75.112 Y149.99 E7.46637
G1 X74.641 Y149.504 E7.48888
G1 X74.017 Y148.804 E7.52007
G1 X73.456 Y148.052 E7.55127
G1 X72.961 Y147.256 E7.58245
G1 X72.535 Y146.42 E7.61366
G1 X72.182 Y145.551 E7.64485
G1 X71.904 Y144.656 E7.67602
G1 X71.704 Y143.739 E7.70724
G1 X71.582 Y142.81 E7.7384
G1 X71.542 Y142.046 E7.76385
G1 X71.53 Y141.292 E7.78893
G1 X71.531 Y98.949 E9.19727
G0 F6000 X71.931 Y98.955
G1 F1200 X71.941 Y98.253 E9.22062
G1 X71.994 Y97.334 E9.25123
G1 X72.127 Y96.423 E9.28185
G1 X72.338 Y95.527 E9.31247
G1 X72.626 Y94.652 E9.34311
G1 X72.989 Y93.806 E9.37373
G1 X73.424 Y92.995 E9.40434
G1 X73.928 Y92.224 E9.43497
G1 X74.496 Y91.5 E9.46558
G1 X74.876 Y91.081 E9.48439
G1 X75.364 Y90.575 E9.50778
G1 X76.671 Y89.268 E9.56925
G1 X77.157 Y88.797 E9.59176
G1 X77.845 Y88.186 E9.62237
G1 X78.584 Y87.636 E9.65301
G1 X79.368 Y87.153 E9.68363
G1 X80.19 Y86.74 E9.71423
G1 X81.046 Y86.399 E9.74488
G1 X81.928 Y86.134 E9.77551
G1 X82.829 Y85.947 E9.80611
G1 X83.743 Y85.839 E9.83672
G1 X84.344 Y85.811 E9.85674
G1 X85.092 Y85.799 E9.88162
G1 X139.288 Y85.799 E11.68418
G1 X140.14 Y85.81 E11.71252
G1 X141.059 Y85.863 E11.74314
G1 X141.97 Y85.996 E11.77376
G1 X142.866 Y86.207 E11.80438
G1 X143.741 Y86.495 E11.83502
G1 X144.587 Y86.858 E11.86564
G1 X145.398 Y87.293 E11.89624
G1 X146.169 Y87.797 E11.92688
G1 X146.893 Y88.366 E11.95751
G1 X147.288 Y88.722 E11.97519
G1 X147.801 Y89.215 E11.99886
G1 X149.133 Y90.549 E12.06156
M73 P1
G1 X149.604 Y91.036 E12.08409
G1 X150.215 Y91.725 E12.11472
G1 X150.764 Y92.464 E12.14534
G1 X151.246 Y93.248 E12.17595
G1 X151.659 Y94.071 E12.20658
G1 X151.998 Y94.927 E12.2372
G1 X152.262 Y95.809 E12.26782
G1 X152.449 Y96.711 E12.29846
G1 X152.556 Y97.625 E12.32907
G1 X152.583 Y98.215 E12.34871
G1 X152.595 Y98.962 E12.37356
G1 X152.594 Y138.469 E13.68757
G1 X152.584 Y139.171 E13.71092
G1 X152.531 Y140.09 E13.74154
G1 X152.398 Y141.001 E13.77216
G1 X152.187 Y141.897 E13.80277
G1 X151.899 Y142.772 E13.83341
G1 X151.536 Y143.618 E13.86403
G1 X151.101 Y144.429 E13.89464
G1 X150.597 Y145.2 E13.92528
G1 X150.029 Y145.924 E13.95588
G1 X149.624 Y146.369 E13.9759
G1 X149.102 Y146.908 E14.00085
G1 X145.087 Y150.923 E14.1897
G1 X144.543 Y151.451 E14.21492
G1 X143.855 Y152.063 E14.24555
G1 X143.116 Y152.613 E14.27619
G1 X142.333 Y153.097 E14.3068
G1 X141.511 Y153.511 E14.33741
G1 X140.656 Y153.852 E14.36803
G1 X139.774 Y154.118 E14.39867
G1 X138.873 Y154.306 E14.42928
G1 X137.959 Y154.415 E14.4599
G1 X137.334 Y154.444 E14.48071
G1 X136.613 Y154.454 E14.50469
G1 X85.086 Y154.453 E16.21848
G1 X84.385 Y154.443 E16.2418
G1 X83.466 Y154.39 E16.27242
G1 X82.555 Y154.257 E16.30304
G1 X81.659 Y154.046 E16.33366
G1 X80.784 Y153.758 E16.3643
G1 X79.938 Y153.395 E16.39491
G1 X79.127 Y152.96 E16.42552
G1 X78.356 Y152.456 E16.45616
G1 X77.632 Y151.887 E16.48679
G1 X77.219 Y151.514 E16.5053
G1 X76.693 Y151.007 E16.5296
G1 X75.399 Y149.712 E16.59048
G1 X74.928 Y149.226 E16.61299
G1 X74.317 Y148.538 E16.6436
G1 X73.767 Y147.799 E16.67424
G1 X73.284 Y147.015 E16.70487
G1 X72.871 Y146.193 E16.73546
G1 X72.53 Y145.337 E16.76611
G1 X72.265 Y144.455 E16.79674
G1 X72.078 Y143.554 E16.82735
G1 X71.97 Y142.64 E16.85796
G1 X71.942 Y142.039 E16.87797
G1 X71.93 Y141.292 E16.90282
G1 X71.931 Y98.955 E18.31095
G0 F6000 X72.331 Y98.961
G1 F1200 X72.341 Y98.259 E18.3343
G1 X72.394 Y97.357 E18.36435
G1 X72.526 Y96.464 E18.39438
G1 X72.737 Y95.586 E18.42441
G1 X73.025 Y94.73 E18.45445
G1 X73.387 Y93.902 E18.48451
G1 X73.821 Y93.11 E18.51454
G1 X74.324 Y92.36 E18.54458
G1 X75.165 Y91.358 E18.58809
G1 X75.646 Y90.858 E18.61117
G1 X76.949 Y89.555 E18.67246
G1 X77.435 Y89.084 E18.69497
G1 X78.111 Y88.485 E18.72501
G1 X78.837 Y87.948 E18.75504
G1 X79.608 Y87.477 E18.78509
G1 X80.417 Y87.077 E18.81511
G1 X81.259 Y86.749 E18.84516
G1 X82.126 Y86.497 E18.87519
G1 X83.012 Y86.323 E18.90522
G1 X84.351 Y86.211 E18.94991
G1 X85.092 Y86.199 E18.97456
G1 X139.288 Y86.199 E20.77713
G1 X140.134 Y86.21 E20.80527
G1 X141.036 Y86.263 E20.83532
G1 X141.929 Y86.395 E20.86535
G1 X142.808 Y86.606 E20.89541
G1 X143.664 Y86.894 E20.92545
G1 X144.491 Y87.256 E20.95548
G1 X145.283 Y87.69 E20.98552
G1 X146.033 Y88.193 E21.01555
G1 X147.012 Y89.012 E21.058
G1 X147.518 Y89.498 E21.08134
G1 X148.846 Y90.827 E21.14383
G1 X149.317 Y91.314 E21.16636
G1 X149.915 Y91.99 E21.19638
G1 X150.452 Y92.717 E21.22644
G1 X150.922 Y93.488 E21.25647
G1 X151.322 Y94.298 E21.28652
G1 X151.648 Y95.14 E21.31655
G1 X151.899 Y96.007 E21.34657
G1 X152.072 Y96.894 E21.37663
G1 X152.183 Y98.222 E21.42095
G1 X152.195 Y98.962 E21.44557
G1 X152.194 Y138.463 E22.75938
G1 X152.184 Y139.165 E22.78273
G1 X152.131 Y140.067 E22.81278
G1 X151.999 Y140.96 E22.84281
G1 X151.788 Y141.838 E22.87284
G1 X151.5 Y142.694 E22.90288
G1 X151.138 Y143.522 E22.93293
G1 X150.704 Y144.314 E22.96297
G1 X150.201 Y145.064 E22.99301
G1 X149.336 Y146.091 E23.03767
G1 X148.819 Y146.626 E23.06241
G1 X144.808 Y150.636 E23.25105
G1 X144.264 Y151.164 E23.27627
G1 X143.589 Y151.764 E23.30631
G1 X142.863 Y152.302 E23.33636
G1 X142.093 Y152.773 E23.36638
G1 X141.284 Y153.174 E23.39641
G1 X140.442 Y153.502 E23.42647
G1 X139.575 Y153.755 E23.45651
G1 X138.689 Y153.93 E23.48655
G1 X137.791 Y154.025 E23.51658
G1 X137.328 Y154.044 E23.53199
G1 X136.613 Y154.054 E23.55578
G1 X85.092 Y154.053 E25.26937
G1 X84.391 Y154.043 E25.29269
G1 X83.489 Y153.99 E25.32274
G1 X82.596 Y153.858 E25.35277
G1 X81.717 Y153.647 E25.38283
G1 X80.861 Y153.359 E25.41287
G1 X80.034 Y152.997 E25.4429
G1 X79.242 Y152.563 E25.47293
G1 X78.492 Y152.06 E25.50297
G1 X77.495 Y151.224 E25.54625
G1 X76.976 Y150.724 E25.57022
M73 P2
G1 X75.686 Y149.434 E25.63089
G1 X75.215 Y148.948 E25.6534
G1 X74.616 Y148.272 E25.68344
G1 X74.079 Y147.546 E25.71348
G1 X73.608 Y146.775 E25.74353
G1 X73.208 Y145.966 E25.77354
G1 X72.88 Y145.124 E25.8036
G1 X72.628 Y144.257 E25.83363
G1 X72.454 Y143.371 E25.86366
G1 X72.342 Y142.032 E25.90835
G1 X72.33 Y141.292 E25.93297
G1 X72.331 Y98.961 E27.3409
G1 F2700 E22.3409
;MESH:gearStand2.stl
G0 F6000 X94.174 Y109.502
G0 X94.77 Y110.4
G0 X95.115 Y110.689
G0 X95.706 Y111.002
G1 F2700 E27.3409
G0 F6000 X95.759 Y110.595
;TYPE:WALL-OUTER
G1 F1200 X95.4 Y110.469 E27.35356
G1 X95.064 Y110.2 E27.36787
G1 X94.835 Y109.83 E27.38234
G1 X94.748 Y109.407 E27.39671
G1 X94.81 Y108.978 E27.41113
G1 X94.956 Y108.678 E27.42222
G1 X95.207 Y108.401 E27.43465
G1 X95.584 Y108.19 E27.44902
G1 X96.013 Y108.122 E27.46347
G1 X96.438 Y108.204 E27.47787
G1 X96.813 Y108.428 E27.4924
G1 X97.085 Y108.76 E27.50667
G1 X97.209 Y109.073 E27.51787
G1 X97.236 Y109.494 E27.5319
G1 X97.231 Y109.551 E27.5338
G1 X97.137 Y109.88 E27.54518
G1 X96.904 Y110.228 E27.55911
G1 X96.599 Y110.465 E27.57196
G1 X96.189 Y110.603 E27.58635
G1 X95.759 Y110.595 E27.60065
G0 F6000 X96.281 Y110.992
;TYPE:WALL-INNER
G1 F1200 X95.741 Y110.995 E27.61861
G1 X95.258 Y110.843 E27.63545
G1 X95.084 Y110.741 E27.64216
G1 X94.806 Y110.506 E27.65427
G1 X94.676 Y110.35 E27.66102
G1 X94.49 Y110.032 E27.67328
G1 X94.417 Y109.834 E27.6803
G1 X94.353 Y109.476 E27.69239
G1 X94.353 Y109.268 E27.69931
G1 X94.416 Y108.909 E27.71143
G1 X94.601 Y108.493 E27.72658
G1 X94.916 Y108.127 E27.74264
G1 X95.398 Y107.836 E27.76136
G1 X95.6 Y107.772 E27.76841
G1 X95.961 Y107.726 E27.78051
G1 X96.17 Y107.735 E27.78747
G1 X96.525 Y107.814 E27.79957
G1 X96.716 Y107.893 E27.80644
G1 X97.027 Y108.09 E27.81869
G1 X97.179 Y108.229 E27.82554
G1 X97.401 Y108.515 E27.83758
G1 X97.585 Y108.937 E27.85289
G1 X97.636 Y109.476 E27.8709
G1 X97.62 Y109.645 E27.87655
G1 X97.526 Y109.977 E27.88802
G1 X97.232 Y110.456 E27.90672
G1 X96.835 Y110.787 E27.92391
G1 X96.657 Y110.877 E27.93054
G1 X96.281 Y110.992 E27.94362
G1 F2700 E22.94362
G0 F6000 X96.283 Y111.003
G0 X97.59 Y110.259
G0 X115.334 Y110.124
G0 X116.197 Y110.758
G0 X116.569 Y110.901
G0 X117.276 Y111.004
G1 F2700 E27.94362
G0 F6000 X117.189 Y110.603
;TYPE:WALL-OUTER
G1 F1200 X116.759 Y110.595 E27.95792
G1 X116.4 Y110.469 E27.97058
G1 X116.064 Y110.2 E27.98489
G1 X115.835 Y109.83 E27.99937
G1 X115.748 Y109.407 E28.01373
G1 X115.745 Y109.387 E28.0144
G1 X115.811 Y108.978 E28.02818
G1 X115.956 Y108.678 E28.03926
G1 X116.207 Y108.401 E28.0517
G1 X116.584 Y108.19 E28.06607
G1 X117.013 Y108.122 E28.08051
G1 X117.438 Y108.204 E28.09491
G1 X117.813 Y108.428 E28.10944
G1 X118.086 Y108.76 E28.12373
G1 X118.209 Y109.073 E28.13492
G1 X118.236 Y109.494 E28.14895
G1 X118.141 Y109.867 E28.16175
G1 X117.904 Y110.228 E28.17612
G1 X117.599 Y110.465 E28.18896
G1 X117.189 Y110.603 E28.20335
G0 F6000 X117.281 Y110.992
;TYPE:WALL-INNER
G1 F1200 X116.741 Y110.995 E28.22131
G1 X116.258 Y110.843 E28.23815
G1 X116.084 Y110.741 E28.24486
G1 X115.776 Y110.479 E28.25831
G1 X115.49 Y110.032 E28.27596
G1 X115.417 Y109.834 E28.28298
G1 X115.347 Y109.429 E28.29665
G1 X115.346 Y109.416 E28.29708
G1 X115.417 Y108.909 E28.31411
G1 X115.601 Y108.493 E28.32924
G1 X115.916 Y108.127 E28.3453
G1 X116.398 Y107.836 E28.36403
G1 X116.6 Y107.772 E28.37107
G1 X116.961 Y107.726 E28.38318
G1 X117.17 Y107.735 E28.39014
G1 X117.525 Y107.814 E28.40223
G1 X117.716 Y107.893 E28.40911
G1 X118.027 Y108.09 E28.42135
G1 X118.179 Y108.229 E28.4282
G1 X118.402 Y108.515 E28.44026
G1 X118.585 Y108.937 E28.45556
G1 X118.636 Y109.476 E28.47357
G1 X118.526 Y109.977 E28.49063
G1 X118.232 Y110.456 E28.50932
G1 X117.835 Y110.787 E28.52652
G1 X117.657 Y110.877 E28.53315
G1 X117.281 Y110.992 E28.54623
G1 F2700 E23.54623
G0 F6000 X117.283 Y111.003
G0 X118.59 Y110.258
G0 X128.334 Y110.125
G0 X129.032 Y110.637
G0 X129.706 Y111.002
G1 F2700 E28.54623
M73 P3
G0 F6000 X129.759 Y110.595
;TYPE:WALL-OUTER
G1 F1200 X129.4 Y110.469 E28.55888
G1 X129.064 Y110.2 E28.5732
G1 X128.835 Y109.831 E28.58764
G1 X128.748 Y109.407 E28.60204
G1 X128.811 Y108.978 E28.61646
G1 X128.956 Y108.678 E28.62754
G1 X129.207 Y108.401 E28.63997
G1 X129.584 Y108.19 E28.65434
G1 X130.013 Y108.122 E28.66879
G1 X130.438 Y108.204 E28.68319
G1 X130.813 Y108.428 E28.69772
G1 X131.086 Y108.76 E28.71201
G1 X131.209 Y109.073 E28.7232
G1 X131.236 Y109.494 E28.73723
G1 X131.234 Y109.538 E28.73869
G1 X131.141 Y109.867 E28.75006
G1 X130.904 Y110.228 E28.76443
G1 X130.691 Y110.397 E28.77347
G1 X130.539 Y110.495 E28.77949
G1 X130.172 Y110.607 E28.79225
G1 X129.759 Y110.595 E28.80599
G0 F6000 X129.257 Y110.843
;TYPE:WALL-INNER
G1 F1200 X129.084 Y110.741 E28.81267
G1 X128.783 Y110.485 E28.82581
G1 X128.49 Y110.033 E28.84373
G1 X128.417 Y109.834 E28.85078
G1 X128.347 Y109.432 E28.86435
G1 X128.417 Y108.909 E28.8819
G1 X128.601 Y108.493 E28.89703
G1 X128.916 Y108.127 E28.91309
G1 X129.398 Y107.836 E28.93182
G1 X129.6 Y107.772 E28.93887
G1 X129.961 Y107.726 E28.95097
G1 X130.17 Y107.735 E28.95793
G1 X130.525 Y107.814 E28.97002
G1 X130.716 Y107.893 E28.9769
G1 X131.027 Y108.09 E28.98914
G1 X131.18 Y108.229 E28.99602
G1 X131.402 Y108.515 E29.00806
G1 X131.585 Y108.937 E29.02336
G1 X131.636 Y109.476 E29.04137
G1 X131.628 Y109.607 E29.04573
G1 X131.526 Y109.977 E29.0585
G1 X131.233 Y110.456 E29.07717
G1 X130.927 Y110.719 E29.09059
G1 X130.713 Y110.857 E29.09906
G1 X130.307 Y110.985 E29.11322
G1 X130.079 Y111.01 E29.12085
G1 X129.735 Y110.995 E29.1323
G1 X129.257 Y110.843 E29.14898
G1 F2700 E24.14898
G0 F6000 X129.253 Y110.85
G0 X130.294 Y111.175
G0 X133.889 Y117.774
G0 X133.243 Y119.116
G0 X133.083 Y119.842
G0 X133.115 Y120.585
G0 X133.341 Y121.292
G0 X133.742 Y121.919
G0 X134.613 Y122.682
G1 F2700 E29.14898
G0 F6000 X134.785 Y122.312
;TYPE:WALL-OUTER
G1 F1200 X134.335 Y122.016 E29.1669
G1 X134.02 Y121.707 E29.18157
G1 X133.767 Y121.351 E29.1961
G1 X133.579 Y120.957 E29.21062
G1 X133.462 Y120.527 E29.22544
G1 X133.423 Y120.104 E29.23957
G1 X133.452 Y119.686 E29.25351
G1 X133.56 Y119.264 E29.268
G1 X133.752 Y118.847 E29.28326
G1 X133.994 Y118.495 E29.29747
G1 X134.307 Y118.176 E29.31234
G1 X134.659 Y117.928 E29.32666
G1 X134.945 Y117.792 E29.33719
G1 X135.481 Y117.625 E29.35586
G1 X135.903 Y117.586 E29.36996
G1 X136.34 Y117.62 E29.38454
G1 X136.667 Y117.7 E29.39573
G1 X137.058 Y117.857 E29.40975
G1 X137.094 Y117.876 E29.4111
G1 X137.51 Y118.155 E29.42776
G1 X137.825 Y118.464 E29.44244
G1 X138.077 Y118.819 E29.45692
G1 X138.265 Y119.212 E29.47141
G1 X138.383 Y119.644 E29.4863
G1 X138.423 Y120.064 E29.50034
