; generated by PrusaSlicer 2.5.0+win64 on 2022-09-26 at 21:06:10 UTC

; 

; external perimeters extrusion width = 0.45mm
; perimeters extrusion width = 0.45mm
; infill extrusion width = 0.45mm
; solid infill extrusion width = 0.45mm
; top infill extrusion width = 0.40mm
; first layer extrusion width = 0.42mm

M107
;TYPE:Custom
G90 ; use absolute coordinates
M83 ; extruder relative mode
M140 S55 ; set final bed temp
M104 S150 ; set temporary nozzle temp to prevent oozing during homing
G4 S10 ; allow partial nozzle warmup
G28 ; home all axis
G1 Z50 F240
G1 X2 Y10 F3000
M104 S215 ; set final nozzle temp
M190 S55 ; wait for bed temp to stabilize
M109 S215 ; wait for nozzle temp to stabilize
G1 Z0.28 F240
G92 E0
G1 Y140 E10 F1500 ; prime the nozzle
G1 X2.3 F5000
G92 E0
G1 Y10 E10 F1200 ; prime the nozzle
G92 E0
G21 ; set units to millimeters
G90 ; use absolute coordinates
M83 ; use relative distances for extrusion
; Filament gcode
M107
;LAYER_CHANGE
;Z:0.2
;HEIGHT:0.2
;BEFORE_LAYER_CHANGE
G92 E0
;0.2


G1 E-5 F3600
G1 Z.2 F9000
;AFTER_LAYER_CHANGE
;0.2
G1 X97.661 Y93.502
G1 E5 F2400
M204 S500
;TYPE:Skirt/Brim
;WIDTH:0.42
G1 F1200
G1 X97.955 Y93.194 E.01336
G1 X99.799 Y91.714 E.07415
G1 X101.813 Y90.49 E.07387
G1 X103.954 Y89.545 E.07339
G1 X106.227 Y88.878 E.07427
G1 X108.544 Y88.516 E.07354
G1 X110.279 Y88.442 E.05444
G1 X112.483 Y88.591 E.06927
G1 X114.076 Y88.868 E.05069
G1 X128.615 Y92 E.46631
G1 X130.074 Y92.412 E.04755
G1 X131.493 Y92.949 E.04755
G1 X132.871 Y93.612 E.04795
G1 X134.176 Y94.386 E.04759
G1 X135.398 Y95.261 E.04712
G1 X136.561 Y96.256 E.04798
G1 X137.615 Y97.328 E.04712
G1 X138.587 Y98.504 E.04784
G1 X139.448 Y99.752 E.04755
G1 X140.259 Y101.189 E.05173
G1 X141.156 Y103.297 E.07183
G1 X141.765 Y105.482 E.07112
G1 X144.145 Y120.025 E.46204
G1 X144.343 Y122.421 E.0754
G1 X144.308 Y123.812 E.04361
G1 X144.144 Y125.327 E.0478
G1 X143.649 Y127.573 E.07211
G1 X143.102 Y129.167 E.05284
G1 X142.118 Y131.237 E.07186
G1 X140.955 Y133.052 E.06758
G1 X139.49 Y134.804 E.07161
G1 X137.79 Y136.367 E.07241
G1 X136.435 Y137.355 E.05258
G1 X134.448 Y138.485 E.07168
G1 X132.443 Y139.311 E.06797
G1 X130.229 Y139.908 E.0719
G1 X128.564 Y140.16 E.0528
G1 X126.268 Y140.245 E.07204
G1 X123.981 Y140.029 E.07204
G1 X121.757 Y139.522 E.0715
G1 X119.726 Y138.779 E.06782
G1 X117.682 Y137.721 E.07215
G1 X116.309 Y136.802 E.0518
G1 X107.743 Y130.314 E.33692
G1 X106.805 Y129.504 E.03888
G1 X96.265 Y118.068 E.48761
G1 X94.889 Y116.173 E.07346
G1 X93.758 Y114.092 E.07425
G1 X92.912 Y111.892 E.0739
G1 X92.479 Y110.226 E.05399
G1 X92.147 Y107.892 E.0739
G1 X92.121 Y105.553 E.07335
G1 X92.376 Y103.343 E.06975
G1 X92.94 Y101.054 E.0739
G1 X93.799 Y98.857 E.07397
G1 X94.935 Y96.791 E.07394
G1 X96.328 Y94.895 E.07375
G1 X97.619 Y93.546 E.05856
G1 E-3.5 F3600
;WIPE_START
G1 F7200
G1 X97.955 Y93.194 E-.23087
G1 X99.799 Y91.714 E-1.12339
G1 X99.927 Y91.636 E-.07074
;WIPE_END
G1 E-.075 F3600
G1 X100.306 Y96.567 F9000
G1 E5 F2400
;TYPE:Perimeter
;WIDTH:0.419999
G1 F1200
G1 X100.748 Y96.147 E.01911
G1 X101.208 Y95.747 E.01911
G1 X101.685 Y95.368 E.01911
G1 X102.178 Y95.009 E.01911
G1 X102.686 Y94.673 E.01911
G1 X103.206 Y94.36 E.01903
G1 X103.743 Y94.067 E.01919
G1 X104.291 Y93.799 E.01911
G1 X104.849 Y93.556 E.01911
G1 X105.418 Y93.337 E.01911
G1 X105.996 Y93.142 E.01911
G1 X106.581 Y92.973 E.01911
G1 X107.174 Y92.83 E.01911
G1 X107.772 Y92.713 E.01911
G1 X108.374 Y92.621 E.01911
G1 X108.98 Y92.556 E.01911
G1 X109.584 Y92.518 E.01897
G1 X110.5 Y92.513 E.02872
G1 X111.248 Y92.553 E.02348
G1 X111.893 Y92.614 E.02032
G1 X112.496 Y92.702 E.01911
G1 X113.094 Y92.816 E.01911
G1 X113.687 Y92.956 E.0191
G1 X114.274 Y93.122 E.01911
G1 X114.852 Y93.313 E.0191
G1 X115.422 Y93.529 E.0191
G1 X115.982 Y93.77 E.0191
G1 X116.531 Y94.035 E.01911
G1 X117.068 Y94.323 E.01911
G1 X117.543 Y94.605 E.01731
G1 X119.079 Y95.648 E.05824
G1 X119.536 Y95.861 E.01582
G1 X120.034 Y96 E.01618
G1 X120.536 Y96.055 E.01584
G1 X121.034 Y96.032 E.01564
G1 X122.538 Y95.743 E.04802
G1 X123.111 Y95.669 E.01812
G1 X123.692 Y95.618 E.01829
G1 X124.275 Y95.593 E.01828
G1 X124.858 Y95.593 E.01828
G1 X125.44 Y95.619 E.01828
G1 X126.021 Y95.669 E.01828
G1 X126.6 Y95.744 E.01828
G1 X127.174 Y95.844 E.01828
G1 X127.744 Y95.969 E.01828
G1 X128.307 Y96.118 E.01828
G1 X128.864 Y96.292 E.01829
G1 X129.413 Y96.489 E.01828
G1 X129.952 Y96.71 E.01828
G1 X130.482 Y96.954 E.01828
G1 X131.001 Y97.221 E.01828
G1 X131.507 Y97.509 E.01828
G1 X132.001 Y97.82 E.01829
G1 X132.481 Y98.151 E.01828
G1 X132.946 Y98.503 E.01828
G1 X133.396 Y98.874 E.01828
G1 X133.829 Y99.265 E.01828
G1 X134.244 Y99.673 E.01828
G1 X134.642 Y100.1 E.01828
G1 X135.021 Y100.543 E.01828
G1 X135.381 Y101.002 E.01828
G1 X135.72 Y101.476 E.01828
G1 X136.039 Y101.964 E.01829
G1 X136.336 Y102.466 E.01828
G1 X136.612 Y102.98 E.01828
G1 X136.865 Y103.505 E.01829
G1 X137.095 Y104.041 E.01828
G1 X137.301 Y104.586 E.01828
G1 X137.484 Y105.14 E.01828
G1 X137.643 Y105.701 E.01828
G1 X137.777 Y106.266 E.01821
G1 X137.888 Y106.841 E.01836
G1 X137.973 Y107.418 E.01828
G1 X138.033 Y107.998 E.01828
G1 X138.068 Y108.58 E.01828
G1 X138.078 Y109.163 E.01828
G1 X138.063 Y109.746 E.01828
G1 X138.023 Y110.328 E.01828
G1 X137.958 Y110.907 E.01828
G1 X137.868 Y111.478 E.01812
G1 X137.534 Y113.003 E.04895
G1 X137.505 Y113.51 E.01591
G1 X137.543 Y113.953 E.01396
G1 X137.662 Y114.439 E.01568
G1 X137.853 Y114.9 E.01562
G1 X138.468 Y115.933 E.03771
G1 X138.799 Y116.529 E.02137
G1 X139.053 Y117.053 E.01825
G1 X139.286 Y117.593 E.01846
G1 X139.495 Y118.143 E.01846
G1 X139.681 Y118.702 E.01846
G1 X139.842 Y119.269 E.01846
G1 X139.978 Y119.842 E.01846
G1 X140.089 Y120.42 E.01846
G1 X140.174 Y121.003 E.01847
G1 X140.234 Y121.588 E.01846
G1 X140.269 Y122.177 E.01847
G1 X140.277 Y123.017 E.02635
G1 X140.249 Y123.606 E.01847
G1 X140.196 Y124.192 E.01848
G1 X140.117 Y124.776 E.01847
G1 X140.013 Y125.356 E.01847
G1 X139.883 Y125.931 E.01848
G1 X139.729 Y126.499 E.01847
G1 X139.55 Y127.061 E.01847
G1 X139.347 Y127.614 E.01847
G1 X139.119 Y128.157 E.01847
G1 X138.869 Y128.691 E.01847
G1 X138.595 Y129.212 E.01847
G1 X138.3 Y129.72 E.0184
G1 X137.981 Y130.218 E.01855
G1 X137.641 Y130.699 E.01847
G1 X137.283 Y131.164 E.0184
G1 X136.901 Y131.616 E.01855
G1 X136.502 Y132.049 E.01847
G1 X136.084 Y132.464 E.01847
G1 X135.648 Y132.861 E.01847
G1 X135.196 Y133.238 E.01847
G1 X134.727 Y133.596 E.01847
G1 X134.244 Y133.932 E.01847
G1 X133.746 Y134.247 E.01848
G1 X133.235 Y134.541 E.01847
G1 X132.712 Y134.811 E.01847
G1 X132.177 Y135.059 E.01847
G1 X131.632 Y135.283 E.01847
G1 X131.078 Y135.483 E.01847
G1 X130.515 Y135.658 E.01847
G1 X129.946 Y135.809 E.01847
G1 X129.37 Y135.935 E.01847
G1 X128.79 Y136.036 E.01847
G1 X128.205 Y136.112 E.01847
G1 X127.618 Y136.161 E.01847
G1 X127.03 Y136.186 E.01847
G1 X126.44 Y136.184 E.01847
G1 X125.852 Y136.157 E.01847
G1 X125.265 Y136.104 E.01847
G1 X124.681 Y136.026 E.01847
G1 X124.101 Y135.922 E.01847
G1 X123.526 Y135.793 E.01847
G1 X122.957 Y135.64 E.01848
G1 X122.396 Y135.461 E.01847
G1 X121.843 Y135.258 E.01847
G1 X121.299 Y135.032 E.01847
G1 X120.766 Y134.781 E.01847
G1 X120.246 Y134.509 E.0184
G1 X119.734 Y134.213 E.01855
G1 X119.238 Y133.895 E.01847
G1 X118.756 Y133.556 E.01847
G1 X118.289 Y133.196 E.01847
G1 X117.838 Y132.817 E.01847
G1 X117.405 Y132.418 E.01847
G1 X116.989 Y132 E.01848
G1 X116.592 Y131.565 E.01847
G1 X116.214 Y131.113 E.01847
G1 X115.859 Y130.649 E.01831
G1 X114.918 Y129.272 E.0523
G1 X114.335 Y128.726 E.02506
G1 X113.84 Y128.436 E.01797
G1 X113.115 Y128.19 E.024
G1 X112.098 Y127.999 E.03245
G1 X111.44 Y127.775 E.0218
G1 X110.864 Y127.505 E.01994
G1 X110.422 Y127.236 E.01621
G1 X110.01 Y126.925 E.01621
G1 X109.487 Y126.417 E.02285
G1 X108.992 Y125.815 E.02443
G1 X108.697 Y125.343 E.01747
G1 X108.469 Y124.886 E.01601
G1 X108.239 Y124.25 E.02121
G1 X108.111 Y123.743 E.01638
G1 X108.036 Y123.232 E.0162
G1 X107.977 Y122.454 E.02447
G1 X107.823 Y121.806 E.0209
G1 X107.698 Y121.532 E.00942
G1 X107.375 Y120.966 E.02044
G1 X106.824 Y120.389 E.02501
G1 X106.247 Y120.019 E.02147
G1 X104.672 Y119.407 E.05301
G1 X104.116 Y119.156 E.01911
G1 X103.573 Y118.881 E.01911
G1 X103.041 Y118.582 E.01911
G1 X102.524 Y118.261 E.01911
G1 X102.02 Y117.917 E.01911
G1 X101.532 Y117.552 E.01911
G1 X101.061 Y117.166 E.01911
G1 X100.606 Y116.759 E.01911
G1 X100.17 Y116.334 E.01911
G1 X99.753 Y115.89 E.01911
G1 X99.355 Y115.428 E.01911
G1 X98.978 Y114.949 E.01911
G1 X98.625 Y114.458 E.01897
G1 X98.132 Y113.683 E.02879
G1 X97.686 Y112.881 E.02879
G1 X97.423 Y112.336 E.01898
G1 X97.182 Y111.776 E.01911
G1 X96.965 Y111.206 E.01911
G1 X96.774 Y110.627 E.01911
G1 X96.608 Y110.041 E.01911
G1 X96.468 Y109.448 E.01911
G1 X96.353 Y108.849 E.01911
G1 X96.265 Y108.246 E.01911
G1 X96.203 Y107.64 E.01911
G1 X96.168 Y107.032 E.01911
G1 X96.159 Y106.422 E.01911
G1 X96.176 Y105.813 E.01911
G1 X96.22 Y105.205 E.01911
G1 X96.29 Y104.6 E.01911
G1 X96.387 Y103.998 E.01911
G1 X96.509 Y103.401 E.01911
G1 X96.657 Y102.813 E.01903
G1 X96.832 Y102.226 E.01919
G1 X97.031 Y101.65 E.01911
G1 X97.254 Y101.086 E.01903
G1 X97.504 Y100.527 E.01919
G1 X97.776 Y99.982 E.01911
G1 X98.072 Y99.449 E.01911
G1 X98.391 Y98.93 E.01911
G1 X98.732 Y98.425 E.01911
G1 X99.095 Y97.935 E.01911
G1 X99.479 Y97.461 E.01911
G1 X99.883 Y97.005 E.01911
G1 X100.264 Y96.61 E.01723
G1 X100.041 Y96.299 F9000
;TYPE:External perimeter
G1 F1200
G1 X100.494 Y95.868 E.01962
G1 X100.967 Y95.457 E.01962
G1 X101.456 Y95.068 E.01962
G1 X101.963 Y94.699 E.01962
G1 X102.484 Y94.354 E.01962
G1 X103.018 Y94.032 E.01954
G1 X103.57 Y93.732 E.0197
G1 X104.132 Y93.457 E.01962
G1 X104.706 Y93.207 E.01962
G1 X105.29 Y92.982 E.01962
G1 X105.883 Y92.782 E.01962
G1 X106.485 Y92.609 E.01962
G1 X107.093 Y92.462 E.01962
G1 X107.707 Y92.341 E.01962
G1 X108.326 Y92.247 E.01962
G1 X108.948 Y92.181 E.01962
G1 X109.571 Y92.141 E.01957
G1 X110.509 Y92.136 E.0294
G1 X111.45 Y92.186 E.02955
G1 X112.071 Y92.255 E.01958
G1 X112.689 Y92.351 E.01962
G1 X113.303 Y92.474 E.01962
G1 X113.91 Y92.623 E.01962
G1 X114.511 Y92.799 E.01962
G1 X115.103 Y93 E.01962
G1 X115.687 Y93.228 E.01962
G1 X116.259 Y93.48 E.01962
G1 X116.82 Y93.757 E.01963
G1 X117.369 Y94.058 E.01962
G1 X117.902 Y94.382 E.01956
G1 X119.214 Y95.292 E.05004
G1 X119.642 Y95.498 E.01491
G1 X120.101 Y95.628 E.01494
G1 X120.574 Y95.68 E.01494
G1 X120.963 Y95.662 E.0122
G1 X122.478 Y95.371 E.04837
G1 X123.07 Y95.294 E.01873
G1 X123.668 Y95.242 E.0188
G1 X124.266 Y95.216 E.01879
G1 X124.866 Y95.216 E.0188
G1 X125.465 Y95.242 E.01879
G1 X126.062 Y95.294 E.01879
G1 X126.656 Y95.371 E.01879
G1 X127.247 Y95.474 E.01879
G1 X127.832 Y95.603 E.01879
G1 X128.412 Y95.756 E.01879
G1 X128.984 Y95.934 E.0188
G1 X129.548 Y96.137 E.01879
G1 X130.103 Y96.364 E.01879
G1 X130.647 Y96.615 E.01879
G1 X131.18 Y96.889 E.01879
G1 X131.701 Y97.186 E.01879
G1 X132.209 Y97.505 E.0188
G1 X132.702 Y97.845 E.01879
G1 X133.18 Y98.207 E.01879
G1 X133.642 Y98.589 E.01879
G1 X134.087 Y98.99 E.01879
G1 X134.515 Y99.41 E.01879
G1 X134.924 Y99.848 E.01879
G1 X135.313 Y100.304 E.01879
G1 X135.683 Y100.776 E.01879
G1 X136.032 Y101.263 E.01879
G1 X136.359 Y101.765 E.0188
G1 X136.665 Y102.281 E.01879
G1 X136.948 Y102.809 E.01879
G1 X137.208 Y103.349 E.0188
G1 X137.444 Y103.9 E.01879
G1 X137.657 Y104.46 E.01879
G1 X137.845 Y105.029 E.01879
G1 X138.008 Y105.606 E.01879
G1 X138.146 Y106.187 E.01872
G1 X138.26 Y106.778 E.01887
G1 X138.347 Y107.371 E.01879
G1 X138.409 Y107.967 E.01879
G1 X138.445 Y108.566 E.01879
G1 X138.456 Y109.165 E.01879
G1 X138.44 Y109.764 E.01879
G1 X138.399 Y110.362 E.01879
G1 X138.331 Y110.958 E.01879
G1 X138.239 Y111.548 E.01874
G1 X138.018 Y112.556 E.03235
G1 X137.897 Y113.222 E.02122
G1 X137.915 Y113.889 E.02094
G1 X138.027 Y114.348 E.01479
G1 X138.177 Y114.707 E.01219
G1 X138.792 Y115.74 E.03771
G1 X139.134 Y116.356 E.0221
G1 X139.395 Y116.894 E.01877
G1 X139.635 Y117.45 E.01898
G1 X139.85 Y118.016 E.01898
G1 X140.041 Y118.59 E.01898
G1 X140.206 Y119.172 E.01898
G1 X140.346 Y119.761 E.01898
G1 X140.46 Y120.356 E.01898
G1 X140.548 Y120.955 E.01898
G1 X140.61 Y121.557 E.01898
G1 X140.646 Y122.161 E.01899
G1 X140.654 Y123.027 E.02713
G1 X140.626 Y123.631 E.01899
G1 X140.571 Y124.235 E.01899
G1 X140.49 Y124.835 E.01899
G1 X140.383 Y125.431 E.01899
G1 X140.249 Y126.022 E.01899
G1 X140.091 Y126.606 E.01899
G1 X139.907 Y127.183 E.01899
G1 X139.698 Y127.752 E.01899
G1 X139.464 Y128.31 E.01899
G1 X139.206 Y128.858 E.01899
G1 X138.925 Y129.395 E.01899
G1 X138.622 Y129.916 E.01891
G1 X138.294 Y130.428 E.01907
G1 X137.945 Y130.923 E.01899
G1 X137.576 Y131.401 E.01891
G1 X137.184 Y131.865 E.01907
G1 X136.773 Y132.311 E.01899
G1 X136.344 Y132.737 E.01899
G1 X135.896 Y133.145 E.01899
G1 X135.431 Y133.533 E.01899
G1 X134.95 Y133.901 E.01899
G1 X134.452 Y134.246 E.01899
G1 X133.941 Y134.57 E.01899
G1 X133.415 Y134.872 E.01899
G1 X132.877 Y135.15 E.01899
G1 X132.328 Y135.404 E.01899
G1 X131.768 Y135.635 E.01899
G1 X131.198 Y135.84 E.01899
G1 X130.62 Y136.021 E.01899
G1 X130.034 Y136.176 E.01899
G1 X129.443 Y136.305 E.01899
G1 X128.846 Y136.409 E.01899
G1 X128.245 Y136.487 E.01899
G1 X127.642 Y136.538 E.01899
G1 X127.037 Y136.563 E.01899
G1 X126.431 Y136.561 E.01899
G1 X125.826 Y136.533 E.01899
G1 X125.223 Y136.479 E.01899
G1 X124.623 Y136.399 E.01899
G1 X124.027 Y136.292 E.01899
G1 X123.436 Y136.16 E.01899
G1 X122.851 Y136.001 E.01899
G1 X122.274 Y135.818 E.01899
G1 X121.705 Y135.61 E.01899
G1 X121.146 Y135.377 E.01899
G1 X120.598 Y135.119 E.01899
G1 X120.063 Y134.84 E.01891
G1 X119.537 Y134.535 E.01907
G1 X119.027 Y134.208 E.01899
G1 X118.532 Y133.86 E.01899
G1 X118.052 Y133.49 E.01899
G1 X117.589 Y133.1 E.01899
G1 X117.144 Y132.69 E.01899
G1 X116.716 Y132.261 E.01899
G1 X116.308 Y131.813 E.01899
G1 X115.919 Y131.349 E.01899
G1 X115.553 Y130.869 E.01893
G1 X114.656 Y129.543 E.05019
G1 X114.155 Y129.06 E.02182
G1 X113.715 Y128.792 E.01614
G1 X113.047 Y128.561 E.02216
G1 X112.059 Y128.381 E.03151
G1 X111.573 Y128.235 E.01591
G1 X111.1 Y128.045 E.01599
G1 X110.644 Y127.816 E.01599
G1 X110.21 Y127.548 E.01599
G1 X109.801 Y127.244 E.01599
G1 X109.422 Y126.907 E.01591
G1 X108.905 Y126.337 E.02411
G1 X108.607 Y125.926 E.01591
G1 X108.345 Y125.489 E.01599
G1 X108.122 Y125.033 E.01592
G1 X107.861 Y124.312 E.02405
G1 X107.732 Y123.761 E.01773
G1 X107.66 Y123.257 E.01598
G1 X107.611 Y122.541 E.02248
G1 X107.456 Y121.893 E.0209
G1 X107.098 Y121.221 E.02387
G1 X106.613 Y120.702 E.02227
G1 X106.115 Y120.372 E.01873
G1 X104.524 Y119.754 E.05353
G1 X103.953 Y119.496 E.01962
G1 X103.395 Y119.213 E.01962
G1 X102.849 Y118.907 E.01962
G1 X102.318 Y118.577 E.01962
G1 X101.801 Y118.224 E.01962
G1 X101.3 Y117.849 E.01963
G1 X100.816 Y117.452 E.01962
G1 X100.349 Y117.035 E.01962
G1 X99.901 Y116.598 E.01962
G1 X99.472 Y116.142 E.01962
G1 X99.064 Y115.668 E.01962
G1 X98.677 Y115.176 E.01962
G1 X98.312 Y114.669 E.01957
G1 X97.808 Y113.876 E.02948
G1 X97.351 Y113.054 E.02947
G1 X97.08 Y112.492 E.01958
G1 X96.832 Y111.917 E.01962
G1 X96.61 Y111.332 E.01962
G1 X96.414 Y110.738 E.01962
G1 X96.243 Y110.136 E.01962
G1 X96.099 Y109.527 E.01962
G1 X95.982 Y108.912 E.01962
G1 X95.891 Y108.293 E.01962
G1 X95.827 Y107.67 E.01962
G1 X95.791 Y107.045 E.01962
G1 X95.781 Y106.42 E.01962
G1 X95.799 Y105.794 E.01962
G1 X95.844 Y105.17 E.01962
G1 X95.917 Y104.548 E.01962
G1 X96.016 Y103.93 E.01962
G1 X96.142 Y103.317 E.01962
G1 X96.294 Y102.713 E.01954
G1 X96.473 Y102.11 E.0197
G1 X96.678 Y101.519 E.01962
G1 X96.907 Y100.939 E.01954
G1 X97.163 Y100.366 E.01971
G1 X97.443 Y99.806 E.01962
G1 X97.747 Y99.259 E.01962
G1 X98.074 Y98.725 E.01962
G1 X98.424 Y98.207 E.01962
G1 X98.797 Y97.704 E.01962
G1 X99.191 Y97.218 E.01962
G1 X99.606 Y96.749 E.01962
G1 X99.999 Y96.342 E.01774
G1 X100.426 Y96.404 F9000
G1 E-3.5 F3600
;WIPE_START
G1 F7200
G1 X100.494 Y95.868 E-.32574
G1 X100.967 Y95.457 E-.2973
G1 X101.456 Y95.068 E-.29725
G1 X101.963 Y94.699 E-.2973
G1 X102.327 Y94.458 E-.20741
;WIPE_END
G1 E-.075 F3600
G1 X111.537 Y119.576 F9000
G1 E5 F2400
;TYPE:Perimeter
G1 F1200
G1 X112.062 Y119.29 E.01875
G1 X112.627 Y119.103 E.01866
