;FLAVOR:Marlin
M73 P0
M73 R56
;TIME:3387
;Filament used: 2.58404m
;Layer height: 0.2
;MINX:74.618
;MINY:81.408
;MINZ:0.2
;MAXX:160.382
;MAXY:153.592
;MAXZ:4
;POSTPROCESSED
;Generated with Cura_SteamEngine 5.0.0
M140 S50
M105
M190 S50
M104 S215
M105
M109 S215
M82 ;absolute extrusion mode
; Ender 3 Custom Start G-code
G92 E0 ; Reset Extruder
G28 ; Home all axes
G1 Z2.0 F3000 ; Move Z Axis up little to prevent scratching of Heat Bed
G1 X0.1 Y20 Z0.3 F5000.0 ; Move to start position
G1 X0.1 Y200.0 Z0.3 F1500.0 E15 ; Draw the first line
G1 X0.4 Y200.0 Z0.3 F5000.0 ; Move to side a little
G1 X0.4 Y20 Z0.3 F1500.0 E30 ; Draw the second line
G92 E0 ; Reset Extruder
G1 Z2.0 F3000 ; Move Z Axis up little to prevent scratching of Heat Bed
G1 X5 Y20 Z0.3 F5000.0 ; Move over to prevent blob squish
G92 E0
G92 E0
G1 F2700 E-5
;LAYER_COUNT:20
;LAYER:0
M107
G0 F6000 X81.875 Y84.511 Z0.2
G0 X81.388 Y84.982
;TYPE:SKIRT
G1 F2700 E0
G1 F1200 X81.875 Y84.511 E0.02253
G1 X82.576 Y83.888 E0.05373
G1 X83.328 Y83.328 E0.08491
G1 X84.125 Y82.833 E0.11612
G1 X84.961 Y82.408 E0.14731
G1 X85.83 Y82.056 E0.17849
G1 X86.726 Y81.779 E0.20969
G1 X87.643 Y81.58 E0.24089
G1 X88.573 Y81.459 E0.27209
G1 X89.325 Y81.42 E0.29713
G1 X90.079 Y81.408 E0.32221
G1 X144.776 Y81.408 E2.14144
G1 X145.634 Y81.419 E2.16998
G1 X146.57 Y81.472 E2.20116
G1 X147.499 Y81.605 E2.23238
G1 X148.412 Y81.817 E2.26355
G1 X149.305 Y82.105 E2.29476
G1 X150.169 Y82.469 E2.32594
G1 X151 Y82.905 E2.35716
G1 X151.79 Y83.41 E2.38834
G1 X152.534 Y83.98 E2.41951
G1 X153.051 Y84.441 E2.44255
G1 X153.572 Y84.941 E2.46657
G1 X156.808 Y88.179 E2.61883
G1 X157.279 Y88.666 E2.64136
G1 X157.902 Y89.367 E2.67255
G1 X158.462 Y90.119 E2.70374
G1 X158.957 Y90.916 E2.73494
G1 X159.382 Y91.752 E2.76614
G1 X159.734 Y92.621 E2.79732
G1 X160.011 Y93.517 E2.82851
G1 X160.21 Y94.434 E2.85972
G1 X160.331 Y95.364 E2.89092
G1 X160.37 Y96.116 E2.91596
G1 X160.382 Y96.87 E2.94104
G1 X160.381 Y136.411 E4.25618
G1 X160.371 Y137.113 E4.27953
G1 X160.318 Y138.049 E4.31071
G1 X160.185 Y138.977 E4.34189
G1 X159.973 Y139.891 E4.3731
G1 X159.685 Y140.784 E4.40431
G1 X159.321 Y141.648 E4.43549
G1 X158.885 Y142.479 E4.4667
G1 X158.38 Y143.269 E4.49789
G1 X157.81 Y144.013 E4.52906
G1 X157.335 Y144.545 E4.55278
G1 X156.846 Y145.053 E4.57624
G1 X151.897 Y150 E4.80897
G1 X151.403 Y150.479 E4.83186
G1 X150.703 Y151.103 E4.86305
G1 X149.952 Y151.664 E4.89423
G1 X149.155 Y152.16 E4.92545
G1 X148.32 Y152.586 E4.95663
G1 X147.451 Y152.939 E4.98783
G1 X146.555 Y153.217 E5.01903
G1 X145.639 Y153.418 E5.05022
G1 X144.709 Y153.54 E5.08142
G1 X143.943 Y153.58 E5.10693
G1 X143.189 Y153.592 E5.13201
G1 X90.067 Y153.591 E6.89885
G1 X89.366 Y153.581 E6.92217
G1 X88.43 Y153.528 E6.95335
G1 X87.501 Y153.395 E6.98457
G1 X86.588 Y153.183 E7.01574
G1 X85.695 Y152.895 E7.04695
G1 X84.831 Y152.531 E7.07813
G1 X84 Y152.095 E7.10934
G1 X83.21 Y151.59 E7.14053
G1 X82.466 Y151.02 E7.1717
G1 X81.93 Y150.541 E7.19561
G1 X81.397 Y150.028 E7.22022
G1 X78.2 Y146.829 E7.37064
G1 X77.729 Y146.343 E7.39315
G1 X77.105 Y145.643 E7.42434
G1 X76.544 Y144.891 E7.45555
G1 X76.049 Y144.095 E7.48672
G1 X75.623 Y143.259 E7.51793
G1 X75.27 Y142.39 E7.54913
G1 X74.992 Y141.495 E7.5803
G1 X74.792 Y140.578 E7.61151
G1 X74.67 Y139.649 E7.64268
G1 X74.63 Y138.874 E7.66849
G1 X74.618 Y138.096 E7.69437
G1 X74.619 Y96.857 E9.06598
G1 X74.629 Y96.155 E9.08933
G1 X74.682 Y95.219 E9.12051
G1 X74.815 Y94.291 E9.1517
G1 X75.027 Y93.377 E9.1829
G1 X75.315 Y92.484 E9.21411
G1 X75.679 Y91.62 E9.24529
G1 X76.115 Y90.789 E9.27651
G1 X76.62 Y89.999 E9.30769
G1 X77.19 Y89.255 E9.33886
G1 X77.675 Y88.713 E9.36305
G1 X78.171 Y88.198 E9.38684
G1 X81.388 Y84.982 E9.53813
G1 F2700 E4.53813
G0 F6000 X75.419 Y96.869
G1 F2700 E9.53813
G1 F1200 X75.429 Y96.167 E9.56148
M73 P1
G1 X75.482 Y95.265 E9.59153
G1 X75.614 Y94.372 E9.62156
G1 X75.825 Y93.494 E9.65159
G1 X76.113 Y92.638 E9.68163
G1 X76.475 Y91.81 E9.71169
G1 X76.909 Y91.018 E9.74172
G1 X77.412 Y90.268 E9.77176
G1 X78.253 Y89.266 E9.81527
G1 X78.736 Y88.764 E9.83844
G1 X81.944 Y85.557 E9.98931
G1 X82.431 Y85.086 E10.01184
G1 X83.107 Y84.488 E10.04186
G1 X83.834 Y83.951 E10.07192
G1 X84.605 Y83.481 E10.10196
G1 X85.415 Y83.081 E10.132
G1 X86.257 Y82.755 E10.16203
G1 X87.124 Y82.504 E10.19205
G1 X88.011 Y82.331 E10.22211
G1 X89.339 Y82.22 E10.26644
G1 X90.079 Y82.208 E10.29105
G1 X144.776 Y82.208 E12.11028
G1 X145.622 Y82.219 E12.13842
G1 X146.524 Y82.272 E12.16847
G1 X147.417 Y82.404 E12.1985
G1 X148.296 Y82.615 E12.22856
G1 X149.152 Y82.903 E12.2586
G1 X149.979 Y83.265 E12.28863
G1 X150.771 Y83.699 E12.31867
G1 X151.521 Y84.202 E12.3487
G1 X152.5 Y85.021 E12.39116
G1 X153.006 Y85.507 E12.41449
G1 X156.233 Y88.735 E12.5663
G1 X156.704 Y89.222 E12.58884
G1 X157.302 Y89.898 E12.61886
G1 X157.839 Y90.625 E12.64892
G1 X158.309 Y91.396 E12.67895
G1 X158.709 Y92.206 E12.709
G1 X159.035 Y93.048 E12.73903
G1 X159.286 Y93.915 E12.76905
G1 X159.459 Y94.802 E12.7991
G1 X159.57 Y96.13 E12.84343
G1 X159.582 Y96.87 E12.86804
G1 X159.581 Y136.399 E14.18278
G1 X159.571 Y137.101 E14.20613
G1 X159.518 Y138.003 E14.23619
G1 X159.386 Y138.896 E14.26621
G1 X159.175 Y139.774 E14.29625
G1 X158.887 Y140.63 E14.32628
G1 X158.525 Y141.458 E14.35634
G1 X158.091 Y142.25 E14.38638
G1 X157.588 Y143 E14.41641
G1 X156.756 Y143.993 E14.4595
G1 X156.28 Y144.487 E14.48232
G1 X151.34 Y149.426 E14.71466
G1 X150.846 Y149.905 E14.73754
G1 X150.171 Y150.504 E14.76756
G1 X149.445 Y151.041 E14.79759
G1 X148.674 Y151.512 E14.82764
G1 X147.865 Y151.913 E14.85768
G1 X147.024 Y152.241 E14.8877
G1 X146.156 Y152.493 E14.91776
G1 X145.27 Y152.667 E14.94779
G1 X143.929 Y152.78 E14.99255
G1 X143.189 Y152.792 E15.01717
G1 X90.079 Y152.791 E16.78361
G1 X89.378 Y152.781 E16.80693
G1 X88.476 Y152.728 E16.83698
G1 X87.583 Y152.596 E16.86701
G1 X86.704 Y152.385 E16.89707
G1 X85.848 Y152.097 E16.92711
G1 X85.021 Y151.735 E16.95714
G1 X84.229 Y151.301 E16.98718
G1 X83.479 Y150.798 E17.01721
G1 X82.482 Y149.962 E17.06049
G1 X81.963 Y149.462 E17.08446
G1 X78.774 Y146.273 E17.23446
G1 X78.303 Y145.787 E17.25697
G1 X77.704 Y145.111 E17.28701
G1 X77.167 Y144.385 E17.31704
G1 X76.696 Y143.614 E17.34709
G1 X76.296 Y142.805 E17.37711
G1 X75.968 Y141.963 E17.40717
G1 X75.716 Y141.096 E17.4372
G1 X75.542 Y140.21 E17.46723
G1 X75.447 Y139.312 E17.49726
G1 X75.429 Y138.86 E17.51231
G1 X75.418 Y138.096 E17.53772
G1 X75.419 Y96.869 E18.90894
G0 F6000 X75.019 Y96.863
G1 F1200 X75.029 Y96.161 E18.93229
G1 X75.082 Y95.242 E18.9629
G1 X75.215 Y94.331 E18.99352
G1 X75.426 Y93.435 E19.02414
G1 X75.714 Y92.56 E19.05478
G1 X76.077 Y91.714 E19.0854
G1 X76.512 Y90.903 E19.11601
G1 X77.016 Y90.132 E19.14664
G1 X77.584 Y89.408 E19.17725
G1 X77.964 Y88.989 E19.19606
G1 X78.453 Y88.481 E19.21952
G1 X81.666 Y85.27 E19.3706
G1 X82.153 Y84.799 E19.39313
G1 X82.842 Y84.188 E19.42376
G1 X83.581 Y83.639 E19.45438
G1 X84.365 Y83.157 E19.48499
M73 P2
G1 X85.188 Y82.744 E19.51562
G1 X86.044 Y82.405 E19.54624
G1 X86.926 Y82.141 E19.57686
G1 X87.828 Y81.954 E19.6075
G1 X88.742 Y81.847 E19.63811
G1 X89.332 Y81.82 E19.65775
G1 X90.079 Y81.808 E19.6826
G1 X144.776 Y81.808 E21.50183
G1 X145.628 Y81.819 E21.53017
G1 X146.547 Y81.872 E21.56079
G1 X147.458 Y82.005 E21.59141
G1 X148.354 Y82.216 E21.62202
G1 X149.229 Y82.504 E21.65266
G1 X150.075 Y82.867 E21.68328
G1 X150.886 Y83.302 E21.71389
G1 X151.657 Y83.806 E21.74453
G1 X152.381 Y84.375 E21.77515
G1 X152.776 Y84.731 E21.79284
G1 X153.289 Y85.224 E21.8165
G1 X156.52 Y88.457 E21.96853
G1 X156.991 Y88.944 E21.99106
G1 X157.602 Y89.633 E22.02169
G1 X158.151 Y90.372 E22.05231
G1 X158.633 Y91.156 E22.08292
G1 X159.046 Y91.979 E22.11355
G1 X159.385 Y92.835 E22.14417
G1 X159.649 Y93.717 E22.17479
G1 X159.836 Y94.619 E22.20543
G1 X159.943 Y95.533 E22.23604
G1 X159.97 Y96.123 E22.25568
G1 X159.982 Y96.87 E22.28053
G1 X159.981 Y136.405 E23.59547
G1 X159.971 Y137.107 E23.61882
G1 X159.918 Y138.026 E23.64943
G1 X159.785 Y138.937 E23.68006
G1 X159.574 Y139.833 E23.71067
G1 X159.286 Y140.708 E23.74131
G1 X158.923 Y141.554 E23.77193
G1 X158.488 Y142.365 E23.80254
G1 X157.984 Y143.136 E23.83318
G1 X157.416 Y143.86 E23.86378
G1 X157.046 Y144.269 E23.88213
G1 X156.563 Y144.77 E23.90527
G1 X151.619 Y149.713 E24.1378
G1 X151.125 Y150.192 E24.16069
G1 X150.437 Y150.804 E24.19131
G1 X149.698 Y151.353 E24.22193
G1 X148.915 Y151.837 E24.25255
G1 X148.092 Y152.25 E24.28317
G1 X147.237 Y152.591 E24.31379
G1 X146.355 Y152.856 E24.34442
G1 X145.454 Y153.044 E24.37503
G1 X144.54 Y153.152 E24.40564
G1 X143.936 Y153.18 E24.42576
G1 X143.189 Y153.192 E24.4506
G1 X90.073 Y153.191 E26.21725
G1 X89.372 Y153.181 E26.24057
G1 X88.453 Y153.128 E26.27118
G1 X87.542 Y152.995 E26.3018
G1 X86.646 Y152.784 E26.33242
G1 X85.771 Y152.496 E26.36306
G1 X84.925 Y152.133 E26.39368
G1 X84.114 Y151.698 E26.42429
G1 X83.343 Y151.194 E26.45492
G1 X82.619 Y150.625 E26.48555
G1 X82.206 Y150.252 E26.50406
G1 X81.68 Y149.745 E26.52836
G1 X78.487 Y146.551 E26.67857
G1 X78.016 Y146.065 E26.70108
G1 X77.405 Y145.377 E26.73169
G1 X76.855 Y144.638 E26.76233
G1 X76.372 Y143.854 E26.79295
G1 X75.959 Y143.032 E26.82355
G1 X75.618 Y142.176 E26.8542
G1 X75.353 Y141.294 E26.88483
G1 X75.166 Y140.393 E26.91543
G1 X75.058 Y139.479 E26.94604
G1 X75.03 Y138.867 E26.96642
G1 X75.018 Y138.096 E26.99207
G1 X75.019 Y96.863 E28.36348
G1 F2700 E23.36348
;MESH:gearStand.stl
G0 F6000 X97.242 Y107.855
G0 X97.641 Y108.994
G0 X97.883 Y109.291
G0 X98.566 Y109.767
G1 F2700 E28.36348
G0 F6000 X98.691 Y109.377
;TYPE:WALL-OUTER
G1 F1200 X98.358 Y109.24 E28.37546
G1 X98.085 Y109.008 E28.38737
G1 X97.87 Y108.658 E28.40104
G1 X97.786 Y108.251 E28.41486
G1 X97.818 Y107.93 E28.42559
G1 X97.981 Y107.558 E28.4391
G1 X98.268 Y107.253 E28.45303
G1 X98.636 Y107.067 E28.46674
G1 X99.049 Y107.018 E28.48057
G1 X99.302 Y107.058 E28.48909
G1 X99.638 Y107.212 E28.50139
G1 X99.942 Y107.497 E28.51525
G1 X100.13 Y107.867 E28.52905
G1 X100.179 Y108.281 E28.54291
G1 X100.082 Y108.691 E28.55693
G1 X99.855 Y109.036 E28.57066
M73 P3
G1 X99.524 Y109.284 E28.58442
G1 X99.168 Y109.399 E28.59686
G1 X98.848 Y109.395 E28.60751
G1 X98.691 Y109.377 E28.61276
G0 F6000 X98.83 Y109.795
;TYPE:WALL-INNER
G1 F1200 X98.54 Y109.747 E28.62254
G1 X98.178 Y109.598 E28.63556
G1 X97.82 Y109.308 E28.65088
G1 X97.524 Y108.859 E28.66877
G1 X97.452 Y108.662 E28.67575
G1 X97.392 Y108.321 E28.68726
G1 X97.422 Y107.878 E28.70203
G1 X97.619 Y107.389 E28.71957
G1 X97.737 Y107.219 E28.72645
G1 X97.984 Y106.971 E28.73809
G1 X98.155 Y106.851 E28.74504
G1 X98.466 Y106.705 E28.75646
G1 X98.667 Y106.651 E28.76339
G1 X99.013 Y106.62 E28.77494
G1 X99.347 Y106.658 E28.78612
G1 X99.806 Y106.849 E28.80266
G1 X99.976 Y106.967 E28.80954
G1 X100.224 Y107.213 E28.82116
G1 X100.344 Y107.383 E28.82808
G1 X100.496 Y107.705 E28.83992
G1 X100.547 Y107.901 E28.84666
G1 X100.579 Y108.285 E28.85947
G1 X100.468 Y108.795 E28.87683
G1 X100.38 Y108.983 E28.88374
G1 X100.166 Y109.289 E28.89616
G1 X99.754 Y109.611 E28.91355
G1 X99.28 Y109.783 E28.93032
G1 X98.83 Y109.795 E28.94529
G1 F2700 E23.94529
G0 F6000 X98.827 Y109.814
G0 X100.141 Y109.56
G0 X119.701 Y109.443
G0 X120.703 Y109.798
G1 F2700 E28.94529
G0 F6000 X120.758 Y109.391
;TYPE:WALL-OUTER
G1 F1200 X120.372 Y109.247 E28.959
G1 X120.085 Y109.008 E28.97142
G1 X120.072 Y108.995 E28.97203
G1 X119.87 Y108.658 E28.9851
G1 X119.786 Y108.251 E28.99892
G1 X119.818 Y107.93 E29.00965
G1 X119.981 Y107.558 E29.02316
G1 X120.268 Y107.253 E29.03709
G1 X120.636 Y107.067 E29.0508
G1 X121.049 Y107.018 E29.06463
G1 X121.302 Y107.058 E29.07315
G1 X121.638 Y107.212 E29.08545
G1 X121.942 Y107.497 E29.09931
G1 X122.13 Y107.867 E29.11311
G1 X122.179 Y108.281 E29.12698
G1 X122.082 Y108.691 E29.14099
G1 X121.855 Y109.036 E29.15472
G1 X121.524 Y109.284 E29.16848
G1 X121.168 Y109.399 E29.18092
G1 X120.758 Y109.391 E29.19456
G0 F6000 X121.28 Y109.783
;TYPE:WALL-INNER
G1 F1200 X120.998 Y109.803 E29.20397
G1 X120.728 Y109.79 E29.21296
G1 X120.221 Y109.617 E29.23077
G1 X119.982 Y109.451 E29.24045
G1 X119.78 Y109.269 E29.2495
G1 X119.524 Y108.859 E29.26557
G1 X119.452 Y108.661 E29.27258
G1 X119.386 Y108.283 E29.28534
G1 X119.422 Y107.878 E29.29887
G1 X119.619 Y107.389 E29.3164
G1 X119.737 Y107.219 E29.32328
G1 X119.984 Y106.971 E29.33493
G1 X120.155 Y106.851 E29.34187
G1 X120.466 Y106.705 E29.3533
G1 X120.667 Y106.651 E29.36022
G1 X121.013 Y106.62 E29.37178
G1 X121.347 Y106.658 E29.38296
G1 X121.806 Y106.849 E29.39949
G1 X121.976 Y106.967 E29.40638
G1 X122.224 Y107.213 E29.41799
G1 X122.363 Y107.424 E29.4264
G1 X122.493 Y107.699 E29.43651
G1 X122.547 Y107.901 E29.44347
G1 X122.577 Y108.247 E29.45502
G1 X122.559 Y108.455 E29.46196
G1 X122.456 Y108.834 E29.47503
G1 X122.183 Y109.265 E29.492
G1 X122.037 Y109.412 E29.49889
G1 X121.726 Y109.63 E29.51152
G1 X121.28 Y109.783 E29.5272
G1 F2700 E24.5272
G0 F6000 X121.282 Y109.795
G0 X122.141 Y109.56
G0 X136.201 Y109.444
G0 X137.01 Y109.749
G1 F2700 E29.5272
G0 F6000 X137.136 Y109.355
;TYPE:WALL-OUTER
G1 F1200 X136.86 Y109.241 E29.53713
G1 X136.585 Y109.008 E29.54912
G1 X136.37 Y108.658 E29.56278
M73 P4
G1 X136.286 Y108.251 E29.57661
G1 X136.318 Y107.93 E29.58734
G1 X136.481 Y107.558 E29.60084
G1 X136.768 Y107.253 E29.61477
G1 X137.136 Y107.067 E29.62849
G1 X137.549 Y107.018 E29.64232
G1 X137.802 Y107.058 E29.65084
G1 X138.138 Y107.212 E29.66313
G1 X138.442 Y107.498 E29.67702
G1 X138.63 Y107.867 E29.69079
G1 X138.679 Y108.281 E29.70466
G1 X138.677 Y108.334 E29.70642
G1 X138.582 Y108.691 E29.71871
G1 X138.355 Y109.036 E29.73244
G1 X138.024 Y109.284 E29.7462
G1 X137.668 Y109.399 E29.75864
G1 X137.318 Y109.394 E29.77028
G1 X137.136 Y109.355 E29.77647
G0 F6000 X136.718 Y109.616
;TYPE:WALL-INNER
G1 F1200 X136.32 Y109.308 E29.79321
G1 X136.024 Y108.859 E29.8111
G1 X135.952 Y108.662 E29.81808
G1 X135.885 Y108.272 E29.83124
G1 X135.921 Y107.878 E29.8444
G1 X136.119 Y107.389 E29.86194
G1 X136.237 Y107.219 E29.86883
G1 X136.484 Y106.971 E29.88047
G1 X136.655 Y106.851 E29.88742
G1 X136.966 Y106.705 E29.89884
G1 X137.167 Y106.651 E29.90577
G1 X137.513 Y106.62 E29.91732
G1 X137.847 Y106.658 E29.9285
G1 X138.306 Y106.849 E29.94504
G1 X138.476 Y106.968 E29.95194
G1 X138.724 Y107.214 E29.96356
G1 X138.844 Y107.383 E29.97045
G1 X138.992 Y107.696 E29.98197
G1 X139.047 Y107.901 E29.98902
G1 X139.08 Y108.299 E30.00231
G1 X139.071 Y108.403 E30.00578
G1 X138.968 Y108.795 E30.01926
G1 X138.88 Y108.983 E30.02616
G1 X138.683 Y109.265 E30.03761
G1 X138.537 Y109.412 E30.0445
G1 X138.254 Y109.611 E30.056
G1 X137.78 Y109.783 E30.07277
G1 X137.3 Y109.794 E30.08874
G1 X137.04 Y109.747 E30.09753
G1 X136.718 Y109.616 E30.10909
G1 F2700 E25.10909
G0 F6000 X136.713 Y109.623
G0 X136.917 Y109.892
G0 X137.535 Y129.416
G0 X136.432 Y130.052
G0 X136.107 Y130.478
G0 X135.945 Y130.987
G0 X135.955 Y131.461
G0 X136.14 Y131.971
G0 X136.488 Y132.383
G0 X137.272 Y132.786
G1 F2700 E30.10909
G0 F6000 X137.308 Y132.378
;TYPE:WALL-OUTER
G1 F1200 X136.916 Y132.25 E30.12281
G1 X136.588 Y131.988 E30.13677
G1 X136.37 Y131.636 E30.15054
G1 X136.286 Y131.229 E30.16436
G1 X136.329 Y130.865 E30.17656
G1 X136.512 Y130.489 E30.19046
G1 X136.806 Y130.203 E30.20411
G1 X137.189 Y130.032 E30.21806
G1 X137.494 Y130.001 E30.22825
G1 X137.776 Y130.029 E30.23768
G1 X138.139 Y130.191 E30.2509
G1 X138.444 Y130.478 E30.26483
G1 X138.63 Y130.845 E30.27851
G1 X138.681 Y131.21 E30.29077
G1 X138.68 Y131.267 E30.29267
G1 X138.603 Y131.616 E30.30455
G1 X138.421 Y131.939 E30.31689
G1 X138.114 Y132.214 E30.33059
G1 X137.727 Y132.367 E30.34444
G1 X137.308 Y132.378 E30.35838
G0 F6000 X136.78 Y132.626
