;FLAVOR:Marlin
M73 P0
M73 R8
;TIME:498
;Filament used: 0.227313m
;Layer height: 0.2
;MINX:100.283
;MINY:97.159
;MINZ:0.2
;MAXX:134.73
;MAXY:132.651
;MAXZ:7
;POSTPROCESSED
;Generated with Cura_SteamEngine 4.9.1
M140 S50
M105
M190 S50
M104 S215
M105
M109 S215
M82 ;absolute extrusion mode
; Ender 3 Custom Start G-code
G92 E0 ; Reset Extruder
G28 ; Home all axes
G1 Z2.0 F3000 ; Move Z Axis up little to prevent scratching of Heat Bed
G1 X0.1 Y20 Z0.3 F5000.0 ; Move to start position
G1 X0.1 Y200.0 Z0.3 F1500.0 E15 ; Draw the first line
G1 X0.4 Y200.0 Z0.3 F5000.0 ; Move to side a little
G1 X0.4 Y20 Z0.3 F1500.0 E30 ; Draw the second line
G92 E0 ; Reset Extruder
G1 Z2.0 F3000 ; Move Z Axis up little to prevent scratching of Heat Bed
G1 X5 Y20 Z0.3 F5000.0 ; Move over to prevent blob squish
G92 E0
G92 E0
G1 F2700 E-5
;LAYER_COUNT:35
;LAYER:0
M107
G0 F6000 X103.817 Y102.356 Z0.2
;TYPE:SKIRT
G1 F2700 E0
G1 F1200 X104.012 Y102.167 E0.00903
G1 X104.713 Y101.544 E0.04022
G1 X105.134 Y101.217 E0.05795
G1 X105.761 Y100.754 E0.08388
G1 X106.424 Y100.3 E0.1106
G1 X106.63 Y100.17 E0.11871
G1 X107.15 Y99.862 E0.13881
G1 X107.96 Y99.411 E0.16964
G1 X108.73 Y99.021 E0.19835
G1 X108.861 Y98.961 E0.20314
G1 X109.35 Y98.751 E0.22084
G1 X110.156 Y98.428 E0.24972
G1 X111.022 Y98.123 E0.28026
G1 X111.762 Y97.896 E0.30601
G1 X112.486 Y97.7 E0.33095
G1 X112.73 Y97.643 E0.33929
G1 X113.375 Y97.513 E0.36117
G1 X113.994 Y97.407 E0.38206
G1 X114.459 Y97.337 E0.3977
G1 X114.992 Y97.269 E0.41557
G1 X115.916 Y97.191 E0.44641
G1 X116.667 Y97.159 E0.47141
G1 X117.603 Y97.159 E0.50254
G1 X118.355 Y97.191 E0.52758
G1 X119.288 Y97.271 E0.55872
G1 X119.833 Y97.341 E0.577
G1 X120.286 Y97.408 E0.59223
G1 X121.069 Y97.543 E0.61866
G1 X121.839 Y97.712 E0.64488
G1 X122.053 Y97.767 E0.65223
G1 X122.544 Y97.906 E0.6692
G1 X123.319 Y98.144 E0.69616
G1 X123.967 Y98.365 E0.71894
G1 X124.206 Y98.455 E0.72743
G1 X124.856 Y98.724 E0.75083
G1 X125.62 Y99.069 E0.77871
G1 X126.47 Y99.498 E0.81038
G1 X126.893 Y99.735 E0.8265
G1 X127.266 Y99.953 E0.84087
G1 X127.783 Y100.27 E0.86104
G1 X128.555 Y100.79 E0.892
G1 X129.135 Y101.217 E0.91596
G1 X129.912 Y101.845 E0.94919
G1 X130.195 Y102.096 E0.96177
G1 X131.179 Y103.088 E1.00824
G1 X131.373 Y103.31 E1.01805
G1 X132.228 Y104.425 E1.06478
G1 X132.427 Y104.722 E1.07667
G1 X132.959 Y105.602 E1.11087
G1 X133.126 Y105.91 E1.12252
G1 X133.7 Y107.145 E1.16782
G1 X133.799 Y107.398 E1.17686
G1 X133.968 Y107.86 E1.19322
G1 X134.015 Y107.998 E1.19807
G1 X134.281 Y108.905 E1.2295
G1 X134.345 Y109.164 E1.23838
G1 X134.436 Y109.563 E1.25199
G1 X134.462 Y109.688 E1.25624
G1 X134.626 Y110.721 E1.29102
G1 X134.662 Y111.047 E1.30193
G1 X134.725 Y111.988 E1.3333
G1 X134.73 Y112.195 E1.34019
G1 X134.712 Y113.133 E1.37139
G1 X134.672 Y113.614 E1.38744
G1 X134.617 Y114.136 E1.4049
G1 X134.496 Y114.976 E1.43313
G1 X134.384 Y115.58 E1.45356
G1 X133.382 Y120.718 E1.62767
G1 X133.291 Y121.131 E1.64174
G1 X133.136 Y121.778 E1.66386
G1 X133.034 Y122.172 E1.6774
G1 X132.943 Y122.498 E1.68866
G1 X132.665 Y123.356 E1.71866
G1 X132.55 Y123.667 E1.72968
G1 X132.376 Y124.108 E1.74545
G1 X132.329 Y124.22 E1.74949
G1 X132.163 Y124.597 E1.76319
G1 X132.026 Y124.892 E1.77401
G1 X131.834 Y125.285 E1.78856
G1 X131.721 Y125.505 E1.79679
G1 X131.382 Y126.116 E1.82003
G1 X131.2 Y126.421 E1.83184
G1 X130.832 Y126.996 E1.85454
G1 X130.624 Y127.3 E1.8668
G1 X130.392 Y127.626 E1.8801
G1 X130.239 Y127.833 E1.88867
G1 X129.65 Y128.563 E1.91986
G1 X129.171 Y129.073 E1.94313
G1 X129.021 Y129.223 E1.95019
G1 X128.015 Y130.113 E1.99486
G1 X127.983 Y130.138 E1.99622
G1 X127.22 Y130.684 E2.02742
G1 X126.161 Y131.293 E2.06805
G1 X125.907 Y131.421 E2.07751
G1 X125.052 Y131.807 E2.10871
G1 X124.491 Y132.015 E2.12861
G1 X124.435 Y132.034 E2.13058
G1 X123.535 Y132.297 E2.16177
G1 X122.77 Y132.457 E2.18776
G1 X122.567 Y132.492 E2.19461
G1 X121.637 Y132.612 E2.2258
G1 X120.911 Y132.65 E2.24998
G1 X120.39 Y132.65 E2.26731
G1 X118.221 Y132.598 E2.33947
G1 X115.667 Y132.609 E2.42442
G1 X114.661 Y132.637 E2.45789
G1 X113.866 Y132.651 E2.48434
G1 X112.688 Y132.609 E2.52354
G1 X112.432 Y132.586 E2.53209
G1 X111.502 Y132.462 E2.5633
G1 X110.601 Y132.264 E2.59398
G1 X110.567 Y132.255 E2.59515
G1 X109.672 Y131.976 E2.62633
G1 X109.088 Y131.748 E2.64718
G1 X108.838 Y131.642 E2.65621
G1 X107.991 Y131.24 E2.6874
G1 X107.181 Y130.766 E2.71861
G1 X106.614 Y130.376 E2.7415
G1 X106.44 Y130.248 E2.74868
G1 X105.709 Y129.66 E2.77989
G1 X105.03 Y129.013 E2.81108
G1 X104.697 Y128.651 E2.82744
G1 X104.544 Y128.477 E2.83515
G1 X103.955 Y127.745 E2.8664
G1 X103.649 Y127.314 E2.88398
G1 X103.344 Y126.861 E2.90214
G1 X102.86 Y126.072 E2.93293
G1 X102.597 Y125.6 E2.9509
G1 X102.158 Y124.723 E2.98352
G1 X101.949 Y124.254 E3.0006
G1 X101.624 Y123.438 E3.02981
G1 X101.558 Y123.251 E3.03641
G1 X101.399 Y122.764 E3.05344
G1 X101.311 Y122.472 E3.06359
G1 X101.07 Y121.521 E3.09622
G1 X100.973 Y121.051 E3.11218
G1 X100.888 Y120.587 E3.12787
G1 X100.824 Y120.192 E3.14118
G1 X100.711 Y119.232 E3.17333
G1 X100.673 Y118.71 E3.19074
G1 X100.653 Y118.35 E3.20273
G1 X100.633 Y117.854 E3.21924
G1 X100.564 Y115.636 E3.29305
G1 X100.299 Y111.64 E3.42625
G1 X100.283 Y110.494 E3.46437
G1 X100.292 Y110.258 E3.47222
G1 X100.368 Y109.323 E3.50342
G1 X100.523 Y108.398 E3.53462
G1 X100.897 Y107.057 E3.58092
G1 X100.981 Y106.816 E3.58941
G1 X101.327 Y105.944 E3.62061
G1 X101.853 Y104.916 E3.65902
G1 X101.958 Y104.735 E3.66598
G1 X102.463 Y103.945 E3.69716
G1 X103.033 Y103.2 E3.72836
G1 X103.817 Y102.356 E3.76668
G0 F6000 X104.096 Y102.643
G1 F1200 X104.291 Y102.454 E3.77571
G1 X104.979 Y101.843 E3.80631
G1 X105.371 Y101.539 E3.82281
G1 X105.998 Y101.076 E3.84874
G1 X106.638 Y100.639 E3.87451
G1 X106.844 Y100.509 E3.88261
G1 X107.344 Y100.212 E3.90196
G1 X108.154 Y99.761 E3.93279
G1 X108.897 Y99.385 E3.96049
G1 X109.028 Y99.325 E3.96528
M73 P1
G1 X109.499 Y99.123 E3.98233
G1 X110.305 Y98.8 E4.01121
G1 X111.139 Y98.505 E4.04063
G1 X111.879 Y98.278 E4.06637
G1 X112.577 Y98.09 E4.09042
G1 X112.821 Y98.033 E4.09875
G1 X113.443 Y97.907 E4.11986
G1 X114.062 Y97.801 E4.14075
G1 X114.51 Y97.734 E4.15581
G1 X115.043 Y97.666 E4.17368
G1 X115.933 Y97.591 E4.20339
G1 X116.684 Y97.559 E4.22839
G1 X117.586 Y97.559 E4.25839
G1 X118.338 Y97.591 E4.28343
G1 X119.237 Y97.667 E4.31343
G1 X119.782 Y97.737 E4.33171
G1 X120.219 Y97.803 E4.34641
G1 X120.997 Y97.937 E4.37267
G1 X121.74 Y98.1 E4.39797
G1 X121.954 Y98.155 E4.40531
G1 X122.427 Y98.288 E4.42166
G1 X123.202 Y98.526 E4.44862
G1 X123.826 Y98.739 E4.47055
G1 X124.065 Y98.829 E4.47905
G1 X124.691 Y99.088 E4.50158
G1 X125.455 Y99.433 E4.52946
G1 X126.274 Y99.847 E4.55998
G1 X126.697 Y100.084 E4.57611
G1 X127.057 Y100.294 E4.58997
G1 X127.574 Y100.611 E4.61014
G1 X128.317 Y101.112 E4.63995
G1 X128.897 Y101.539 E4.6639
G1 X129.647 Y102.145 E4.69597
G1 X129.93 Y102.396 E4.70855
G1 X130.878 Y103.351 E4.75331
G1 X131.072 Y103.573 E4.76312
G1 X131.896 Y104.648 E4.80817
G1 X132.095 Y104.945 E4.82006
G1 X132.607 Y105.793 E4.853
G1 X132.774 Y106.101 E4.86466
G1 X133.327 Y107.29 E4.90827
G1 X133.426 Y107.543 E4.91731
G1 X133.589 Y107.989 E4.9331
G1 X133.636 Y108.127 E4.93795
G1 X133.892 Y109.001 E4.96824
G1 X133.956 Y109.26 E4.97711
G1 X134.044 Y109.644 E4.99022
G1 X134.07 Y109.769 E4.99446
G1 X134.228 Y110.765 E5.028
G1 X134.264 Y111.091 E5.03891
G1 X134.325 Y111.998 E5.06915
G1 X134.33 Y112.205 E5.07603
G1 X134.275 Y113.572 E5.12154
G1 X134.22 Y114.094 E5.139
G1 X134.103 Y114.903 E5.16618
G1 X133.991 Y115.504 E5.18652
G1 X132.99 Y120.639 E5.36052
G1 X132.902 Y121.038 E5.37411
G1 X132.747 Y121.685 E5.39624
G1 X132.649 Y122.065 E5.40929
G1 X132.558 Y122.391 E5.42055
G1 X132.29 Y123.217 E5.44943
G1 X132.175 Y123.528 E5.46046
G1 X132.007 Y123.954 E5.47569
G1 X131.96 Y124.066 E5.47973
G1 X131.8 Y124.429 E5.49293
G1 X131.663 Y124.724 E5.50374
G1 X131.478 Y125.102 E5.51774
G1 X131.365 Y125.322 E5.52597
G1 X131.039 Y125.911 E5.54836
G1 X130.857 Y126.216 E5.56017
G1 X130.502 Y126.77 E5.58206
G1 X130.294 Y127.074 E5.59431
G1 X130.07 Y127.389 E5.60716
G1 X129.917 Y127.596 E5.61572
G1 X129.338 Y128.311 E5.64632
G1 X128.888 Y128.79 E5.66818
G1 X128.738 Y128.94 E5.67524
G1 X127.769 Y129.798 E5.71829
G1 X127.737 Y129.823 E5.71964
G1 X126.987 Y130.358 E5.75028
G1 X125.981 Y130.936 E5.78887
G1 X125.727 Y131.064 E5.79833
G1 X124.888 Y131.442 E5.82893
G1 X124.363 Y131.636 E5.84755
G1 X124.307 Y131.655 E5.84952
G1 X123.423 Y131.913 E5.88015
G1 X122.702 Y132.063 E5.90464
G1 X122.499 Y132.098 E5.91149
G1 X121.586 Y132.215 E5.94211
G1 X120.901 Y132.25 E5.96492
G1 X120.399 Y132.25 E5.98162
G1 X118.229 Y132.198 E6.05381
G1 X115.695 Y132.208 E6.13809
G1 X114.654 Y132.237 E6.17273
G1 X113.859 Y132.251 E6.19918
G1 X112.723 Y132.21 E6.23698
G1 X112.467 Y132.187 E6.24553
G1 X111.555 Y132.065 E6.27614
G1 X110.67 Y131.868 E6.30629
G1 X109.791 Y131.594 E6.33692
G1 X109.244 Y131.38 E6.35645
G1 X108.994 Y131.274 E6.36548
G1 X108.163 Y130.878 E6.3961
G1 X107.369 Y130.412 E6.42672
G1 X106.851 Y130.054 E6.44766
G1 X106.677 Y129.926 E6.45485
G1 X105.96 Y129.348 E6.48548
G1 X104.998 Y128.387 E6.53071
G1 X104.845 Y128.213 E6.53841
G1 X104.277 Y127.508 E6.56852
G1 X103.981 Y127.091 E6.58553
G1 X103.676 Y126.638 E6.6037
G1 X103.209 Y125.877 E6.63339
G1 X102.946 Y125.405 E6.65136
G1 X102.524 Y124.561 E6.68275
G1 X102.315 Y124.092 E6.69983
G1 X102.001 Y123.305 E6.72801
G1 X101.935 Y123.118 E6.7346
G1 X101.782 Y122.649 E6.75101
G1 X101.694 Y122.357 E6.76116
G1 X101.462 Y121.441 E6.79258
G1 X101.365 Y120.971 E6.80855
G1 X101.282 Y120.523 E6.8237
G1 X101.218 Y120.128 E6.83701
G1 X101.11 Y119.203 E6.86798
G1 X101.072 Y118.681 E6.88539
G1 X101.052 Y118.334 E6.89695
G1 X101.033 Y117.841 E6.91336
G1 X100.964 Y115.627 E6.98704
G1 X100.698 Y111.614 E7.1208
G1 X100.683 Y110.509 E7.15756
G1 X100.692 Y110.273 E7.16541
G1 X100.767 Y109.355 E7.19605
G1 X100.921 Y108.448 E7.22665
G1 X101.275 Y107.188 E7.27018
G1 X101.359 Y106.947 E7.27866
G1 X101.699 Y106.092 E7.30927
G1 X102.199 Y105.117 E7.34571
G1 X102.304 Y104.936 E7.35267
G1 X102.8 Y104.16 E7.3833
G1 X103.362 Y103.431 E7.41392
G1 X104.096 Y102.643 E7.44974
G0 F6000 X104.374 Y102.931
G1 F1200 X104.569 Y102.742 E7.45877
G1 X105.245 Y102.142 E7.48883
G1 X105.609 Y101.861 E7.50413
G1 X106.236 Y101.398 E7.53005
G1 X106.851 Y100.977 E7.55484
G1 X107.057 Y100.847 E7.56294
G1 X107.539 Y100.561 E7.58158
G1 X108.349 Y100.11 E7.61242
G1 X109.064 Y99.748 E7.63907
G1 X109.195 Y99.688 E7.64386
G1 X109.648 Y99.494 E7.66025
G1 X110.454 Y99.171 E7.68913
G1 X111.257 Y98.887 E7.71746
G1 X111.997 Y98.66 E7.74321
G1 X112.668 Y98.479 E7.76632
G1 X112.912 Y98.422 E7.77466
G1 X113.51 Y98.301 E7.79495
G1 X114.129 Y98.195 E7.81584
G1 X114.56 Y98.131 E7.83033
G1 X115.093 Y98.063 E7.8482
G1 X115.95 Y97.99 E7.87681
G1 X116.701 Y97.958 E7.90181
G1 X117.569 Y97.958 E7.93068
G1 X118.321 Y97.99 E7.95571
G1 X119.186 Y98.064 E7.98459
G1 X119.731 Y98.134 E8.00286
G1 X120.151 Y98.197 E8.01699
M73 P2
G1 X120.926 Y98.331 E8.04315
G1 X121.64 Y98.487 E8.06746
G1 X121.854 Y98.542 E8.07481
G1 X122.309 Y98.67 E8.09053
G1 X123.084 Y98.908 E8.11749
G1 X123.685 Y99.113 E8.13861
G1 X123.924 Y99.203 E8.14711
G1 X124.527 Y99.453 E8.16882
G1 X125.291 Y99.798 E8.1967
G1 X126.079 Y100.196 E8.22606
G1 X126.502 Y100.433 E8.24219
G1 X126.848 Y100.635 E8.25551
G1 X127.365 Y100.952 E8.27568
G1 X128.08 Y101.434 E8.30436
G1 X128.66 Y101.861 E8.32832
G1 X129.381 Y102.444 E8.35916
G1 X129.664 Y102.695 E8.37174
G1 X130.577 Y103.614 E8.41482
G1 X130.771 Y103.836 E8.42463
G1 X131.564 Y104.87 E8.46797
G1 X131.763 Y105.167 E8.47986
G1 X132.256 Y105.983 E8.51157
G1 X132.423 Y106.291 E8.52322
G1 X132.955 Y107.436 E8.56522
G1 X133.054 Y107.689 E8.57425
G1 X133.21 Y108.118 E8.58944
G1 X133.257 Y108.256 E8.59428
G1 X133.504 Y109.097 E8.62344
G1 X133.568 Y109.356 E8.63231
G1 X133.652 Y109.726 E8.64493
G1 X133.678 Y109.851 E8.64918
G1 X133.83 Y110.808 E8.68141
G1 X133.866 Y111.134 E8.69231
G1 X133.925 Y112.008 E8.72145
G1 X133.93 Y112.215 E8.72834
G1 X133.877 Y113.53 E8.77211
G1 X133.822 Y114.052 E8.78957
G1 X133.709 Y114.831 E8.81575
G1 X133.599 Y115.427 E8.83591
G1 X132.651 Y120.29 E9.00069
G1 X132.597 Y120.561 E9.00989
G1 X132.513 Y120.944 E9.02293
G1 X132.358 Y121.591 E9.04505
G1 X132.263 Y121.957 E9.05763
G1 X132.172 Y122.283 E9.06889
G1 X131.915 Y123.079 E9.09671
G1 X131.8 Y123.39 E9.10774
G1 X131.638 Y123.799 E9.12237
G1 X131.591 Y123.911 E9.12641
G1 X131.437 Y124.26 E9.1391
G1 X131.3 Y124.555 E9.14992
G1 X131.122 Y124.919 E9.16339
G1 X131.009 Y125.139 E9.17162
G1 X130.695 Y125.706 E9.19318
G1 X130.513 Y126.011 E9.20499
G1 X130.172 Y126.544 E9.22603
G1 X129.964 Y126.848 E9.23829
G1 X129.749 Y127.151 E9.25064
G1 X129.596 Y127.358 E9.2592
G1 X129.027 Y128.06 E9.28926
G1 X128.605 Y128.507 E9.3097
G1 X128.455 Y128.657 E9.31676
G1 X127.523 Y129.483 E9.35818
G1 X127.491 Y129.508 E9.35953
G1 X126.755 Y130.032 E9.38958
G1 X125.801 Y130.579 E9.42616
G1 X125.547 Y130.707 E9.43562
G1 X124.724 Y131.077 E9.46563
G1 X124.178 Y131.276 E9.48496
G1 X123.311 Y131.528 E9.51499
G1 X122.634 Y131.669 E9.53799
G1 X122.431 Y131.704 E9.54484
G1 X121.535 Y131.818 E9.57488
G1 X120.892 Y131.85 E9.59629
G1 X120.409 Y131.85 E9.61236
G1 X118.237 Y131.798 E9.68462
G1 X115.681 Y131.808 E9.76963
G1 X114.647 Y131.837 E9.80404
G1 X113.852 Y131.851 E9.83048
G1 X112.759 Y131.812 E9.86686
G1 X112.503 Y131.789 E9.87541
G1 X111.608 Y131.669 E9.90544
G1 X110.772 Y131.481 E9.93394
G1 X109.91 Y131.212 E9.96398
G1 X109.4 Y131.012 E9.9822
G1 X109.15 Y130.906 E9.99123
G1 X108.335 Y130.517 E10.02127
G1 X107.558 Y130.057 E10.0513
G1 X107.088 Y129.731 E10.07032
G1 X106.914 Y129.603 E10.07751
G1 X106.211 Y129.036 E10.10755
G1 X105.298 Y128.122 E10.15051
G1 X105.145 Y127.948 E10.15822
G1 X104.598 Y127.27 E10.1872
G1 X104.313 Y126.868 E10.20359
G1 X104.008 Y126.415 E10.22175
G1 X103.559 Y125.683 E10.25031
G1 X103.296 Y125.211 E10.26828
G1 X102.889 Y124.398 E10.29852
G1 X102.68 Y123.929 E10.3156
G1 X102.378 Y123.172 E10.34271
G1 X102.312 Y122.985 E10.3493
G1 X102.165 Y122.533 E10.36511
G1 X102.077 Y122.241 E10.37525
G1 X101.854 Y121.36 E10.40548
G1 X101.757 Y120.89 E10.42144
G1 X101.677 Y120.459 E10.43602
G1 X101.613 Y120.064 E10.44933
G1 X101.509 Y119.174 E10.47913
G1 X101.471 Y118.652 E10.49654
G1 X101.452 Y118.318 E10.50767
G1 X101.433 Y117.829 E10.52395
G1 X101.364 Y115.615 E10.59762
G1 X101.097 Y111.587 E10.73189
G1 X101.082 Y110.524 E10.76724
G1 X101.091 Y110.288 E10.7751
G1 X101.166 Y109.388 E10.80514
G1 X101.319 Y108.498 E10.83517
G1 X101.652 Y107.32 E10.87589
G1 X101.736 Y107.079 E10.88438
G1 X102.071 Y106.24 E10.91442
G1 X102.545 Y105.318 E10.94891
G1 X102.65 Y105.137 E10.95587
G1 X103.137 Y104.376 E10.98592
G1 X103.69 Y103.662 E11.01595
G1 X104.374 Y102.931 E11.04925
G1 F2700 E6.04925
;MESH:holder.stl
G0 F6000 X111.145 Y109.62
G0 X111.83 Y110.327
G0 X112.1 Y111.007
G0 X112.908 Y111.19
G0 X113.934 Y110.558
G0 X115.341 Y110.026
G0 X116.831 Y109.803
G0 X118.33 Y109.898
G0 X119.496 Y110.201
G0 X120.597 Y110.696
G0 X121.687 Y111.45
G0 X121.895 Y111.711
G0 X122.081 Y112.306
G0 X122.059 Y112.639
G0 X121.951 Y112.961
G0 X121.763 Y113.241
G0 X121.539 Y113.449
G0 X114.177 Y113.93
;TYPE:WALL-INNER
G1 F2700 E11.04925
G1 F1200 X114.367 Y113.797 E11.05696
G1 X114.56 Y113.737 E11.06369
G1 X115.362 Y113.741 E11.09036
G1 X115.414 Y113.741 E11.09209
G1 X115.741 Y113.743 E11.10297
G1 X116.079 Y113.745 E11.11421
G1 X116.427 Y113.748 E11.12578
G1 X116.779 Y113.751 E11.13749
G1 X116.427 Y113.797 E11.13826
G1 X116.079 Y113.873 E11.14106
G1 X115.74 Y113.981 E11.14671
