; generated by PrusaSlicer 2.3.3+win64 on 2021-11-03 at 20:26:15 UTC

; 

; external perimeters extrusion width = 0.45mm
; perimeters extrusion width = 0.45mm
; infill extrusion width = 0.45mm
; solid infill extrusion width = 0.45mm
; top infill extrusion width = 0.40mm
; first layer extrusion width = 0.42mm

M201 X500 Y500 Z100 E5000 ; sets maximum accelerations, mm/sec^2
M203 X500 Y500 Z10 E60 ; sets maximum feedrates, mm/sec
M204 P500 R1000 T500 ; sets acceleration (P, T) and retract acceleration (R), mm/sec^2
M205 X8.00 Y8.00 Z0.40 E5.00 ; sets the jerk limits, mm/sec
M205 S0 T0 ; sets the minimum extruding and travel feed rate, mm/sec
M107
;TYPE:Custom
G90 ; use absolute coordinates
M83 ; extruder relative mode
M140 S55 ; set final bed temp
M104 S150 ; set temporary nozzle temp to prevent oozing during homing
G4 S10 ; allow partial nozzle warmup
G28 ; home all axis
G1 Z50 F240
G1 X2 Y10 F3000
M104 S215 ; set final nozzle temp
M190 S55 ; wait for bed temp to stabilize
M109 S215 ; wait for nozzle temp to stabilize
G1 Z0.28 F240
G92 E0
G1 Y140 E10 F1500 ; prime the nozzle
G1 X2.3 F5000
G92 E0
G1 Y10 E10 F1200 ; prime the nozzle
G92 E0
G21 ; set units to millimeters
G90 ; use absolute coordinates
M83 ; use relative distances for extrusion
; Filament gcode
;LAYER_CHANGE
;Z:0.2
;HEIGHT:0.2
;BEFORE_LAYER_CHANGE
G92 E0
;0.2


G1 E-5.00000 F3600.000
G1 Z0.200 F9000.000
;AFTER_LAYER_CHANGE
;0.2
G1 X102.167 Y102.169
G1 E5.00000 F2400.000
M204 S500
;TYPE:Skirt
;WIDTH:0.42
G1 F1200.000
G1 X103.505 Y100.954 E0.05665
G1 X105.239 Y99.683 E0.06741
G1 X106.782 Y98.783 E0.05601
G1 X108.299 Y98.075 E0.05247
G1 X109.839 Y97.516 E0.05140
G1 X111.499 Y97.076 E0.05385
G1 X113.693 Y96.733 E0.06962
G1 X115.476 Y96.646 E0.05598
G1 X117.205 Y96.723 E0.05424
G1 X119.412 Y97.057 E0.06999
G1 X121.158 Y97.515 E0.05658
G1 X122.749 Y98.095 E0.05310
G1 X124.259 Y98.804 E0.05231
G1 X126.221 Y99.992 E0.07192
G1 X127.597 Y101.038 E0.05420
G1 X128.836 Y102.172 E0.05267
G1 X129.955 Y103.395 E0.05195
G1 X131.031 Y104.812 E0.05581
G1 X131.948 Y106.287 E0.05446
G1 X132.886 Y108.206 E0.06695
G1 X133.509 Y109.919 E0.05716
G1 X133.942 Y111.581 E0.05386
G1 X134.269 Y113.716 E0.06773
G1 X134.354 Y115.499 E0.05595
G1 X134.279 Y117.178 E0.05270
G1 X134.038 Y118.931 E0.05549
G1 X133.509 Y121.080 E0.06939
G1 X132.919 Y122.715 E0.05448
G1 X132.158 Y124.330 E0.05599
G1 X131.038 Y126.177 E0.06773
G1 X129.953 Y127.607 E0.05629
G1 X128.831 Y128.832 E0.05208
G1 X127.597 Y129.962 E0.05245
G1 X126.214 Y131.014 E0.05449
G1 X124.270 Y132.190 E0.07124
G1 X122.751 Y132.904 E0.05261
G1 X121.122 Y133.496 E0.05435
G1 X119.412 Y133.943 E0.05542
G1 X117.209 Y134.276 E0.06985
G1 X115.482 Y134.354 E0.05421
G1 X113.744 Y134.272 E0.05455
G1 X111.499 Y133.924 E0.07123
G1 X109.874 Y133.495 E0.05269
G1 X108.287 Y132.920 E0.05295
G1 X106.780 Y132.216 E0.05215
G1 X105.234 Y131.313 E0.05611
G1 X103.473 Y130.019 E0.06854
G1 X102.165 Y128.829 E0.05544
G1 X101.019 Y127.573 E0.05331
G1 X99.727 Y125.827 E0.06810
G1 X98.814 Y124.277 E0.05642
G1 X98.080 Y122.713 E0.05415
G1 X97.513 Y121.151 E0.05212
G1 X97.053 Y119.392 E0.05700
G1 X96.733 Y117.303 E0.06624
G1 X96.646 Y115.501 E0.05660
G1 X96.732 Y113.710 E0.05619
G1 X97.052 Y111.614 E0.06649
G1 X97.512 Y109.851 E0.05712
G1 X98.081 Y108.284 E0.05227
G1 X98.797 Y106.754 E0.05297
G1 X99.734 Y105.164 E0.05788
G1 X101.020 Y103.425 E0.06780
G1 X102.127 Y102.213 E0.05147
G1 X102.405 Y102.467 F9000.000
G1 F1200.000
G1 X103.743 Y101.247 E0.05677
G1 X105.445 Y99.999 E0.06617
G1 X106.954 Y99.118 E0.05481
G1 X108.443 Y98.424 E0.05150
G1 X109.953 Y97.875 E0.05036
G1 X111.573 Y97.446 E0.05255
G1 X113.734 Y97.108 E0.06858
G1 X115.476 Y97.023 E0.05468
G1 X117.169 Y97.099 E0.05314
G1 X119.338 Y97.427 E0.06879
G1 X121.044 Y97.874 E0.05528
G1 X122.605 Y98.444 E0.05210
G1 X124.080 Y99.137 E0.05112
G1 X126.012 Y100.305 E0.07077
G1 X127.357 Y101.329 E0.05300
G1 X128.563 Y102.433 E0.05128
G1 X129.664 Y103.634 E0.05109
G1 X130.716 Y105.020 E0.05455
G1 X131.615 Y106.464 E0.05334
G1 X132.537 Y108.350 E0.06581
G1 X133.148 Y110.030 E0.05607
G1 X133.571 Y111.653 E0.05259
G1 X133.894 Y113.757 E0.06672
G1 X133.977 Y115.501 E0.05476
G1 X133.904 Y117.144 E0.05158
G1 X133.668 Y118.860 E0.05431
G1 X133.147 Y120.974 E0.06826
G1 X132.571 Y122.570 E0.05320
G1 X131.828 Y124.148 E0.05470
G1 X130.725 Y125.968 E0.06672
G1 X129.665 Y127.364 E0.05494
G1 X128.565 Y128.565 E0.05108
G1 X127.355 Y129.673 E0.05145
G1 X126.005 Y130.700 E0.05317
G1 X124.093 Y131.857 E0.07009
G1 X122.608 Y132.555 E0.05144
G1 X121.014 Y133.135 E0.05318
G1 X119.342 Y133.572 E0.05420
G1 X117.169 Y133.901 E0.06890
G1 X115.482 Y133.977 E0.05297
G1 X113.782 Y133.896 E0.05336
G1 X111.573 Y133.554 E0.07008
G1 X109.989 Y133.136 E0.05137
G1 X108.434 Y132.573 E0.05185
G1 X106.957 Y131.883 E0.05112
G1 X105.446 Y131.001 E0.05486
G1 X103.709 Y129.726 E0.06756
G1 X102.433 Y128.563 E0.05414
G1 X101.310 Y127.334 E0.05220
G1 X100.041 Y125.618 E0.06692
G1 X99.147 Y124.101 E0.05520
G1 X98.430 Y122.572 E0.05296
G1 X97.873 Y121.041 E0.05107
G1 X97.423 Y119.317 E0.05585
G1 X97.108 Y117.268 E0.06501
G1 X97.023 Y115.501 E0.05546
G1 X97.095 Y113.872 E0.05112
G1 X97.335 Y112.121 E0.05542
G1 X97.838 Y110.076 E0.06603
G1 X98.429 Y108.431 E0.05481
G1 X99.129 Y106.933 E0.05183
G1 X100.047 Y105.373 E0.05677
G1 X101.310 Y103.666 E0.06659
G1 X102.364 Y102.511 E0.04902
G1 E-3.50000 F3600.000
;WIPE_START
G1 F7200.000
G1 X103.743 Y101.247 E-0.88848
G1 X104.654 Y100.579 E-0.53652
;WIPE_END
G1 E-0.07500 F3600.000
G1 X107.872 Y107.872 F9000.000
G1 E5.00000 F2400.000
;TYPE:Perimeter
G1 F1200.000
G1 X108.566 Y107.236 E0.02951
G1 X109.312 Y106.663 E0.02951
G1 X110.106 Y106.158 E0.02951
G1 X110.935 Y105.726 E0.02931
G1 X111.378 Y105.531 E0.01516
G1 X112.256 Y105.212 E0.02931
G1 X113.165 Y104.968 E0.02951
G1 X114.086 Y104.806 E0.02931
G1 X114.566 Y104.753 E0.01515
G1 X115.464 Y104.713 E0.02819
G1 X116.439 Y104.753 E0.03061
G1 X117.373 Y104.876 E0.02953
G1 X118.292 Y105.080 E0.02951
G1 X119.183 Y105.361 E0.02931
G1 X119.628 Y105.534 E0.01496
G1 X120.065 Y105.726 E0.01496
G1 X120.894 Y106.158 E0.02931
G1 X121.688 Y106.663 E0.02951
G1 X122.434 Y107.236 E0.02951
G1 X123.128 Y107.872 E0.02951
G1 X123.764 Y108.566 E0.02951
G1 X124.337 Y109.312 E0.02951
G1 X124.842 Y110.106 E0.02951
G1 X125.274 Y110.935 E0.02931
G1 X125.469 Y111.378 E0.01516
G1 X125.788 Y112.256 E0.02931
G1 X126.032 Y113.165 E0.02951
G1 X126.195 Y114.092 E0.02951
G1 X126.277 Y115.023 E0.02931
G1 X126.287 Y115.500 E0.01496
G1 X126.277 Y115.977 E0.01496
G1 X126.195 Y116.908 E0.02931
G1 X126.032 Y117.835 E0.02951
G1 X125.788 Y118.744 E0.02951
G1 X125.469 Y119.622 E0.02931
G1 X125.274 Y120.065 E0.01516
G1 X124.842 Y120.894 E0.02931
G1 X124.337 Y121.688 E0.02951
G1 X123.764 Y122.434 E0.02951
G1 X123.128 Y123.128 E0.02951
G1 X122.434 Y123.764 E0.02951
G1 X121.688 Y124.337 E0.02951
G1 X120.894 Y124.842 E0.02951
G1 X120.065 Y125.274 E0.02931
G1 X119.622 Y125.469 E0.01516
G1 X118.744 Y125.788 E0.02931
G1 X117.835 Y126.032 E0.02951
G1 X116.908 Y126.195 E0.02951
G1 X115.977 Y126.277 E0.02931
G1 X115.500 Y126.287 E0.01496
G1 X115.023 Y126.277 E0.01496
G1 X114.092 Y126.195 E0.02931
G1 X113.165 Y126.032 E0.02951
G1 X112.256 Y125.788 E0.02951
G1 X111.378 Y125.469 E0.02931
G1 X110.935 Y125.274 E0.01516
G1 X110.106 Y124.842 E0.02931
G1 X109.312 Y124.337 E0.02951
G1 X108.566 Y123.764 E0.02951
G1 X107.872 Y123.128 E0.02951
G1 X107.236 Y122.434 E0.02951
G1 X106.663 Y121.688 E0.02951
G1 X106.158 Y120.894 E0.02951
G1 X105.726 Y120.065 E0.02931
G1 X105.531 Y119.622 E0.01516
G1 X105.212 Y118.744 E0.02931
G1 X104.968 Y117.835 E0.02951
G1 X104.805 Y116.908 E0.02951
G1 X104.723 Y115.977 E0.02931
G1 X104.713 Y115.500 E0.01496
G1 X104.723 Y115.023 E0.01496
G1 X104.805 Y114.092 E0.02931
G1 X104.968 Y113.165 E0.02951
G1 X105.212 Y112.256 E0.02951
G1 X105.531 Y111.378 E0.02931
G1 X105.726 Y110.935 E0.01516
G1 X106.158 Y110.106 E0.02931
G1 X106.663 Y109.312 E0.02951
G1 X107.236 Y108.566 E0.02951
G1 X107.831 Y107.916 E0.02763
G1 X108.109 Y108.171 F9000.000
;TYPE:External perimeter
G1 F1200.000
G1 X108.808 Y107.525 E0.02984
G1 X109.529 Y106.972 E0.02848
G1 X110.295 Y106.484 E0.02848
G1 X111.098 Y106.066 E0.02840
G1 X111.518 Y105.881 E0.01438
G1 X112.370 Y105.572 E0.02840
G1 X113.247 Y105.337 E0.02848
G1 X114.139 Y105.179 E0.02840
G1 X114.595 Y105.129 E0.01438
G1 X115.465 Y105.091 E0.02730
G1 X116.407 Y105.129 E0.02957
G1 X117.308 Y105.248 E0.02848
G1 X118.194 Y105.444 E0.02848
G1 X119.058 Y105.717 E0.02840
G1 X119.484 Y105.882 E0.01431
G1 X119.902 Y106.066 E0.01431
G1 X120.705 Y106.484 E0.02840
G1 X121.471 Y106.972 E0.02848
G1 X122.192 Y107.525 E0.02848
G1 X122.861 Y108.139 E0.02848
G1 X123.475 Y108.808 E0.02848
G1 X124.028 Y109.529 E0.02848
G1 X124.516 Y110.295 E0.02848
G1 X124.934 Y111.098 E0.02840
G1 X125.119 Y111.518 E0.01438
G1 X125.428 Y112.370 E0.02840
G1 X125.663 Y113.247 E0.02848
G1 X125.821 Y114.141 E0.02848
G1 X125.900 Y115.044 E0.02840
G1 X125.910 Y115.500 E0.01431
G1 X125.900 Y115.956 E0.01431
G1 X125.821 Y116.859 E0.02840
G1 X125.663 Y117.753 E0.02848
G1 X125.428 Y118.630 E0.02848
G1 X125.119 Y119.482 E0.02840
G1 X124.934 Y119.902 E0.01438
G1 X124.516 Y120.705 E0.02840
G1 X124.028 Y121.471 E0.02848
G1 X123.475 Y122.192 E0.02848
G1 X122.861 Y122.861 E0.02848
G1 X122.192 Y123.475 E0.02848
G1 X121.471 Y124.028 E0.02848
G1 X120.705 Y124.516 E0.02848
G1 X119.902 Y124.934 E0.02840
G1 X119.482 Y125.119 E0.01438
G1 X118.630 Y125.428 E0.02840
G1 X117.753 Y125.663 E0.02848
G1 X116.859 Y125.821 E0.02848
G1 X115.956 Y125.900 E0.02840
G1 X115.500 Y125.910 E0.01431
G1 X115.044 Y125.900 E0.01431
G1 X114.141 Y125.821 E0.02840
G1 X113.247 Y125.663 E0.02848
G1 X112.370 Y125.428 E0.02848
G1 X111.518 Y125.119 E0.02840
G1 X111.098 Y124.934 E0.01438
G1 X110.295 Y124.516 E0.02840
G1 X109.529 Y124.028 E0.02848
G1 X108.808 Y123.475 E0.02848
G1 X108.139 Y122.861 E0.02848
G1 X107.525 Y122.192 E0.02848
G1 X106.972 Y121.471 E0.02848
G1 X106.484 Y120.705 E0.02848
G1 X106.066 Y119.902 E0.02840
G1 X105.881 Y119.482 E0.01438
G1 X105.572 Y118.630 E0.02840
G1 X105.337 Y117.753 E0.02848
G1 X105.179 Y116.859 E0.02848
G1 X105.100 Y115.956 E0.02840
G1 X105.090 Y115.500 E0.01431
G1 X105.100 Y115.044 E0.01431
G1 X105.179 Y114.141 E0.02840
G1 X105.337 Y113.247 E0.02848
G1 X105.572 Y112.370 E0.02848
G1 X105.881 Y111.518 E0.02840
G1 X106.066 Y111.098 E0.01438
G1 X106.484 Y110.295 E0.02840
G1 X106.972 Y109.529 E0.02848
G1 X107.525 Y108.808 E0.02848
G1 X108.069 Y108.215 E0.02523
G1 X108.005 Y107.785 F9000.000
G1 E-3.50000 F3600.000
;WIPE_START
G1 F7200.000
G1 X108.808 Y107.525 E-0.48039
G1 X109.529 Y106.972 E-0.43138
G1 X110.295 Y106.484 E-0.43138
G1 X110.448 Y106.405 E-0.08184
;WIPE_END
G1 E-0.07500 F3600.000
G1 X105.319 Y105.588 F9000.000
G1 E5.00000 F2400.000
;TYPE:Perimeter
G1 F1200.000
G1 X105.910 Y105.010 E0.02591
G1 X106.387 Y104.594 E0.01985
G1 X106.845 Y104.227 E0.01840
G1 X107.326 Y103.873 E0.01871
G1 X107.844 Y103.526 E0.01958
G1 X108.394 Y103.191 E0.02017
G1 X108.937 Y102.893 E0.01944
G1 X109.492 Y102.620 E0.01939
G1 X110.065 Y102.367 E0.01963
G1 X110.667 Y102.134 E0.02024
G1 X111.226 Y101.945 E0.01850
G1 X111.795 Y101.779 E0.01858
G1 X112.424 Y101.624 E0.02032
G1 X113.032 Y101.503 E0.01944
G1 X113.625 Y101.411 E0.01882
G1 X114.261 Y101.341 E0.02006
G1 X114.897 Y101.300 E0.01997
G1 X115.513 Y101.287 E0.01932
G1 X116.116 Y101.301 E0.01891
G1 X116.740 Y101.341 E0.01960
G1 X117.383 Y101.413 E0.02028
G1 X117.968 Y101.503 E0.01857
G1 X118.549 Y101.618 E0.01856
G1 X119.180 Y101.772 E0.02035
G1 X119.775 Y101.945 E0.01943
G1 X120.366 Y102.146 E0.01957
G1 X120.950 Y102.374 E0.01966
G1 X121.507 Y102.619 E0.01910
G1 X122.059 Y102.891 E0.01927
G1 X122.606 Y103.191 E0.01959
G1 X123.137 Y103.513 E0.01945
G1 X123.643 Y103.851 E0.01910
G1 X124.143 Y104.217 E0.01941
G1 X124.632 Y104.609 E0.01966
G1 X125.101 Y105.020 E0.01955
G1 X125.550 Y105.450 E0.01947
G1 X125.979 Y105.898 E0.01946
G1 X126.388 Y106.364 E0.01945
G1 X126.776 Y106.848 E0.01943
G1 X127.156 Y107.368 E0.02020
G1 X127.487 Y107.863 E0.01868
G1 X127.832 Y108.435 E0.02094
G1 X128.121 Y108.965 E0.01894
G1 X128.620 Y110.035 E0.03701
G1 X128.856 Y110.639 E0.02033
G1 X129.063 Y111.252 E0.02029
G1 X129.228 Y111.821 E0.01859
G1 X129.382 Y112.452 E0.02034
G1 X129.497 Y113.032 E0.01855
G1 X129.587 Y113.615 E0.01849
G1 X129.656 Y114.238 E0.01968
G1 X129.699 Y114.880 E0.02017
G1 X129.713 Y115.500 E0.01944
G1 X129.699 Y116.120 E0.01944
G1 X129.658 Y116.744 E0.01960
G1 X129.591 Y117.358 E0.01936
G1 X129.493 Y117.991 E0.02011
G1 X129.367 Y118.616 E0.01996
G1 X129.228 Y119.179 E0.01820
G1 X129.057 Y119.766 E0.01918
G1 X128.856 Y120.361 E0.01969
G1 X128.631 Y120.939 E0.01944
G1 X128.382 Y121.506 E0.01941
G1 X128.085 Y122.103 E0.02090
G1 X127.505 Y123.108 E0.03640
G1 X127.156 Y123.632 E0.01972
G1 X126.776 Y124.152 E0.02023
G1 X126.388 Y124.636 E0.01943
G1 X125.979 Y125.102 E0.01945
G1 X125.550 Y125.550 E0.01946
G1 X125.101 Y125.979 E0.01945
G1 X124.632 Y126.391 E0.01959
G1 X124.142 Y126.783 E0.01967
G1 X123.642 Y127.149 E0.01943
G1 X123.138 Y127.486 E0.01901
G1 X122.607 Y127.808 E0.01946
G1 X122.002 Y128.137 E0.02160
G1 X120.951 Y128.626 E0.03636
G1 X120.366 Y128.854 E0.01967
G1 X119.775 Y129.054 E0.01956
G1 X119.179 Y129.228 E0.01946
G1 X118.549 Y129.382 E0.02035
G1 X117.968 Y129.497 E0.01856
G1 X117.383 Y129.587 E0.01857
G1 X116.738 Y129.659 E0.02035
G1 X116.119 Y129.699 E0.01943
G1 X115.495 Y129.713 E0.01958
G1 X114.868 Y129.699 E0.01966
G1 X114.250 Y129.658 E0.01941
G1 X113.648 Y129.592 E0.01900
G1 X113.032 Y129.497 E0.01954
G1 X112.424 Y129.376 E0.01945
G1 X111.822 Y129.229 E0.01943
G1 X111.238 Y129.059 E0.01906
G1 X110.644 Y128.857 E0.01967
G1 X110.062 Y128.631 E0.01955
G1 X109.494 Y128.381 E0.01947
G1 X108.937 Y128.107 E0.01946
G1 X108.394 Y127.809 E0.01943
G1 X107.844 Y127.474 E0.02017
G1 X107.327 Y127.128 E0.01952
G1 X106.847 Y126.775 E0.01867
G1 X106.377 Y126.398 E0.01890
G1 X105.889 Y125.971 E0.02033
G1 X105.449 Y125.549 E0.01910
G1 X105.025 Y125.106 E0.01926
G1 X104.613 Y124.637 E0.01957
G1 X104.187 Y124.101 E0.02147
G1 X103.536 Y123.172 E0.03556
G1 X103.193 Y122.610 E0.02063
G1 X102.888 Y122.053 E0.01990
G1 X102.619 Y121.507 E0.01909
G1 X102.369 Y120.939 E0.01946
G1 X102.144 Y120.361 E0.01945
G1 X101.945 Y119.774 E0.01945
G1 X101.772 Y119.181 E0.01936
G1 X101.617 Y118.543 E0.02060
G1 X101.499 Y117.941 E0.01923
G1 X101.409 Y117.355 E0.01857
G1 X101.344 Y116.770 E0.01847
G1 X101.301 Y116.120 E0.02043
G1 X101.287 Y115.500 E0.01943
G1 X101.300 Y114.890 E0.01914
G1 X101.344 Y114.237 E0.02051
G1 X101.415 Y113.603 E0.01998
G1 X101.617 Y112.459 E0.03643
G1 X101.772 Y111.822 E0.02058
G1 X101.945 Y111.226 E0.01944
G1 X102.144 Y110.639 E0.01945
G1 X102.369 Y110.061 E0.01945
G1 X102.618 Y109.495 E0.01938
G1 X102.910 Y108.906 E0.02063
G1 X103.207 Y108.368 E0.01927
G1 X103.513 Y107.864 E0.01849
G1 X103.842 Y107.370 E0.01860
G1 X104.224 Y106.848 E0.02030
G1 X104.613 Y106.364 E0.01944
G1 X105.277 Y105.631 E0.03103
G1 X105.005 Y105.370 F9000.000
;TYPE:External perimeter
G1 F1200.000
G1 X105.655 Y104.732 E0.02859
G1 X106.145 Y104.305 E0.02037
G1 X106.615 Y103.927 E0.01890
G1 X107.109 Y103.565 E0.01922
G1 X107.641 Y103.208 E0.02009
G1 X108.205 Y102.865 E0.02070
G1 X108.763 Y102.559 E0.01996
G1 X109.332 Y102.278 E0.01990
G1 X109.921 Y102.019 E0.02016
G1 X110.538 Y101.780 E0.02076
G1 X111.113 Y101.585 E0.01901
G1 X111.697 Y101.415 E0.01908
G1 X112.342 Y101.256 E0.02084
G1 X112.967 Y101.132 E0.01996
G1 X113.576 Y101.038 E0.01933
G1 X114.228 Y100.966 E0.02058
G1 X114.881 Y100.923 E0.02050
G1 X115.513 Y100.910 E0.01984
G1 X116.133 Y100.924 E0.01942
G1 X116.773 Y100.966 E0.02012
G1 X117.432 Y101.039 E0.02080
G1 X118.034 Y101.132 E0.01907
G1 X118.630 Y101.250 E0.01907
G1 X119.277 Y101.407 E0.02087
G1 X119.888 Y101.586 E0.01996
G1 X120.495 Y101.792 E0.02009
G1 X121.094 Y102.025 E0.02018
G1 X121.667 Y102.277 E0.01961
G1 X122.233 Y102.556 E0.01979
G1 X122.795 Y102.865 E0.02010
G1 X123.339 Y103.195 E0.01996
G1 X123.859 Y103.542 E0.01961
G1 X124.372 Y103.918 E0.01993
G1 X124.874 Y104.320 E0.02018
