;FLAVOR:Marlin
M73 P0
M73 R127
;TIME:7649
;Filament used: 4.73688m
;Layer height: 0.2
;MINX:50.487
;MINY:62.342
;MINZ:0.2
;MAXX:150.968
;MAXY:173.342
;MAXZ:17.6
;POSTPROCESSED
;Generated with Cura_SteamEngine 4.9.1
M140 S50
M105
M190 S50
M104 S215
M105
M109 S215
M82 ;absolute extrusion mode
; Ender 3 Custom Start G-code
G92 E0 ; Reset Extruder
G28 ; Home all axes
G1 Z2.0 F3000 ; Move Z Axis up little to prevent scratching of Heat Bed
G1 X0.1 Y20 Z0.3 F5000.0 ; Move to start position
G1 X0.1 Y200.0 Z0.3 F1500.0 E15 ; Draw the first line
G1 X0.4 Y200.0 Z0.3 F5000.0 ; Move to side a little
G1 X0.4 Y20 Z0.3 F1500.0 E30 ; Draw the second line
G92 E0 ; Reset Extruder
G1 Z2.0 F3000 ; Move Z Axis up little to prevent scratching of Heat Bed
G1 X5 Y20 Z0.3 F5000.0 ; Move over to prevent blob squish
G92 E0
G92 E0
G1 F2700 E-5
;LAYER_COUNT:88
;LAYER:0
M107
G0 F6000 X68.283 Y66.257 Z0.2
;TYPE:SKIRT
G1 F2700 E0
G1 F1200 X68.965 Y65.614 E0.03118
G1 X69.91 Y64.882 E0.07093
G1 X70.201 Y64.681 E0.0827
G1 X70.481 Y64.495 E0.09388
G1 X70.829 Y64.27 E0.10766
G1 X71.637 Y63.794 E0.13885
G1 X72.483 Y63.39 E0.17003
G1 X73.361 Y63.059 E0.20124
G1 X74.325 Y62.789 E0.23454
G1 X74.628 Y62.719 E0.24488
G1 X75.128 Y62.616 E0.26186
G1 X75.588 Y62.532 E0.27741
G1 X76.674 Y62.389 E0.31384
G1 X77.434 Y62.352 E0.33915
G1 X78.231 Y62.342 E0.36566
G1 X137.261 Y62.342 E2.32901
G1 X138.143 Y62.354 E2.35835
G1 X139.079 Y62.409 E2.38953
G1 X139.977 Y62.537 E2.4197
G1 X140.344 Y62.605 E2.43212
G1 X140.647 Y62.666 E2.4424
G1 X141.034 Y62.749 E2.45556
G1 X141.942 Y62.984 E2.48676
G1 X142.826 Y63.296 E2.51793
G1 X143.681 Y63.682 E2.54914
G1 X144.553 Y64.174 E2.58244
G1 X144.79 Y64.322 E2.59173
G1 X145.226 Y64.609 E2.60909
G1 X145.639 Y64.895 E2.6258
G1 X146.387 Y65.461 E2.657
G1 X147.084 Y66.089 E2.6882
G1 X147.724 Y66.774 E2.71938
G1 X148.432 Y67.693 E2.75797
G1 X148.632 Y67.983 E2.76968
G1 X148.805 Y68.241 E2.78002
G1 X149.034 Y68.594 E2.79401
G1 X149.511 Y69.402 E2.82522
G1 X149.917 Y70.248 E2.85643
G1 X150.249 Y71.125 E2.88762
G1 X150.541 Y72.18 E2.92403
G1 X150.611 Y72.493 E2.93469
G1 X150.697 Y72.916 E2.94905
G1 X150.778 Y73.359 E2.96403
G1 X150.907 Y74.287 E2.99519
G1 X150.956 Y75.169 E3.02457
G1 X150.968 Y76.059 E3.05418
G1 X150.967 Y142.346 E5.25889
G1 X150.96 Y142.823 E5.27476
G1 X150.949 Y143.179 E5.2866
G1 X150.894 Y144.349 E5.32556
G1 X150.825 Y145.421 E5.36129
G1 X150.756 Y146.301 E5.39065
G1 X150.644 Y147.223 E5.42154
G1 X150.603 Y147.471 E5.4299
G1 X150.527 Y147.888 E5.444
G1 X150.233 Y149.368 E5.49419
G1 X150.05 Y150.229 E5.52346
G1 X149.825 Y151.101 E5.55342
G1 X149.665 Y151.622 E5.57154
G1 X149.573 Y151.9 E5.58128
G1 X149.142 Y153.169 E5.62586
G1 X148.847 Y154.003 E5.65528
G1 X148.474 Y154.924 E5.68833
G1 X148.288 Y155.326 E5.70306
G1 X148.14 Y155.631 E5.71434
G1 X147.453 Y157.023 E5.76597
G1 X147.141 Y157.632 E5.78873
G1 X146.704 Y158.406 E5.81829
G1 X146.561 Y158.637 E5.82733
G1 X146.356 Y158.955 E5.83991
G1 X145.356 Y160.451 E5.89976
G1 X144.993 Y160.976 E5.92099
G1 X144.45 Y161.696 E5.95098
G1 X144.272 Y161.913 E5.96032
G1 X144.046 Y162.18 E5.97195
G1 X142.998 Y163.378 E6.02489
G1 X142.4 Y164.039 E6.05454
G1 X141.795 Y164.655 E6.08326
G1 X141.625 Y164.815 E6.09102
G1 X141.271 Y165.137 E6.10694
G1 X140.142 Y166.127 E6.15688
G1 X139.465 Y166.704 E6.18647
G1 X138.714 Y167.29 E6.21815
G1 X138.366 Y167.535 E6.2323
G1 X138.073 Y167.734 E6.24408
G1 X136.818 Y168.572 E6.29428
G1 X136.226 Y168.956 E6.31775
G1 X135.436 Y169.423 E6.34827
G1 X135.199 Y169.55 E6.35721
G1 X134.875 Y169.716 E6.36932
G1 X133.315 Y170.485 E6.42717
G1 X132.664 Y170.794 E6.45113
G1 X131.805 Y171.158 E6.48216
G1 X131.554 Y171.252 E6.49108
G1 X131.235 Y171.366 E6.50235
G1 X129.577 Y171.928 E6.56057
G1 X128.95 Y172.131 E6.58249
G1 X128.126 Y172.363 E6.61097
G1 X127.884 Y172.421 E6.61924
G1 X127.572 Y172.491 E6.62988
G1 X127.271 Y172.553 E6.6401
G1 X125.726 Y172.86 E6.69249
G1 X125.057 Y172.983 E6.71511
G1 X124.199 Y173.106 E6.74394
G1 X123.928 Y173.134 E6.753
G1 X123.524 Y173.168 E6.76649
G1 X121.755 Y173.284 E6.82545
G1 X121.322 Y173.306 E6.83987
G1 X120.966 Y173.318 E6.85172
G1 X119.768 Y173.34 E6.89157
G1 X119.566 Y173.342 E6.89829
G1 X79.466 Y173.341 E8.23202
G1 X78.981 Y173.334 E8.24816
G1 X78.623 Y173.323 E8.26007
G1 X77.476 Y173.269 E8.29826
G1 X76.634 Y173.216 E8.32632
G1 X75.747 Y173.146 E8.35591
G1 X74.824 Y173.032 E8.38685
G1 X74.578 Y172.991 E8.39514
G1 X74.254 Y172.933 E8.40609
G1 X72.963 Y172.678 E8.44986
G1 X72.098 Y172.494 E8.47927
G1 X71.193 Y172.26 E8.51036
G1 X70.95 Y172.186 E8.51881
G1 X70.63 Y172.083 E8.52999
G1 X69.273 Y171.623 E8.57765
G1 X68.565 Y171.372 E8.60263
G1 X67.647 Y170.999 E8.63559
G1 X67.233 Y170.807 E8.65077
G1 X66.978 Y170.683 E8.6602
G1 X65.828 Y170.116 E8.70284
G1 X65.209 Y169.801 E8.72594
G1 X64.287 Y169.274 E8.76127
G1 X63.77 Y168.942 E8.7817
G1 X62.639 Y168.187 E8.82693
G1 X62.06 Y167.788 E8.85032
G1 X61.287 Y167.203 E8.88256
G1 X61.072 Y167.025 E8.89184
G1 X60.84 Y166.827 E8.90199
G1 X59.679 Y165.809 E8.95335
G1 X59.18 Y165.356 E8.97576
G1 X58.546 Y164.731 E9.00537
G1 X58.398 Y164.573 E9.01257
G1 X58.008 Y164.141 E9.03193
G1 X57.143 Y163.153 E9.07561
G1 X56.728 Y162.665 E9.09691
G1 X56.486 Y162.371 E9.10958
G1 X56.14 Y161.914 E9.12864
G1 X55.87 Y161.533 E9.14417
G1 X55.663 Y161.231 E9.15635
G1 X54.981 Y160.207 E9.19727
G1 X54.582 Y159.592 E9.22165
G1 X54.091 Y158.758 E9.25384
G1 X53.968 Y158.526 E9.26258
G1 X53.826 Y158.248 E9.27296
G1 X53.175 Y156.928 E9.32191
G1 X52.867 Y156.279 E9.34581
G1 X52.51 Y155.438 E9.37619
G1 X52.408 Y155.167 E9.38582
G1 X52.291 Y154.839 E9.39741
G1 X51.834 Y153.494 E9.44465
G1 X51.608 Y152.796 E9.46906
G1 X51.377 Y151.977 E9.49736
G1 X51.322 Y151.748 E9.50519
G1 X51.25 Y151.425 E9.5162
G1 X51.189 Y151.132 E9.52615
G1 X50.926 Y149.8 E9.57131
G1 X50.808 Y149.158 E9.59302
G1 X50.675 Y148.194 E9.62539
G1 X50.635 Y147.755 E9.64005
G1 X50.611 Y147.434 E9.65076
G1 X50.525 Y146.099 E9.69525
G1 X50.492 Y145.414 E9.71806
G1 X50.487 Y144.476 E9.74926
G1 X50.578 Y143.409 E9.78488
G1 X50.609 Y143.18 E9.79256
G1 X50.669 Y142.79 E9.80569
G1 X50.732 Y142.424 E9.81804
G1 X50.931 Y141.507 E9.84925
G1 X51.206 Y140.611 E9.88042
G1 X51.686 Y139.468 E9.92165
G1 X51.865 Y139.101 E9.93523
G1 X52.034 Y138.77 E9.94759
G1 X52.148 Y138.555 E9.95569
G1 X52.288 Y138.299 E9.96539
G1 X52.988 Y137.06 E10.01272
G1 X53.119 Y136.835 E10.02138
G1 X54.312 Y134.647 E10.10427
G1 X55.46 Y132.389 E10.18852
G1 X56.518 Y130.157 E10.27068
G1 X57.553 Y127.799 E10.35633
G1 X58.49 Y125.493 E10.43911
G1 X59.366 Y123.15 E10.52231
G1 X60.191 Y120.735 E10.60719
G1 X60.93 Y118.353 E10.69014
G1 X61.608 Y115.927 E10.77392
G1 X62.226 Y113.455 E10.85867
G1 X62.757 Y111.029 E10.94127
G1 X63.232 Y108.526 E11.02601
G1 X63.623 Y106.096 E11.10787
G1 X63.957 Y103.562 E11.19288
G1 X64.219 Y101.035 E11.27738
G1 X64.404 Y98.561 E11.35989
G1 X64.519 Y96.07 E11.44283
G1 X64.568 Y93.055 E11.54313
M73 P1
G1 X64.569 Y75.879 E12.1144
G1 X64.58 Y75.169 E12.13802
G1 X64.635 Y74.232 E12.16924
G1 X64.755 Y73.379 E12.19789
G1 X64.818 Y73.031 E12.20965
G1 X64.893 Y72.654 E12.22244
G1 X64.983 Y72.24 E12.23653
G1 X65.221 Y71.333 E12.26772
G1 X65.536 Y70.45 E12.2989
G1 X65.924 Y69.596 E12.3301
G1 X66.331 Y68.865 E12.35792
G1 X66.573 Y68.478 E12.3731
G1 X66.831 Y68.089 E12.38863
G1 X67.094 Y67.706 E12.40408
G1 X67.657 Y66.956 E12.43527
G1 X68.283 Y66.257 E12.46648
G0 F6000 X68.593 Y66.512
G1 F1200 X69.265 Y65.883 E12.4971
G1 X70.138 Y65.211 E12.53374
G1 X70.429 Y65.01 E12.5455
G1 X70.698 Y64.83 E12.55627
G1 X71.046 Y64.605 E12.57005
G1 X71.84 Y64.14 E12.60066
G1 X72.671 Y63.745 E12.63126
G1 X73.534 Y63.423 E12.66189
G1 X74.415 Y63.179 E12.6923
G1 X74.718 Y63.109 E12.70264
G1 X75.2 Y63.009 E12.71902
G1 X75.66 Y62.925 E12.73457
G1 X76.708 Y62.788 E12.76972
G1 X77.44 Y62.752 E12.7941
G1 X78.231 Y62.742 E12.82041
G1 X137.261 Y62.742 E14.78375
G1 X138.137 Y62.754 E14.81289
G1 X139.056 Y62.808 E14.84351
G1 X139.904 Y62.93 E14.87201
G1 X140.271 Y62.998 E14.88442
G1 X140.563 Y63.057 E14.89433
G1 X140.95 Y63.14 E14.90749
G1 X141.841 Y63.372 E14.93812
G1 X142.708 Y63.68 E14.96872
G1 X143.546 Y64.063 E14.99936
G1 X144.342 Y64.513 E15.02978
G1 X144.579 Y64.661 E15.03907
G1 X144.999 Y64.938 E15.0558
G1 X145.412 Y65.224 E15.07251
G1 X146.145 Y65.78 E15.10311
G1 X146.827 Y66.398 E15.13372
G1 X147.454 Y67.073 E15.16436
G1 X148.103 Y67.92 E15.19985
G1 X148.303 Y68.21 E15.21157
G1 X148.47 Y68.459 E15.22154
G1 X148.699 Y68.812 E15.23554
G1 X149.166 Y69.605 E15.26615
G1 X149.562 Y70.436 E15.29676
G1 X149.885 Y71.299 E15.32741
G1 X150.15 Y72.268 E15.36083
G1 X150.22 Y72.581 E15.37149
G1 X150.303 Y72.987 E15.38528
G1 X150.384 Y73.43 E15.40025
G1 X150.51 Y74.342 E15.43088
G1 X150.556 Y75.176 E15.45866
G1 X150.568 Y76.059 E15.48803
G1 X150.567 Y142.341 E17.69258
G1 X150.56 Y142.818 E17.70844
G1 X150.549 Y143.16 E17.71982
G1 X150.494 Y144.33 E17.75878
G1 X150.483 Y144.527 E17.76534
G1 X150.416 Y145.541 E17.79914
G1 X150.358 Y146.27 E17.82347
G1 X150.249 Y147.158 E17.85322
G1 X150.169 Y147.627 E17.86905
G1 X150.111 Y147.934 E17.87944
G1 X149.81 Y149.44 E17.93052
G1 X149.659 Y150.145 E17.9545
G1 X149.443 Y150.986 E17.98338
G1 X149.367 Y151.238 E17.99213
G1 X149.224 Y151.681 E18.00762
G1 X148.763 Y153.04 E18.05535
G1 X148.47 Y153.87 E18.08462
G1 X148.11 Y154.758 E18.11649
G1 X147.927 Y155.152 E18.13094
G1 X147.781 Y155.454 E18.1421
G1 X147.097 Y156.84 E18.1935
G1 X146.785 Y157.449 E18.21626
G1 X146.364 Y158.195 E18.24475
G1 X146.221 Y158.426 E18.25379
G1 X146.024 Y158.733 E18.26592
G1 X145.124 Y160.081 E18.31983
G1 X144.664 Y160.748 E18.34678
G1 X144.141 Y161.443 E18.37571
G1 X143.963 Y161.66 E18.38504
G1 X143.745 Y161.916 E18.39623
G1 X142.697 Y163.114 E18.44917
G1 X142.567 Y163.26 E18.45567
G1 X142.104 Y163.77 E18.47858
G1 X141.521 Y164.364 E18.50626
G1 X141.172 Y164.689 E18.52212
G1 X140.903 Y164.929 E18.53411
G1 X139.761 Y165.928 E18.58458
G1 X139.206 Y166.4 E18.60881
G1 X138.482 Y166.964 E18.63934
G1 X138.14 Y167.204 E18.65323
G1 X137.851 Y167.402 E18.66489
G1 X136.723 Y168.156 E18.71001
G1 X136.008 Y168.62 E18.73836
G1 X135.247 Y169.07 E18.76777
G1 X135.01 Y169.197 E18.77671
G1 X134.697 Y169.358 E18.78842
G1 X133.143 Y170.124 E18.84604
G1 X132.492 Y170.433 E18.87001
G1 X131.665 Y170.784 E18.89989
G1 X131.414 Y170.878 E18.9088
G1 X131.106 Y170.988 E18.91968
G1 X129.454 Y171.548 E18.9777
G1 X128.827 Y171.751 E18.99962
G1 X128.033 Y171.974 E19.02705
G1 X127.791 Y172.032 E19.03533
G1 X127.49 Y172.099 E19.04558
G1 X127.193 Y172.161 E19.05567
G1 X125.654 Y172.466 E19.10786
G1 X124.985 Y172.589 E19.13048
G1 X124.157 Y172.708 E19.1583
G1 X123.886 Y172.736 E19.16736
G1 X123.498 Y172.769 E19.18032
G1 X121.898 Y172.875 E19.23365
G1 X121.302 Y172.906 E19.2535
G1 X120.959 Y172.918 E19.26491
G1 X119.566 Y172.942 E19.31125
G1 X79.472 Y172.941 E20.64478
G1 X78.987 Y172.934 E20.66092
G1 X78.642 Y172.923 E20.6724
G1 X77.315 Y172.859 E20.71658
G1 X76.485 Y172.805 E20.74425
G1 X75.779 Y172.748 E20.76781
G1 X74.889 Y172.638 E20.79763
G1 X74.643 Y172.597 E20.80593
G1 X74.332 Y172.54 E20.81645
G1 X72.879 Y172.252 E20.86571
G1 X72.182 Y172.103 E20.88942
G1 X71.31 Y171.877 E20.91938
G1 X71.067 Y171.803 E20.92783
G1 X70.758 Y171.704 E20.93862
G1 X69.407 Y171.246 E20.98607
G1 X68.699 Y170.995 E21.01105
G1 X67.814 Y170.635 E21.04283
G1 X67.406 Y170.446 E21.05778
G1 X67.154 Y170.325 E21.06708
G1 X66.128 Y169.819 E21.10513
G1 X65.391 Y169.444 E21.13263
G1 X64.502 Y168.936 E21.16669
G1 X63.992 Y168.609 E21.18684
G1 X62.866 Y167.857 E21.23187
G1 X62.287 Y167.458 E21.25526
G1 X61.542 Y166.895 E21.28632
G1 X61.327 Y166.717 E21.2956
G1 X61.104 Y166.526 E21.30537
G1 X59.948 Y165.512 E21.35651
G1 X59.449 Y165.059 E21.37893
G1 X58.838 Y164.458 E21.40743
G1 X58.519 Y164.113 E21.42306
G1 X58.309 Y163.877 E21.43357
G1 X57.448 Y162.894 E21.47703
G1 X57.033 Y162.406 E21.49834
G1 X56.799 Y162.121 E21.5106
G1 X56.465 Y161.68 E21.529
G1 X56.199 Y161.307 E21.54424
G1 X55.996 Y161.009 E21.55623
G1 X55.317 Y159.989 E21.59699
G1 X54.918 Y159.374 E21.62137
G1 X54.445 Y158.57 E21.6524
G1 X54.322 Y158.338 E21.66113
G1 X54.185 Y158.071 E21.67111
G1 X53.537 Y156.757 E21.71984
G1 X53.229 Y156.108 E21.74373
G1 X52.884 Y155.297 E21.77305
G1 X52.782 Y155.026 E21.78268
G1 X52.669 Y154.71 E21.79384
G1 X52.214 Y153.371 E21.84088
G1 X51.988 Y152.673 E21.86528
G1 X51.766 Y151.883 E21.89257
G1 X51.711 Y151.654 E21.90041
G1 X51.641 Y151.343 E21.91101
G1 X51.581 Y151.054 E21.92083
G1 X51.347 Y149.874 E21.96084
G1 X51.202 Y149.086 E21.98749
G1 X51.073 Y148.157 E22.01868
G1 X51.034 Y147.723 E22.03317
G1 X51.01 Y147.407 E22.04371
G1 X50.924 Y146.08 E22.08794
G1 X50.891 Y145.395 E22.11075
G1 X50.887 Y144.474 E22.14139
G1 X50.975 Y143.463 E22.17514
G1 X51.006 Y143.234 E22.18282
G1 X51.064 Y142.858 E22.19548
G1 X51.127 Y142.492 E22.20783
G1 X51.322 Y141.592 E22.23846
G1 X51.595 Y140.713 E22.26907
G1 X52.046 Y139.643 E22.30769
G1 X52.225 Y139.276 E22.32127
G1 X52.387 Y138.957 E22.33317
G1 X52.501 Y138.742 E22.34127
G1 X52.636 Y138.495 E22.35063
G1 X53.334 Y137.262 E22.39775
G1 X53.458 Y137.049 E22.40595
G1 X54.662 Y134.841 E22.4896
G1 X55.813 Y132.577 E22.57407
G1 X56.901 Y130.281 E22.65858
G1 X57.9 Y128.005 E22.74125
M73 P2
G1 X58.864 Y125.635 E22.82635
G1 X59.754 Y123.251 E22.91098
G1 X60.569 Y120.867 E22.99478
G1 X61.311 Y118.475 E23.07808
G1 X61.996 Y116.027 E23.16263
G1 X62.619 Y113.533 E23.24813
G1 X63.146 Y111.125 E23.33011
G1 X63.621 Y108.621 E23.41488
G1 X64.026 Y106.106 E23.49961
G1 X64.353 Y103.624 E23.58287
G1 X64.617 Y101.072 E23.66821
G1 X64.802 Y98.606 E23.75046
G1 X64.92 Y96.062 E23.83516
G1 X64.968 Y93.062 E23.93496
G1 X64.969 Y75.885 E24.50626
G1 X64.98 Y75.175 E24.52988
G1 X65.034 Y74.256 E24.5605
G1 X65.149 Y73.451 E24.58755
G1 X65.212 Y73.103 E24.59931
G1 X65.284 Y72.739 E24.61165
G1 X65.374 Y72.325 E24.62574
G1 X65.608 Y71.435 E24.65635
G1 X65.919 Y70.568 E24.68699
G1 X66.304 Y69.732 E24.7176
G1 X66.673 Y69.073 E24.74272
G1 X66.908 Y68.697 E24.75747
G1 X67.161 Y68.316 E24.77268
G1 X67.424 Y67.933 E24.78813
G1 X67.977 Y67.197 E24.81875
G1 X68.593 Y66.512 E24.84939
G0 F6000 X68.903 Y66.768
G1 F1200 X69.565 Y66.154 E24.87942
G1 X70.365 Y65.54 E24.91296
G1 X70.656 Y65.339 E24.92473
G1 X70.915 Y65.166 E24.93509
G1 X71.263 Y64.941 E24.94887
G1 X72.042 Y64.485 E24.97889
G1 X72.859 Y64.1 E25.00893
G1 X73.706 Y63.788 E25.03895
G1 X74.505 Y63.569 E25.06651
G1 X74.808 Y63.499 E25.07685
G1 X75.272 Y63.403 E25.09261
G1 X75.732 Y63.319 E25.10816
G1 X76.741 Y63.186 E25.14201
G1 X77.445 Y63.152 E25.16545
G1 X78.231 Y63.142 E25.1916
G1 X137.261 Y63.142 E27.15494
G1 X138.131 Y63.154 E27.18388
G1 X139.032 Y63.208 E27.21391
G1 X139.831 Y63.324 E27.24076
G1 X140.198 Y63.392 E27.25317
G1 X140.479 Y63.448 E27.2627
G1 X140.866 Y63.531 E27.27587
G1 X141.74 Y63.759 E27.30591
G1 X142.59 Y64.064 E27.33595
G1 X143.41 Y64.442 E27.36598
G1 X144.13 Y64.852 E27.39353
G1 X144.367 Y65 E27.40283
G1 X144.771 Y65.266 E27.41892
G1 X145.184 Y65.552 E27.43562
G1 X145.903 Y66.099 E27.46567
G1 X146.571 Y66.707 E27.49572
G1 X147.182 Y67.372 E27.52575
G1 X147.774 Y68.147 E27.55819
G1 X147.974 Y68.437 E27.56991
G1 X148.134 Y68.677 E27.5795
G1 X148.363 Y69.03 E27.59349
G1 X148.821 Y69.808 E27.62352
G1 X149.207 Y70.625 E27.65357
G1 X149.521 Y71.472 E27.68362
G1 X149.76 Y72.355 E27.71405
G1 X149.83 Y72.668 E27.72471
G1 X149.91 Y73.059 E27.73799
G1 X149.991 Y73.502 E27.75297
G1 X150.114 Y74.397 E27.78301
G1 X150.156 Y75.182 E27.80916
G1 X150.168 Y76.059 E27.83833
G1 X150.167 Y142.335 E30.04268
G1 X150.16 Y142.812 E30.05855
G1 X150.15 Y143.141 E30.06949
