;FLAVOR:Marlin
M73 P0
M73 R185
;TIME:11116
;Filament used: 6.92733m
;Layer height: 0.2
;MINX:67.25
;MINY:49.5
;MINZ:0.2
;MAXX:167.737
;MAXY:185.499
;MAXZ:20.6
;POSTPROCESSED
;Generated with Cura_SteamEngine 4.9.1
M140 S50
M105
M190 S50
M104 S215
M105
M109 S215
M82 ;absolute extrusion mode
; Ender 3 Custom Start G-code
G92 E0 ; Reset Extruder
G28 ; Home all axes
G1 Z2.0 F3000 ; Move Z Axis up little to prevent scratching of Heat Bed
G1 X0.1 Y20 Z0.3 F5000.0 ; Move to start position
G1 X0.1 Y200.0 Z0.3 F1500.0 E15 ; Draw the first line
G1 X0.4 Y200.0 Z0.3 F5000.0 ; Move to side a little
G1 X0.4 Y20 Z0.3 F1500.0 E30 ; Draw the second line
G92 E0 ; Reset Extruder
G1 Z2.0 F3000 ; Move Z Axis up little to prevent scratching of Heat Bed
G1 X5 Y20 Z0.3 F5000.0 ; Move over to prevent blob squish
G92 E0
G92 E0
G1 F2700 E-5
;LAYER_COUNT:103
;LAYER:0
M107
G0 F6000 X70.357 Y54.093 Z0.2
;TYPE:SKIRT
G1 F2700 E0
G1 F1200 X70.985 Y53.396 E0.0312
G1 X71.669 Y52.755 E0.06238
G1 X72.364 Y52.203 E0.0919
G1 X72.708 Y51.96 E0.10591
G1 X73.104 Y51.693 E0.1218
G1 X73.488 Y51.443 E0.13704
G1 X74.295 Y50.965 E0.16823
G1 X75.14 Y50.558 E0.19943
G1 X76.017 Y50.224 E0.23064
G1 X77.179 Y49.907 E0.2707
G1 X77.528 Y49.832 E0.28257
G1 X77.831 Y49.771 E0.29285
G1 X78.235 Y49.696 E0.30652
G1 X79.164 Y49.564 E0.33773
G1 X79.722 Y49.523 E0.35634
G1 X80.152 Y49.509 E0.37065
G1 X80.894 Y49.5 E0.39533
G1 X140.106 Y49.502 E2.36473
G1 X140.805 Y49.512 E2.38798
G1 X142.204 Y49.622 E2.43465
G1 X142.697 Y49.701 E2.45126
G1 X142.953 Y49.748 E2.45992
G1 X143.272 Y49.811 E2.47073
G1 X143.72 Y49.907 E2.48597
G1 X144.628 Y50.143 E2.51717
G1 X145.512 Y50.455 E2.54835
G1 X146.367 Y50.841 E2.57955
G1 X147.376 Y51.418 E2.61821
G1 X147.666 Y51.605 E2.62969
G1 X147.961 Y51.802 E2.64149
G1 X148.311 Y52.044 E2.65564
G1 X149.059 Y52.61 E2.68684
G1 X149.756 Y53.237 E2.71802
G1 X150.397 Y53.922 E2.74922
G1 X150.788 Y54.403 E2.76984
G1 X150.824 Y54.45 E2.77181
G1 X151.166 Y54.923 E2.79122
G1 X151.303 Y55.123 E2.79929
G1 X151.444 Y55.334 E2.80773
G1 X151.704 Y55.733 E2.82357
G1 X152.182 Y56.539 E2.85474
G1 X152.59 Y57.384 E2.88594
G1 X152.924 Y58.26 E2.91713
G1 X153.239 Y59.41 E2.95678
G1 X153.315 Y59.761 E2.96873
G1 X153.38 Y60.084 E2.97969
G1 X153.456 Y60.494 E2.99356
G1 X153.587 Y61.423 E3.02476
G1 X153.639 Y62.319 E3.05461
G1 X153.649 Y62.93 E3.07494
G1 X153.65 Y80.24 E3.65067
G1 X153.687 Y82.848 E3.73742
G1 X153.794 Y85.369 E3.82135
G1 X153.971 Y87.864 E3.90454
G1 X154.219 Y90.364 E3.9881
G1 X154.538 Y92.857 E4.07169
G1 X154.929 Y95.35 E4.15562
G1 X155.392 Y97.84 E4.23986
G1 X155.922 Y100.304 E4.32369
G1 X156.511 Y102.706 E4.40594
G1 X157.187 Y105.162 E4.49067
G1 X157.925 Y107.572 E4.5745
G1 X158.732 Y109.964 E4.65846
G1 X159.595 Y112.304 E4.74142
G1 X160.541 Y114.66 E4.82586
G1 X161.541 Y116.958 E4.90921
G1 X162.61 Y119.239 E4.993
G1 X163.744 Y121.49 E5.07683
G1 X165.304 Y124.353 E5.18527
G1 X165.871 Y125.352 E5.22348
G1 X166.027 Y125.636 E5.23425
G1 X166.259 Y126.074 E5.25074
G1 X166.424 Y126.398 E5.26283
G1 X166.526 Y126.607 E5.27057
G1 X166.901 Y127.467 E5.30177
G1 X167.201 Y128.356 E5.33298
G1 X167.474 Y129.527 E5.37297
G1 X167.535 Y129.874 E5.38469
G1 X167.599 Y130.284 E5.39849
G1 X167.637 Y130.561 E5.40779
G1 X167.725 Y131.495 E5.43899
G1 X167.737 Y132.258 E5.46437
G1 X167.722 Y132.748 E5.48068
G1 X167.689 Y133.354 E5.50086
G1 X167.624 Y134.348 E5.534
G1 X167.554 Y135.221 E5.56313
G1 X167.441 Y136.137 E5.59382
G1 X167.399 Y136.39 E5.60235
G1 X167.337 Y136.735 E5.61401
G1 X167.043 Y138.205 E5.66387
G1 X166.91 Y138.833 E5.68522
G1 X166.668 Y139.771 E5.71744
G1 X166.579 Y140.062 E5.72756
G1 X166.478 Y140.375 E5.7385
G1 X166.016 Y141.736 E5.78631
G1 X165.777 Y142.409 E5.81006
G1 X165.422 Y143.287 E5.84156
G1 X165.246 Y143.67 E5.85558
G1 X165.108 Y143.958 E5.8662
G1 X164.52 Y145.147 E5.91032
G1 X164.207 Y145.761 E5.93324
G1 X163.739 Y146.588 E5.96485
G1 X163.593 Y146.822 E5.97402
G1 X163.415 Y147.099 E5.98497
G1 X162.69 Y148.187 E6.02846
G1 X162.18 Y148.927 E6.05835
G1 X161.628 Y149.659 E6.08884
G1 X161.457 Y149.867 E6.0978
G1 X161.237 Y150.126 E6.1091
G1 X160.231 Y151.273 E6.15984
G1 X159.773 Y151.778 E6.18252
G1 X159.153 Y152.409 E6.21194
G1 X158.974 Y152.577 E6.2201
G1 X158.703 Y152.823 E6.23228
G1 X157.258 Y154.091 E6.29622
G1 X157.116 Y154.225 E6.30271
G1 X156.56 Y154.706 E6.32717
G1 X154.719 Y156.391 E6.41017
G1 X152.892 Y158.162 E6.4948
G1 X151.142 Y159.957 E6.57818
G1 X149.45 Y161.793 E6.66122
G1 X147.783 Y163.71 E6.74572
G1 X146.201 Y165.633 E6.82854
G1 X144.647 Y167.635 E6.91283
G1 X143.157 Y169.673 E6.9968
G1 X141.737 Y171.737 E7.08013
G1 X140.38 Y173.831 E7.16312
G1 X138.449 Y177.049 E7.28794
G1 X137.95 Y177.92 E7.32133
G1 X137.249 Y178.993 E7.36396
G1 X136.843 Y179.542 E7.38667
G1 X136.633 Y179.817 E7.39818
G1 X136.393 Y180.121 E7.41106
G1 X135.781 Y180.832 E7.44226
G1 X135.11 Y181.488 E7.47347
G1 X134.601 Y181.918 E7.49563
G1 X134.1 Y182.316 E7.51692
G1 X133.831 Y182.523 E7.52821
G1 X133.513 Y182.76 E7.5414
G1 X132.738 Y183.288 E7.57259
G1 X131.921 Y183.748 E7.60377
G1 X131.327 Y184.027 E7.6256
G1 X130.72 Y184.291 E7.64761
G1 X130.413 Y184.419 E7.65868
G1 X130.065 Y184.558 E7.67114
G1 X129.18 Y184.869 E7.70234
G1 X128.272 Y185.103 E7.73353
G1 X127.619 Y185.221 E7.7556
G1 X126.94 Y185.323 E7.77844
G1 X126.563 Y185.373 E7.79108
G1 X126.163 Y185.419 E7.80448
G1 X125.261 Y185.485 E7.83456
G1 X125.013 Y185.493 E7.84281
G1 X124.659 Y185.499 E7.85459
G1 X110.624 Y185.499 E8.32139
G1 X109.927 Y185.489 E8.34458
G1 X109.048 Y185.441 E8.37386
G1 X108.763 Y185.414 E8.38338
G1 X108.377 Y185.371 E8.39629
G1 X108.087 Y185.332 E8.40603
G1 X107.46 Y185.239 E8.42711
G1 X106.539 Y185.062 E8.4583
G1 X105.636 Y184.807 E8.48951
G1 X105.064 Y184.601 E8.50973
G1 X104.433 Y184.354 E8.53227
G1 X104.099 Y184.217 E8.54428
G1 X103.757 Y184.07 E8.55666
G1 X102.912 Y183.663 E8.58785
G1 X102.105 Y183.186 E8.61903
G1 X101.558 Y182.806 E8.64118
G1 X101.031 Y182.416 E8.66299
G1 X100.758 Y182.208 E8.67441
G1 X100.454 Y181.968 E8.68729
G1 X99.743 Y181.356 E8.71849
G1 X99.087 Y180.685 E8.7497
G1 X98.66 Y180.181 E8.77167
G1 X98.26 Y179.678 E8.79305
G1 X98.048 Y179.402 E8.80462
G1 X97.797 Y179.065 E8.8186
G1 X97.269 Y178.289 E8.84982
G1 X96.954 Y177.746 E8.87069
G1 X96.329 Y176.597 E8.9142
G1 X95.049 Y174.322 E9.00102
G1 X93.759 Y172.178 E9.08424
G1 X92.392 Y170.041 E9.16862
G1 X90.986 Y167.976 E9.25171
G1 X89.504 Y165.926 E9.33584
G1 X87.983 Y163.942 E9.41899
G1 X86.388 Y161.978 E9.50314
G1 X84.745 Y160.072 E9.58684
G1 X83.046 Y158.208 E9.67072
G1 X81.306 Y156.404 E9.75409
G1 X79.523 Y154.657 E9.83711
G1 X77.566 Y152.868 E9.9253
G1 X77.352 Y152.654 E9.93537
G1 X76.595 Y151.972 E9.96925
G1 X75.95 Y151.341 E9.99927
G1 X75.759 Y151.138 E10.00854
G1 X75.503 Y150.856 E10.0212
G1 X74.395 Y149.593 E10.07709
G1 X73.891 Y149.002 E10.10292
M73 P1
G1 X73.296 Y148.239 E10.1351
G1 X73.168 Y148.059 E10.14245
G1 X72.993 Y147.805 E10.15271
G1 X72.003 Y146.324 E10.21196
G1 X71.631 Y145.749 E10.23473
G1 X71.14 Y144.911 E10.26704
G1 X70.962 Y144.574 E10.27971
G1 X70.822 Y144.299 E10.28998
G1 X70.11 Y142.853 E10.34359
G1 X69.801 Y142.203 E10.36752
G1 X69.425 Y141.311 E10.39972
G1 X69.331 Y141.058 E10.4087
G1 X69.229 Y140.772 E10.4188
G1 X68.658 Y139.091 E10.47784
G1 X68.458 Y138.471 E10.49951
G1 X68.297 Y137.922 E10.51854
G1 X68.185 Y137.471 E10.534
G1 X68.1 Y137.095 E10.54682
G1 X68.039 Y136.809 E10.55654
G1 X67.74 Y135.296 E10.60784
G1 X67.606 Y134.565 E10.63256
G1 X67.48 Y133.672 E10.66255
G1 X67.457 Y133.441 E10.67027
G1 X67.415 Y132.926 E10.68746
G1 X67.313 Y131.36 E10.73966
G1 X67.285 Y130.831 E10.75728
G1 X67.272 Y130.448 E10.77002
G1 X67.25 Y129.137 E10.81363
G1 X67.251 Y63.037 E13.01213
G1 X67.262 Y62.327 E13.03574
G1 X67.317 Y61.39 E13.06696
G1 X67.438 Y60.529 E13.09588
G1 X67.5 Y60.188 E13.10741
G1 X67.571 Y59.832 E13.11948
G1 X67.662 Y59.411 E13.13381
G1 X67.899 Y58.504 E13.16499
G1 X68.213 Y57.62 E13.19619
G1 X68.6 Y56.766 E13.22737
G1 X69.166 Y55.779 E13.26522
G1 X69.365 Y55.47 E13.27744
G1 X69.562 Y55.175 E13.28924
G1 X69.792 Y54.842 E13.3027
G1 X70.357 Y54.093 E13.3339
G0 F6000 X70.677 Y54.335
G1 F1200 X71.294 Y53.652 E13.36452
G1 X71.968 Y53.025 E13.39514
G1 X72.6 Y52.527 E13.4219
G1 X72.933 Y52.29 E13.43549
G1 X73.323 Y52.028 E13.45112
G1 X73.707 Y51.778 E13.46636
G1 X74.499 Y51.309 E13.49697
G1 X75.33 Y50.912 E13.5276
G1 X76.191 Y50.587 E13.55821
G1 X77.263 Y50.298 E13.59514
G1 X77.612 Y50.223 E13.60701
G1 X77.904 Y50.164 E13.61692
G1 X78.308 Y50.089 E13.63059
G1 X79.22 Y49.96 E13.66122
G1 X79.743 Y49.923 E13.67866
G1 X80.157 Y49.909 E13.69244
G1 X80.894 Y49.9 E13.71696
G1 X140.101 Y49.902 E15.68619
G1 X140.8 Y49.912 E15.70944
G1 X142.147 Y50.018 E15.75438
G1 X142.625 Y50.094 E15.77048
G1 X142.881 Y50.141 E15.77913
G1 X143.188 Y50.202 E15.78954
G1 X143.636 Y50.298 E15.80478
G1 X144.527 Y50.53 E15.83541
G1 X145.395 Y50.838 E15.86604
G1 X146.232 Y51.221 E15.89665
G1 X147.159 Y51.755 E15.93224
G1 X147.449 Y51.942 E15.94371
G1 X147.733 Y52.131 E15.95506
G1 X148.083 Y52.373 E15.96921
G1 X148.817 Y52.929 E15.99984
G1 X149.5 Y53.547 E16.03047
G1 X150.127 Y54.221 E16.06109
G1 X150.506 Y54.693 E16.08123
G1 X150.836 Y55.149 E16.09995
G1 X151.109 Y55.552 E16.11614
G1 X151.369 Y55.951 E16.13198
G1 X151.838 Y56.743 E16.16259
G1 X152.236 Y57.574 E16.19324
G1 X152.56 Y58.435 E16.22383
G1 X152.848 Y59.495 E16.26037
G1 X152.924 Y59.846 E16.27231
G1 X152.986 Y60.157 E16.28286
G1 X153.062 Y60.567 E16.29673
G1 X153.191 Y61.479 E16.32736
G1 X153.239 Y62.326 E16.35558
G1 X153.249 Y62.937 E16.37591
G1 X153.25 Y80.246 E16.9516
G1 X153.287 Y82.871 E17.03892
G1 X153.394 Y85.379 E17.12241
G1 X153.572 Y87.899 E17.20644
G1 X153.821 Y90.414 E17.2905
G1 X154.14 Y92.903 E17.37396
G1 X154.541 Y95.455 E17.45988
G1 X154.993 Y97.886 E17.54212
G1 X155.529 Y100.378 E17.6269
G1 X156.131 Y102.835 E17.71104
G1 X156.804 Y105.28 E17.79538
G1 X157.539 Y107.68 E17.87887
G1 X158.353 Y110.094 E17.9636
G1 X159.22 Y112.444 E18.04691
G1 X160.179 Y114.832 E18.1325
G1 X161.17 Y117.109 E18.2151
G1 X162.262 Y119.438 E18.30065
G1 X163.373 Y121.646 E18.38286
G1 X164.962 Y124.562 E18.49331
G1 X165.523 Y125.549 E18.53107
G1 X165.673 Y125.823 E18.54146
G1 X165.905 Y126.261 E18.55795
G1 X166.064 Y126.574 E18.56962
G1 X166.166 Y126.783 E18.57736
G1 X166.534 Y127.627 E18.60798
G1 X166.826 Y128.5 E18.6386
G1 X167.08 Y129.597 E18.67605
G1 X167.141 Y129.944 E18.68777
G1 X167.203 Y130.338 E18.70104
G1 X167.241 Y130.615 E18.71034
G1 X167.326 Y131.532 E18.74097
G1 X167.337 Y132.25 E18.76485
G1 X167.335 Y132.359 E18.76848
G1 X167.322 Y132.727 E18.78072
G1 X167.289 Y133.328 E18.80074
G1 X167.213 Y134.483 E18.83924
G1 X167.156 Y135.189 E18.8628
G1 X167.047 Y136.072 E18.89239
G1 X167.005 Y136.325 E18.90092
G1 X166.944 Y136.657 E18.91215
G1 X166.652 Y138.122 E18.96183
G1 X166.519 Y138.75 E18.98318
G1 X166.286 Y139.654 E19.01423
G1 X166.197 Y139.945 E19.02435
G1 X166.099 Y140.247 E19.03491
G1 X165.639 Y141.602 E19.08251
G1 X165.4 Y142.275 E19.10626
G1 X165.058 Y143.121 E19.13661
G1 X164.884 Y143.499 E19.15045
G1 X164.749 Y143.781 E19.16085
G1 X164.164 Y144.965 E19.20477
G1 X163.851 Y145.579 E19.2277
G1 X163.4 Y146.376 E19.25816
G1 X163.254 Y146.61 E19.26733
G1 X163.082 Y146.877 E19.27789
G1 X162.256 Y148.114 E19.32736
G1 X161.851 Y148.7 E19.35106
G1 X161.319 Y149.405 E19.38043
G1 X161.148 Y149.613 E19.38939
G1 X160.936 Y149.862 E19.40027
G1 X159.935 Y151.004 E19.45077
G1 X159.477 Y151.509 E19.47345
G1 X158.879 Y152.117 E19.50181
G1 X158.7 Y152.285 E19.50998
G1 X158.439 Y152.522 E19.5217
G1 X157.099 Y153.698 E19.581
G1 X156.854 Y153.923 E19.59207
G1 X156.292 Y154.409 E19.61678
G1 X154.436 Y156.108 E19.70047
G1 X152.628 Y157.861 E19.78423
G1 X150.838 Y159.696 E19.86949
G1 X149.153 Y161.526 E19.95223
G1 X147.473 Y163.457 E20.03736
G1 X145.878 Y165.396 E20.12086
G1 X144.324 Y167.399 E20.20518
G1 X142.832 Y169.44 E20.28927
G1 X141.393 Y171.531 E20.37369
G1 X140.046 Y173.609 E20.45606
G1 X138.106 Y176.842 E20.58146
G1 X137.603 Y177.721 E20.61515
G1 X136.928 Y178.755 E20.65622
G1 X136.522 Y179.304 E20.67893
G1 X136.319 Y179.569 E20.69003
G1 X136.079 Y179.873 E20.70291
G1 X135.477 Y180.57 E20.73355
G1 X134.818 Y181.213 E20.76417
G1 X134.352 Y181.605 E20.78442
G1 X133.851 Y182.003 E20.8057
G1 X133.592 Y182.202 E20.81657
G1 X133.274 Y182.439 E20.82976
G1 X132.513 Y182.957 E20.86038
G1 X131.71 Y183.406 E20.89098
G1 X131.168 Y183.66 E20.91088
G1 X130.561 Y183.924 E20.9329
G1 X130.265 Y184.048 E20.94357
G1 X129.917 Y184.187 E20.95604
G1 X129.048 Y184.491 E20.98666
G1 X128.156 Y184.718 E21.01727
G1 X127.56 Y184.825 E21.03741
G1 X126.881 Y184.927 E21.06025
G1 X126.517 Y184.976 E21.07246
G1 X126.117 Y185.022 E21.08586
G1 X125.248 Y185.085 E21.11484
G1 X125 Y185.093 E21.12309
G1 X124.659 Y185.099 E21.13443
G1 X110.63 Y185.099 E21.60104
G1 X109.933 Y185.089 E21.62422
G1 X109.085 Y185.043 E21.65247
G1 X108.8 Y185.016 E21.66199
G1 X108.425 Y184.974 E21.67454
G1 X108.146 Y184.936 E21.68391
G1 X107.519 Y184.843 E21.70499
G1 X106.615 Y184.669 E21.73561
M73 P2
G1 X105.729 Y184.417 E21.76624
G1 X105.21 Y184.229 E21.7846
G1 X104.579 Y183.982 E21.80714
G1 X104.257 Y183.85 E21.81872
G1 X103.915 Y183.703 E21.8311
G1 X103.086 Y183.303 E21.86171
G1 X102.294 Y182.832 E21.89236
G1 X101.795 Y182.485 E21.91258
G1 X101.268 Y182.095 E21.93438
G1 X101.006 Y181.894 E21.94537
G1 X100.702 Y181.654 E21.95825
G1 X100.005 Y181.052 E21.98888
G1 X99.362 Y180.393 E22.0195
G1 X98.974 Y179.932 E22.03954
G1 X98.574 Y179.429 E22.06092
G1 X98.369 Y179.163 E22.07209
G1 X98.118 Y178.826 E22.08606
G1 X97.601 Y178.064 E22.11669
G1 X97.305 Y177.555 E22.13628
G1 X96.658 Y176.364 E22.18136
G1 X95.398 Y174.126 E22.26678
G1 X94.106 Y171.978 E22.35015
G1 X92.732 Y169.83 E22.43496
G1 X91.308 Y167.739 E22.5191
G1 X89.817 Y165.676 E22.60376
G1 X88.292 Y163.687 E22.68712
G1 X86.703 Y161.731 E22.77094
G1 X85.035 Y159.796 E22.85591
G1 X83.331 Y157.927 E22.94003
G1 X81.591 Y156.123 E23.02339
G1 X79.805 Y154.373 E23.10656
G1 X77.836 Y152.573 E23.19529
G1 X77.629 Y152.367 E23.205
G1 X76.862 Y151.675 E23.23936
G1 X76.241 Y151.067 E23.26827
G1 X76.05 Y150.864 E23.27754
G1 X75.803 Y150.592 E23.28976
G1 X74.7 Y149.333 E23.34543
G1 X74.196 Y148.742 E23.37126
G1 X73.622 Y148.007 E23.40228
G1 X73.494 Y147.827 E23.40963
G1 X73.325 Y147.582 E23.41953
G1 X72.339 Y146.107 E23.47854
G1 X71.967 Y145.532 E23.50132
G1 X71.494 Y144.725 E23.53243
G1 X71.316 Y144.388 E23.5451
G1 X71.181 Y144.122 E23.55502
G1 X70.472 Y142.681 E23.60844
G1 X70.163 Y142.031 E23.63238
G1 X69.8 Y141.172 E23.66339
G1 X69.706 Y140.919 E23.67237
G1 X69.607 Y140.643 E23.68212
G1 X69.092 Y139.13 E23.73528
G1 X68.839 Y138.348 E23.76262
G1 X68.683 Y137.817 E23.78103
G1 X68.575 Y137.383 E23.7959
G1 X68.49 Y137.007 E23.80872
G1 X68.431 Y136.731 E23.81811
G1 X68.162 Y135.374 E23.86412
G1 X68 Y134.493 E23.89391
G1 X67.878 Y133.632 E23.92284
G1 X67.834 Y133.158 E23.93867
G1 X67.805 Y132.775 E23.95145
G1 X67.713 Y131.339 E23.99931
G1 X67.685 Y130.81 E24.01692
G1 X67.672 Y130.44 E24.02924
G1 X67.65 Y129.137 E24.07258
G1 X67.651 Y63.043 E26.27088
G1 X67.662 Y62.333 E26.2945
G1 X67.716 Y61.414 E26.32511
G1 X67.832 Y60.601 E26.35243
G1 X67.894 Y60.26 E26.36396
G1 X67.962 Y59.917 E26.37559
G1 X68.053 Y59.496 E26.38991
G1 X68.287 Y58.605 E26.42055
G1 X68.596 Y57.738 E26.45117
G1 X68.98 Y56.901 E26.48179
G1 X69.502 Y55.996 E26.51654
G1 X69.701 Y55.687 E26.52877
G1 X69.891 Y55.402 E26.54016
G1 X70.121 Y55.069 E26.55362
G1 X70.677 Y54.335 E26.58425
G0 F6000 X70.996 Y54.577
G1 F1200 X71.603 Y53.908 E26.61429
G1 X72.267 Y53.296 E26.64433
