
;FLAVOR:Marlin
;TIME:0
;Filament used: 0m
;Layer height: 0
;MINX:0
;MINY:0
;MINZ:0
;MAXX:220
;MAXY:220
;MAXZ:250

;Time to print!!!!!
;GCode created with FullControl - tell us what you're printing!
;info@fullcontrol.xyz or tag FullControlXYZ on Twitter/Instagram 

G28 ; home axes
M140 S50 ; set bed temp and continue
M105
M104 S204 ; set hotend temp and continue
M190 S50 ; set bed temp and wait
M105
M109 S204  ; set hotend temp and wait
G90 ; absolute coordinates
G21 ; set units to millimeters
M83 ; relative extrusion
M106 S255 ; set fan speed
M220 S100 ; set speed factor override percentage
M221 S100 ; set extrude factor override percentage
G0 F8000 X0.0 Y0.0 Z10.0
G1 F250 E20.7876
G0 F8000 X10.0 Y10.0 Z0.3
;-----
; END OF STARTING PROCEDURE
;-----

;-----
; START OF PRIMER PROCEDURE
;-----
G0 F8000 Y14.0 Z0.24
G1 F500 X110.0 E6.65203
G1 Y12.0 E0.133041
G1 X10.0 E6.65203
G1 Y14.0 E0.133041
G1 Y16.0 E0.133041
G1 X50.0 E2.66081
G1 Y40.0 E1.59649
;-----
; END OF PRIMER PROCEDURE
;-----

G1 X50.9794 Y40.0559 E0.0652565
G1 X51.9479 Y40.2075 E0.0652055
G1 X52.896 Y40.453 E0.0651545
G1 X53.8149 Y40.7901 E0.0651035
G1 X54.6956 Y41.2152 E0.0650525
G1 X55.5297 Y41.7243 E0.0650015
G1 X56.3092 Y42.3122 E0.0649505
G1 X57.0269 Y42.9731 E0.0648995
G1 X57.6758 Y43.7007 E0.0648485
G1 X58.2497 Y44.4877 E0.0647975
G1 X58.7434 Y45.3265 E0.0647465
G1 X59.1522 Y46.209 E0.0646955
G1 X59.4722 Y47.1266 E0.0646445
G1 X59.7006 Y48.0704 E0.0645935
G1 X59.8352 Y49.0313 E0.0645425
G1 X59.875 Y50.0 E0.0644915
G1 X59.8197 Y50.9672 E0.0644405
G1 X59.6699 Y51.9235 E0.0643895
G1 X59.4274 Y52.8598 E0.0643385
G1 X59.0944 Y53.767 E0.0642875
G1 X58.6745 Y54.6366 E0.0642365
G1 X58.1718 Y55.4602 E0.0641855
G1 X57.5912 Y56.2299 E0.0641345
G1 X56.9385 Y56.9385 E0.0640835
G1 X56.22 Y57.5791 E0.0640325
G1 X55.4429 Y58.1458 E0.0639815
G1 X54.6145 Y58.6332 E0.0639305
G1 X53.7431 Y59.0367 E0.0638795
G1 X52.8371 Y59.3526 E0.0638285
G1 X51.9052 Y59.578 E0.0637775
G1 X50.9564 Y59.7108 E0.0637265
G1 X50.0 Y59.75 E0.0636755
G1 X49.0451 Y59.6953 E0.0636245
G1 X48.1009 Y59.5473 E0.0635735
G1 X47.1765 Y59.3077 E0.0635225
G1 X46.2808 Y58.979 E0.0634715
G1 X45.4223 Y58.5643 E0.0634205
G1 X44.6092 Y58.0679 E0.0633695
G1 X43.8494 Y57.4946 E0.0633185
G1 X43.1499 Y56.8501 E0.0632675
G1 X42.5175 Y56.1407 E0.0632165
G1 X41.9581 Y55.3734 E0.0631655
G1 X41.4771 Y54.5556 E0.0631145
G1 X41.0788 Y53.6953 E0.0630635
G1 X40.767 Y52.8008 E0.0630125
G1 X40.5446 Y51.8808 E0.0629615
G1 X40.4136 Y50.9442 E0.0629105
G1 X40.375 Y50.0 E0.0628595
G1 X40.4291 Y49.0574 E0.0628085
G1 X40.5753 Y48.1253 E0.0627575
G1 X40.8119 Y47.2128 E0.0627066
G1 X41.1365 Y46.3286 E0.0626556
G1 X41.546 Y45.4812 E0.0626046
G1 X42.0361 Y44.6787 E0.0625536
G1 X42.602 Y43.9287 E0.0625026
G1 X43.2383 Y43.2383 E0.0624516
G1 X43.9386 Y42.6141 E0.0624006
G1 X44.696 Y42.0621 E0.0623496
G1 X45.5033 Y41.5873 E0.0622986
G1 X46.3525 Y41.1943 E0.0622476
G1 X47.2355 Y40.8866 E0.0621966
G1 X48.1436 Y40.6672 E0.0621456
G1 X49.0681 Y40.538 E0.0620946
G1 X50.0 Y40.5 E0.0620436
G1 X50.9304 Y40.5535 E0.0619926
G1 X51.8503 Y40.6979 E0.0619416
G1 X52.7509 Y40.9315 E0.0618906
G1 X53.6235 Y41.252 E0.0618396
G1 X54.4599 Y41.6562 E0.0617886
G1 X55.2519 Y42.14 E0.0617376
G1 X55.992 Y42.6987 E0.0616866
G1 X56.6733 Y43.3267 E0.0616356
G1 X57.2892 Y44.0179 E0.0615846
G1 X57.834 Y44.7655 E0.0615336
G1 X58.3025 Y45.5622 E0.0614826
G1 X58.6902 Y46.4004 E0.0614316
G1 X58.9937 Y47.2718 E0.0613806
G1 X59.2102 Y48.168 E0.0613296
G1 X59.3376 Y49.0803 E0.0612786
G1 X59.375 Y50.0 E0.0612276
G1 X59.3221 Y50.9181 E0.0611766
G1 X59.1795 Y51.8259 E0.0611256
G1 X58.9489 Y52.7146 E0.0610746
G1 X58.6325 Y53.5757 E0.0610236
G1 X58.2336 Y54.4009 E0.0609726
G1 X57.7561 Y55.1824 E0.0609216
G1 X57.2047 Y55.9127 E0.0608706
G1 X56.5849 Y56.5849 E0.0608196
G1 X55.9028 Y57.1926 E0.0607686
G1 X55.1651 Y57.7301 E0.0607176
G1 X54.3788 Y58.1922 E0.0606666
G1 X53.5518 Y58.5748 E0.0606156
G1 X52.6919 Y58.8741 E0.0605646
G1 X51.8076 Y59.0876 E0.0605136
G1 X50.9074 Y59.2132 E0.0604626
G1 X50.0 Y59.25 E0.0604116
G1 X49.0941 Y59.1977 E0.0603606
G1 X48.1985 Y59.0569 E0.0603096
G1 X47.3217 Y58.8293 E0.0602586
G1 X46.4721 Y58.517 E0.0602076
G1 X45.658 Y58.1233 E0.0601566
G1 X44.887 Y57.6521 E0.0601056
G1 X44.1666 Y57.1081 E0.0600547
G1 X43.5035 Y56.4965 E0.0600037
G1 X42.904 Y55.8235 E0.0599527
G1 X42.3739 Y55.0956 E0.0599017
G1 X41.918 Y54.3199 E0.0598507
G1 X41.5407 Y53.5039 E0.0597997
G1 X41.2455 Y52.6557 E0.0597487
G1 X41.035 Y51.7832 E0.0596977
G1 X40.9112 Y50.8952 E0.0596467
G1 X40.875 Y50.0 E0.0595957
G1 X40.9267 Y49.1064 E0.0595447
G1 X41.0657 Y48.2228 E0.0594937
G1 X41.2903 Y47.358 E0.0594427
G1 X41.5985 Y46.52 E0.0593917
G1 X41.9869 Y45.7169 E0.0593407
G1 X42.4518 Y44.9565 E0.0592897
G1 X42.9886 Y44.2459 E0.0592387
G1 X43.5918 Y43.5918 E0.0591877
G1 X44.2558 Y43.0006 E0.0591367
G1 X44.9738 Y42.4778 E0.0590857
G1 X45.739 Y42.0283 E0.0590347
G1 X46.5439 Y41.6562 E0.0589837
G1 X47.3806 Y41.3651 E0.0589327
G1 X48.2411 Y41.1576 E0.0588817
G1 X49.1171 Y41.0356 E0.0588307
G1 X50.0 Y41.0 E0.0587797
G1 X50.8814 Y41.0511 E0.0587287
G1 X51.7528 Y41.1883 E0.0586777
G1 X52.6058 Y41.41 E0.0586267
G1 X53.4322 Y41.714 E0.0585757
G1 X54.2242 Y42.0972 E0.0585247
G1 X54.9741 Y42.5557 E0.0584737
G1 X55.6748 Y43.0852 E0.0584227
G1 X56.3198 Y43.6802 E0.0583717
G1 X56.9027 Y44.3351 E0.0583207
G1 X57.4183 Y45.0433 E0.0582697
G1 X57.8615 Y45.7979 E0.0582187
G1 X58.2283 Y46.5917 E0.0581677
G1 X58.5153 Y47.4169 E0.0581167
G1 X58.7198 Y48.2655 E0.0580657
G1 X58.84 Y49.1293 E0.0580147
G1 X58.875 Y50.0 E0.0579637
G1 X58.8245 Y50.8691 E0.0579127
G1 X58.6891 Y51.7284 E0.0578617
G1 X58.4704 Y52.5695 E0.0578107
G1 X58.1706 Y53.3844 E0.0577597
G1 X57.7926 Y54.1652 E0.0577087
G1 X57.3403 Y54.9046 E0.0576577
G1 X56.8182 Y55.5955 E0.0576067
G1 X56.2314 Y56.2314 E0.0575558
G1 X55.5856 Y56.8061 E0.0575048
G1 X54.8873 Y57.3143 E0.0574538
G1 X54.1431 Y57.7513 E0.0574028
G1 X53.3604 Y58.1128 E0.0573518
G1 X52.5468 Y58.3957 E0.0573008
G1 X51.7101 Y58.5972 E0.0572498
G1 X50.8584 Y58.7156 E0.0571988
G1 X50.0 Y58.75 E0.0571478
G1 X49.1431 Y58.7001 E0.0570968
G1 X48.296 Y58.5665 E0.0570458
G1 X47.4668 Y58.3508 E0.0569948
G1 X46.6635 Y58.0551 E0.0569438
G1 X45.8937 Y57.6824 E0.0568928
G1 X45.1648 Y57.2364 E0.0568418
G1 X44.4838 Y56.7216 E0.0567908
G1 X43.857 Y56.143 E0.0567398
G1 X43.2905 Y55.5063 E0.0566888
G1 X42.7896 Y54.8178 E0.0566378
G1 X42.359 Y54.0842 E0.0565868
G1 X42.0027 Y53.3126 E0.0565358
G1 X41.724 Y52.5105 E0.0564848
G1 X41.5254 Y51.6857 E0.0564338
G1 X41.4088 Y50.8462 E0.0563828
G1 X41.375 Y50.0 E0.0563318
G1 X41.4243 Y49.1554 E0.0562808
G1 X41.5561 Y48.3204 E0.0562298
G1 X41.7688 Y47.5031 E0.0561788
G1 X42.0604 Y46.7113 E0.0561278
G1 X42.4279 Y45.9526 E0.0560768
G1 X42.8675 Y45.2342 E0.0560258
G1 X43.3751 Y44.5631 E0.0559748
G1 X43.9454 Y43.9454 E0.0559238
G1 X44.573 Y43.3871 E0.0558728
G1 X45.2516 Y42.8935 E0.0558218
G1 X45.9747 Y42.4692 E0.0557708
G1 X46.7352 Y42.1182 E0.0557198
G1 X47.5258 Y41.8436 E0.0556688
G1 X48.3387 Y41.648 E0.0556178
G1 X49.1661 Y41.5332 E0.0555668
G1 X50.0 Y41.5 E0.0555158
G1 X50.8324 Y41.5487 E0.0554648
G1 X51.6552 Y41.6786 E0.0554138
G1 X52.4606 Y41.8884 E0.0553628
G1 X53.2409 Y42.1759 E0.0553118
G1 X53.9885 Y42.5381 E0.0552609
G1 X54.6963 Y42.9715 E0.0552099
G1 X55.3576 Y43.4717 E0.0551589
G1 X55.9662 Y44.0338 E0.0551079
G1 X56.5162 Y44.6523 E0.0550569
G1 X57.0025 Y45.3211 E0.0550059
G1 X57.4205 Y46.0336 E0.0549549
G1 X57.7664 Y46.7831 E0.0549039
G1 X58.0368 Y47.5621 E0.0548529
G1 X58.2294 Y48.3631 E0.0548019
G1 X58.3424 Y49.1783 E0.0547509
G1 X58.375 Y50.0 E0.0546999
G1 X58.3269 Y50.8201 E0.0546489
G1 X58.1988 Y51.6308 E0.0545979
G1 X57.9919 Y52.4243 E0.0545469
G1 X57.7086 Y53.193 E0.0544959
G1 X57.3516 Y53.9295 E0.0544449
G1 X56.9246 Y54.6269 E0.0543939
G1 X56.4317 Y55.2784 E0.0543429
G1 X55.8778 Y55.8778 E0.0542919
G1 X55.2684 Y56.4196 E0.0542409
G1 X54.6095 Y56.8986 E0.0541899
G1 X53.9074 Y57.3103 E0.0541389
G1 X53.1691 Y57.6509 E0.0540879
G1 X52.4017 Y57.9172 E0.0540369
G1 X51.6125 Y58.1068 E0.0539859
G1 X50.8094 Y58.218 E0.0539349
G1 X50.0 Y58.25 E0.0538839
G1 X49.1921 Y58.2025 E0.0538329
G1 X48.3936 Y58.0762 E0.0537819
G1 X47.612 Y57.8723 E0.0537309
G1 X46.8548 Y57.5931 E0.0536799
G1 X46.1294 Y57.2414 E0.0536289
G1 X45.4426 Y56.8206 E0.0535779
G1 X44.8009 Y56.3351 E0.0535269
G1 X44.2106 Y55.7894 E0.0534759
G1 X43.677 Y55.1891 E0.0534249
G1 X43.2053 Y54.5401 E0.0533739
G1 X42.7999 Y53.8485 E0.0533229
G1 X42.4646 Y53.1213 E0.0532719
G1 X42.2024 Y52.3654 E0.0532209
G1 X42.0158 Y51.5882 E0.05317
G1 X41.9063 Y50.7972 E0.053119
G1 X41.875 Y50.0 E0.053068
G1 X41.9219 Y49.2044 E0.053017
G1 X42.0464 Y48.4179 E0.052966
G1 X42.2473 Y47.6482 E0.052915
G1 X42.5224 Y46.9027 E0.052864
G1 X42.8688 Y46.1883 E0.052813
G1 X43.2833 Y45.512 E0.052762
G1 X43.7616 Y44.8802 E0.052711
G1 X44.299 Y44.299 E0.05266
G1 X44.8902 Y43.7736 E0.052609
G1 X45.5294 Y43.3093 E0.052558
G1 X46.2104 Y42.9102 E0.052507
G1 X46.9266 Y42.5801 E0.052456
G1 X47.6709 Y42.322 E0.052405
G1 X48.4362 Y42.1384 E0.052354
G1 X49.2151 Y42.0307 E0.052303
G1 X50.0 Y42.0 E0.052252
G1 X50.7834 Y42.0463 E0.052201
G1 X51.5577 Y42.169 E0.05215
G1 X52.3155 Y42.3669 E0.052099
G1 X53.0495 Y42.6378 E0.052048
G1 X53.7528 Y42.9791 E0.051997
G1 X54.4185 Y43.3872 E0.051946
G1 X55.0405 Y43.8582 E0.051895
G1 X55.6127 Y44.3873 E0.051844
G1 X56.1297 Y44.9695 E0.051793
G1 X56.5868 Y45.5988 E0.051742
G1 X56.9796 Y46.2693 E0.051691
G1 X57.3044 Y46.9744 E0.05164
G1 X57.5583 Y47.7072 E0.051589
G1 X57.739 Y48.4606 E0.051538
G1 X57.8449 Y49.2273 E0.051487
G1 X57.875 Y50.0 E0.051436
G1 X57.8293 Y50.7711 E0.051385
G1 X57.7084 Y51.5333 E0.051334
G1 X57.5135 Y52.2792 E0.051283
G1 X57.2467 Y53.0017 E0.0512321
G1 X56.9107 Y53.6938 E0.0511811
G1 X56.5088 Y54.3491 E0.0511301
G1 X56.0452 Y54.9612 E0.0510791
G1 X55.5243 Y55.5243 E0.0510281
G1 X54.9512 Y56.0331 E0.0509771
G1 X54.3317 Y56.4829 E0.0509261
G1 X53.6717 Y56.8693 E0.0508751
G1 X52.9778 Y57.1889 E0.0508241
G1 X52.2565 Y57.4387 E0.0507731
G1 X51.515 Y57.6164 E0.0507221
G1 X50.7604 Y57.7205 E0.0506711
G1 X50.0 Y57.75 E0.0506201
G1 X49.2411 Y57.7049 E0.0505691
G1 X48.4911 Y57.5858 E0.0505181
G1 X47.7571 Y57.3939 E0.0504671
G1 X47.0462 Y57.1312 E0.0504161
G1 X46.3651 Y56.8004 E0.0503651
G1 X45.7204 Y56.4049 E0.0503141
G1 X45.1181 Y55.9486 E0.0502631
G1 X44.5641 Y55.4359 E0.0502121
G1 X44.0635 Y54.8719 E0.0501611
G1 X43.6211 Y54.2623 E0.0501101
G1 X43.2409 Y53.6128 E0.0500591
G1 X42.9265 Y52.9299 E0.0500081
G1 X42.6809 Y52.2202 E0.0499571
G1 X42.5062 Y51.4906 E0.0499061
G1 X42.4039 Y50.7481 E0.0498551
G1 X42.375 Y50.0 E0.0498041
G1 X42.4195 Y49.2534 E0.0497531
G1 X42.5368 Y48.5155 E0.0497021
G1 X42.7258 Y47.7934 E0.0496511
G1 X42.9843 Y47.094 E0.0496001
G1 X43.3098 Y46.424 E0.0495491
G1 X43.699 Y45.7898 E0.0494981
G1 X44.1481 Y45.1974 E0.0494471
G1 X44.6525 Y44.6525 E0.0493962
G1 X45.2074 Y44.1601 E0.0493452
G1 X45.8072 Y43.725 E0.0492942
G1 X46.4461 Y43.3511 E0.0492432
G1 X47.1179 Y43.042 E0.0491922
G1 X47.8161 Y42.8005 E0.0491412
G1 X48.5338 Y42.6288 E0.0490902
G1 X49.2641 Y42.5283 E0.0490392
G1 X50.0 Y42.5 E0.0489882
G1 X50.7344 Y42.5439 E0.0489372
G1 X51.4601 Y42.6594 E0.0488862
G1 X52.1703 Y42.8454 E0.0488352
G1 X52.8582 Y43.0998 E0.0487842
G1 X53.5171 Y43.42 E0.0487332
G1 X54.1407 Y43.803 E0.0486822
G1 X54.7233 Y44.2447 E0.0486312
G1 X55.2591 Y44.7409 E0.0485802
G1 X55.7432 Y45.2867 E0.0485292
G1 X56.1711 Y45.8766 E0.0484782
G1 X56.5386 Y46.505 E0.0484272
G1 X56.8425 Y47.1658 E0.0483762
G1 X57.0799 Y47.8523 E0.0483252
G1 X57.2486 Y48.5582 E0.0482742
G1 X57.3473 Y49.2764 E0.0482232
G1 X57.375 Y50.0 E0.0481722
G1 X57.3317 Y50.7221 E0.0481212
G1 X57.218 Y51.4357 E0.0480702
G1 X57.035 Y52.134 E0.0480192
G1 X56.7847 Y52.8103 E0.0479682
G1 X56.4697 Y53.4581 E0.0479172
G1 X56.0931 Y54.0713 E0.0478662
G1 X55.6587 Y54.644 E0.0478152
G1 X55.1707 Y55.1707 E0.0477642
G1 X54.634 Y55.6466 E0.0477132
G1 X54.0539 Y56.0671 E0.0476623
G1 X53.436 Y56.4284 E0.0476113
G1 X52.7864 Y56.727 E0.0475603
G1 X52.1114 Y56.9602 E0.0475093
G1 X51.4175 Y57.126 E0.0474583
G1 X50.7114 Y57.2229 E0.0474073
G1 X50.0 Y57.25 E0.0473563
G1 X49.2901 Y57.2073 E0.0473053
G1 X48.5886 Y57.0954 E0.0472543
G1 X47.9022 Y56.9154 E0.0472033
G1 X47.2375 Y56.6693 E0.0471523
G1 X46.6008 Y56.3595 E0.0471013
G1 X45.9982 Y55.9892 E0.0470503
G1 X45.4353 Y55.5621 E0.0469993
G1 X44.9177 Y55.0823 E0.0469483
G1 X44.45 Y54.5547 E0.0468973
G1 X44.0368 Y53.9845 E0.0468463
G1 X43.6819 Y53.3771 E0.0467953
G1 X43.3885 Y52.7386 E0.0467443
G1 X43.1594 Y52.0751 E0.0466933
G1 X42.9966 Y51.3931 E0.0466423
G1 X42.9015 Y50.6991 E0.0465913
G1 X42.875 Y50.0 E0.0465403
G1 X42.9171 Y49.3024 E0.0464893
G1 X43.0272 Y48.613 E0.0464383
G1 X43.2042 Y47.9385 E0.0463873
G1 X43.4462 Y47.2853 E0.0463363
G1 X43.7508 Y46.6597 E0.0462853
G1 X44.1148 Y46.0676 E0.0462343
G1 X44.5346 Y45.5146 E0.0461833
G1 X45.0061 Y45.0061 E0.0461323
G1 X45.5246 Y44.5467 E0.0460814
G1 X46.085 Y44.1407 E0.0460304
G1 X46.6818 Y43.7921 E0.0459794
G1 X47.3093 Y43.504 E0.0459284
G1 X47.9612 Y43.279 E0.0458774
G1 X48.6313 Y43.1192 E0.0458264
G1 X49.3131 Y43.0259 E0.0457754
G1 X50.0 Y43.0 E0.0457244
G1 X50.6854 Y43.0415 E0.0456734
G1 X51.3626 Y43.1498 E0.0456224
G1 X52.0252 Y43.3238 E0.0455714
G1 X52.6668 Y43.5617 E0.0455204
G1 X53.2814 Y43.861 E0.0454694
G1 X53.8629 Y44.2187 E0.0454184
G1 X54.4061 Y44.6312 E0.0453674
G1 X54.9056 Y45.0944 E0.0453164
G1 X55.3567 Y45.6039 E0.0452654
G1 X55.7553 Y46.1544 E0.0452144
G1 X56.0977 Y46.7407 E0.0451634
G1 X56.3805 Y47.3571 E0.0451124
G1 X56.6014 Y47.9975 E0.0450614
G1 X56.7582 Y48.6557 E0.0450104
G1 X56.8497 Y49.3254 E0.0449594
G1 X56.875 Y50.0 E0.0449084
G1 X56.8341 Y50.6731 E0.0448574
G1 X56.7276 Y51.3382 E0.0448064
G1 X56.5565 Y51.9889 E0.0447554
G1 X56.3228 Y52.619 E0.0447044
G1 X56.0288 Y53.2224 E0.0446534
G1 X55.6774 Y53.7935 E0.0446025
G1 X55.2722 Y54.3268 E0.0445515
G1 X54.8172 Y54.8172 E0.0445005
G1 X54.3168 Y55.2601 E0.0444495
G1 X53.7761 Y55.6514 E0.0443985
G1 X53.2003 Y55.9874 E0.0443475
G1 X52.5951 Y56.2651 E0.0442965
G1 X51.9662 Y56.4818 E0.0442455
G1 X51.3199 Y56.6356 E0.0441945
G1 X50.6624 Y56.7253 E0.0441435
G1 X50.0 Y56.75 E0.0440925
G1 X49.3392 Y56.7097 E0.0440415
G1 X48.6862 Y56.605 E0.0439905
G1 X48.0474 Y56.4369 E0.0439395
G1 X47.4288 Y56.2073 E0.0438885
G1 X46.8365 Y55.9185 E0.0438375
G1 X46.2759 Y55.5734 E0.0437865
G1 X45.7525 Y55.1755 E0.0437355
G1 X45.2712 Y54.7288 E0.0436845
G1 X44.8365 Y54.2375 E0.0436335
G1 X44.4525 Y53.7067 E0.0435825
G1 X44.1228 Y53.1414 E0.0435315
G1 X43.8504 Y52.5472 E0.0434805
G1 X43.6378 Y51.9299 E0.0434295
G1 X43.487 Y51.2955 E0.0433785
G1 X43.3991 Y50.6501 E0.0433275
G1 X43.375 Y50.0 E0.0432765
G1 X43.4147 Y49.3514 E0.0432255
G1 X43.5176 Y48.7106 E0.0431746
G1 X43.6827 Y48.0837 E0.0431236
G1 X43.9082 Y47.4767 E0.0430726
G1 X44.1917 Y46.8954 E0.0430216
G1 X44.5305 Y46.3454 E0.0429706
G1 X44.9211 Y45.8318 E0.0429196
G1 X45.3596 Y45.3596 E0.0428686
G1 X45.8418 Y44.9332 E0.0428176
G1 X46.3628 Y44.5565 E0.0427666
G1 X46.9175 Y44.2331 E0.0427156
G1 X47.5006 Y43.9659 E0.0426646
G1 X48.1063 Y43.7575 E0.0426136
G1 X48.7289 Y43.6096 E0.0425626
G1 X49.3621 Y43.5235 E0.0425116
G1 X50.0 Y43.5 E0.0424606
G1 X50.6363 Y43.5391 E0.0424096
G1 X51.265 Y43.6402 E0.0423586
G1 X51.88 Y43.8023 E0.0423076
G1 X52.4755 Y44.0237 E0.0422566
G1 X53.0457 Y44.302 E0.0422056
G1 X53.5852 Y44.6344 E0.0421546
G1 X54.0889 Y45.0177 E0.0421036
G1 X54.552 Y45.448 E0.0420526
G1 X54.9702 Y45.921 E0.0420016
G1 X55.3396 Y46.4322 E0.0419506
G1 X55.6567 Y46.9764 E0.0418997
G1 X55.9186 Y47.5484 E0.0418487
G1 X56.1229 Y48.1426 E0.0417977
G1 X56.2678 Y48.7533 E0.0417467
G1 X56.3521 Y49.3744 E0.0416957
G1 X56.375 Y50.0 E0.0416447
G1 X56.3365 Y50.6241 E0.0415937
G1 X56.2372 Y51.2407 E0.0415427
G1 X56.0781 Y51.8438 E0.0414917
G1 X55.8609 Y52.4276 E0.0414407
G1 X55.5878 Y52.9867 E0.0413897
G1 X55.2616 Y53.5157 E0.0413387
G1 X54.8857 Y54.0096 E0.0412877
G1 X54.4636 Y54.4636 E0.0412367
G1 X53.9997 Y54.8736 E0.0411857
G1 X53.4984 Y55.2357 E0.0411347
G1 X52.9646 Y55.5465 E0.0410837
G1 X52.4037 Y55.8031 E0.0410327
G1 X51.8211 Y56.0033 E0.0409817
