; generated by PrusaSlicer 2.5.0+win64 on 2022-09-26 at 12:34:01 UTC

; 

; external perimeters extrusion width = 0.45mm
; perimeters extrusion width = 0.45mm
; infill extrusion width = 0.45mm
; solid infill extrusion width = 0.45mm
; top infill extrusion width = 0.40mm
; first layer extrusion width = 0.42mm

; external perimeters extrusion width = 0.45mm
; perimeters extrusion width = 0.45mm
; infill extrusion width = 0.45mm
; solid infill extrusion width = 0.45mm
; top infill extrusion width = 0.40mm
; first layer extrusion width = 0.42mm

; external perimeters extrusion width = 0.45mm
; perimeters extrusion width = 0.45mm
; infill extrusion width = 0.45mm
; solid infill extrusion width = 0.45mm
; top infill extrusion width = 0.40mm
; first layer extrusion width = 0.42mm

; external perimeters extrusion width = 0.45mm
; perimeters extrusion width = 0.45mm
; infill extrusion width = 0.45mm
; solid infill extrusion width = 0.45mm
; top infill extrusion width = 0.40mm
; first layer extrusion width = 0.42mm

M107
;TYPE:Custom
G90 ; use absolute coordinates
M83 ; extruder relative mode
M140 S55 ; set final bed temp
M104 S150 ; set temporary nozzle temp to prevent oozing during homing
G4 S10 ; allow partial nozzle warmup
G28 ; home all axis
G1 Z50 F240
G1 X2 Y10 F3000
M104 S215 ; set final nozzle temp
M190 S55 ; wait for bed temp to stabilize
M109 S215 ; wait for nozzle temp to stabilize
G1 Z0.28 F240
G92 E0
G1 Y140 E10 F1500 ; prime the nozzle
G1 X2.3 F5000
G92 E0
G1 Y10 E10 F1200 ; prime the nozzle
G92 E0
G21 ; set units to millimeters
G90 ; use absolute coordinates
M83 ; use relative distances for extrusion
; Filament gcode
M107
;LAYER_CHANGE
;Z:0.2
;HEIGHT:0.2
;BEFORE_LAYER_CHANGE
G92 E0
;0.2


G1 E-5 F3600
G1 Z.2 F9000
;AFTER_LAYER_CHANGE
;0.2
G1 X53.371 Y46.054
G1 E5 F2400
M204 S500
;TYPE:Skirt/Brim
;WIDTH:0.42
G1 F1200
G1 X54.654 Y45.048 E.05115
G1 X56.056 Y44.753 E.04491
G1 X177.903 Y45.513 E3.8205
G1 X179.755 Y45.696 E.05835
G1 X181.569 Y46.234 E.05932
G1 X183.247 Y47.108 E.05932
G1 X184.727 Y48.286 E.05931
G1 X185.694 Y49.368 E.04552
G1 X192.999 Y58.826 E.37468
G1 X193.701 Y60.764 E.06463
G1 X196.749 Y142.271 E2.55738
G1 X196.659 Y143.625 E.04255
G1 X195.991 Y147.695 E.12932
G1 X195.551 Y148.907 E.04043
G1 X195.034 Y149.644 E.02821
G1 X194.633 Y150.055 E.01802
G1 X193.875 Y150.615 E.02956
G1 X193.134 Y150.931 E.02524
G1 X191.603 Y151.263 E.04912
G1 X71.443 Y156.181 E3.77069
G1 X60.504 Y156.142 E.34298
G1 X59.501 Y155.949 E.03202
G1 X58.629 Y155.612 E.02932
G1 X58.031 Y155.254 E.02185
G1 X57.283 Y154.584 E.03149
G1 X56.669 Y153.671 E.03448
G1 X56.4 Y152.964 E.02375
G1 X55.596 Y148.189 E.1518
G1 X50.556 Y61.325 E2.72815
G1 X50.602 Y59.546 E.05582
G1 X52.709 Y47.546 E.38201
G1 X53.346 Y46.109 E.04927
G1 E-3.5 F3600
;WIPE_START
G1 F7200
G1 X54.654 Y45.048 E-.80023
G1 X55.941 Y44.777 E-.62477
;WIPE_END
G1 E-.075 F3600
G1 X62.723 Y147.833 F9000
G1 E5 F2400
;TYPE:Perimeter
;WIDTH:0.419999
G1 F1200
G1 X63.241 Y147.683 E.01692
G1 X63.78 Y147.465 E.01822
G1 X64.49 Y147.089 E.0252
G1 X64.984 Y146.751 E.01874
G1 X65.67 Y146.155 E.02851
G1 X66.144 Y145.642 E.0219
G1 X66.479 Y145.193 E.01755
G1 X66.899 Y144.486 E.0258
G1 X67.222 Y143.75 E.0252
G1 X67.394 Y143.206 E.01787
G1 X67.525 Y142.591 E.01971
G1 X69.753 Y147.505 E.16915
G1 X70.048 Y147.834 E.01388
G1 X69.126 Y147.83 E.02891
G1 X68.775 Y147.896 E.01122
G1 X68.468 Y148.093 E.01143
G1 X68.257 Y148.395 E.01155
G1 X68.178 Y148.772 E.01209
G1 X68.178 Y151.628 E.08955
G1 X64.308 Y151.628 E.12134
G1 X64.305 Y148.691 E.09209
G1 X64.19 Y148.316 E.01231
G1 X63.785 Y147.928 E.01759
G1 X63.361 Y147.83 E.01366
G1 X62.783 Y147.833 E.01811
G1 X61.059 Y148.334 F9000
;WIDTH:0.584926
G1 F1200
G1 X60.902 Y148.258 E.00786
G1 X60.142 Y147.761 E.04093
G1 X61.373 Y147.736 E.05548
;WIDTH:0.558387
G1 X62.211 Y147.634 E.03621
G1 X62.391 Y147.583 E.00801
;WIDTH:0.515052
G1 X62.747 Y147.458 E.01482
;WIDTH:0.467526
G1 X63.103 Y147.333 E.01333
;WIDTH:0.419999
G1 X63.606 Y147.131 E.01697
G1 X64.281 Y146.775 E.02396
G1 X64.743 Y146.461 E.01751
G1 X65.396 Y145.897 E.02703
G1 X65.844 Y145.414 E.02067
G1 X66.156 Y144.998 E.01631
G1 X66.555 Y144.332 E.02432
G1 X66.864 Y143.633 E.02397
G1 X67.025 Y143.128 E.01663
G1 X67.183 Y142.357 E.02468
G1 X67.243 Y141.418 E.02949
G1 X67.215 Y140.994 E.01332
G1 X70.096 Y147.349 E.21879
;WIDTH:0.460195
G1 X70.18 Y147.46 E.00482
;WIDTH:0.50039
G1 X70.263 Y147.571 E.00529
;WIDTH:0.540585
G1 X70.347 Y147.682 E.00575
G1 X70.612 Y147.73 E.01114
;WIDTH:0.551125
G1 X71.026 Y147.746 E.01752
;WIDTH:0.58324
G1 X72.345 Y147.762 E.05925
G1 X71.433 Y148.334 E.04835
G1 X71.143 Y148.249 E.01357
;WIDTH:0.548266
G1 X70.153 Y148.165 E.04175
;WIDTH:0.51346
G1 X69.639 Y148.186 E.02015
;WIDTH:0.46673
G1 X69.124 Y148.207 E.01815
;WIDTH:0.419999
G1 X68.913 Y148.246 E.00673
G1 X68.776 Y148.324 E.00496
G1 X68.635 Y148.483 E.00663
G1 X68.555 Y148.772 E.00942
G1 X68.555 Y152.005 E.10137
G1 X63.931 Y152.005 E.14499
G1 X63.929 Y148.724 E.10289
G1 X63.829 Y148.448 E.00919
G1 X63.562 Y148.242 E.01058
G1 X63.167 Y148.208 E.01245
;WIDTH:0.466129
G1 X62.868 Y148.187 E.01054
;WIDTH:0.512258
G1 X62.569 Y148.167 E.01169
;WIDTH:0.558387
G1 X62.27 Y148.146 E.01283
G1 X61.328 Y148.249 E.04061
;WIDTH:0.584926
G1 X61.116 Y148.316 E.01002
G1 X61.304 Y148.719 F9000
;TYPE:External perimeter
;WIDTH:0.419999
G1 F1200
G1 X61.226 Y148.875 E.00548
;WIDTH:0.409575
G1 X61.226 Y150.72 E.05624
;WIDTH:0.419531
G1 X61.184 Y151.198 E.01501
;WIDTH:0.419999
G1 X61.136 Y151.738 E.01703
G1 X61.126 Y152.357 E.01939
G1 X60.757 Y152.312 E.01164
G1 X60.335 Y152.093 E.01492
G1 X60.231 Y151.898 E.00692
G1 X60.339 Y151.658 E.00825
G1 X60.719 Y151.168 E.01943
G1 X60.86 Y150.72 E.01473
;WIDTH:0.409532
G1 X60.86 Y148.883 E.05599
;WIDTH:0.419999
G1 X60.778 Y148.725 E.00559
G1 X59.977 Y148.211 E.02983
G1 X59.475 Y147.84 E.01959
G1 X59.475 Y147.303 E.01681
G1 X61.317 Y147.297 E.05778
G1 X62.277 Y147.174 E.03034
G1 X62.965 Y146.982 E.02239
G1 X63.431 Y146.797 E.01572
G1 X64.073 Y146.46 E.02272
G1 X64.503 Y146.17 E.01627
G1 X65.042 Y145.723 E.02196
G1 X65.525 Y145.209 E.02211
G1 X65.834 Y144.802 E.01601
G1 X66.211 Y144.179 E.02284
G1 X66.498 Y143.535 E.02211
G1 X66.656 Y143.049 E.01602
G1 X66.807 Y142.333 E.02295
G1 X66.867 Y141.366 E.03035
G1 X66.806 Y140.646 E.02265
;WIDTH:0.439383
G1 X66.59 Y139.686 E.03245
G1 X66.216 Y138.823 E.031
;WIDTH:0.417831
G1 X65.96 Y138.378 E.01601
G1 X65.541 Y137.8 E.02226
;WIDTH:0.420079
G1 X65.207 Y137.426 E.01572
G1 X64.664 Y136.94 E.02285
;WIDTH:0.41863
G1 X64.078 Y136.532 E.02232
;WIDTH:0.421437
G1 X63.64 Y136.288 E.01578
G1 X62.981 Y136.013 E.02248
;WIDTH:0.418684
G1 X62.502 Y135.867 E.01566
;WIDTH:0.424436
G1 X61.946 Y135.757 E.01795
G1 X61.384 Y135.702 E.01793
;WIDTH:0.418316
G1 X61.384 Y135.323 E.01184
;WIDTH:0.424436
G1 X62.023 Y135.383 E.02035
G1 X62.712 Y135.531 E.02236
;WIDTH:0.42617
G1 X63.381 Y135.76 E.02253
G1 X63.842 Y135.968 E.01612
;WIDTH:0.424507
G1 X64.424 Y136.303 E.0213
G1 X64.995 Y136.72 E.02243
;WIDTH:0.423378
G1 X65.514 Y137.199 E.02236
;WIDTH:0.425299
G1 X65.974 Y137.737 E.02249
G1 X66.371 Y138.322 E.02247
;WIDTH:0.430224
G1 X66.696 Y138.951 E.02282
;WIDTH:0.441768
G1 X67.382 Y140.451 E.0547
;WIDTH:0.419999
G1 X70.44 Y147.193 E.23212
G1 X70.515 Y147.277 E.00354
G1 X70.612 Y147.304 E.00313
G1 X73.012 Y147.304 E.07527
G1 X73.012 Y147.66 E.01116
G1 X73.012 Y147.84 E.00563
G1 X72.497 Y148.219 E.02007
G1 X71.71 Y148.723 E.0293
G1 X71.627 Y148.884 E.00566
;WIDTH:0.412457
G1 X71.632 Y150.767 E.05785
;WIDTH:0.419999
G1 X71.767 Y151.168 E.01327
G1 X72.096 Y151.595 E.01692
G1 X72.254 Y151.878 E.01015
G1 X72.168 Y152.082 E.00695
G1 X71.903 Y152.254 E.00992
G1 X71.362 Y152.372 E.01736
G1 X71.353 Y151.855 E.01621
G1 X71.262 Y150.767 E.03422
;WIDTH:0.412457
G1 X71.261 Y148.884 E.05785
;WIDTH:0.416957
G1 X71.226 Y148.761 E.00397
;WIDTH:0.419999
G1 X71.097 Y148.688 E.00465
G1 X70.151 Y148.589 E.02982
G1 X69.122 Y148.584 E.03226
G1 X69.005 Y148.623 E.00387
G1 X68.933 Y148.772 E.0052
G1 X68.933 Y152.382 E.11319
G1 X63.554 Y152.382 E.16863
G1 X63.551 Y148.74 E.1142
G1 X63.45 Y148.603 E.00535
G1 X63.169 Y148.585 E.00882
G1 X62.317 Y148.59 E.0267
G1 X61.364 Y148.711 E.03013
G1 X61.136 Y148.67 F9000
G1 E-3.5 F3600
;WIPE_START
G1 F7200
G1 X61.226 Y148.875 E-.10171
G1 X61.226 Y150.72 E-.8762
G1 X61.184 Y151.198 E-.22774
G1 X61.143 Y151.657 E-.21935
;WIPE_END
G1 E-.075 F3600
G1 X71.796 Y151.799 F9000
G1 E5 F2400
;TYPE:Perimeter
;WIDTH:0.495006
G1 F1200
G1 X71.739 Y151.799 E.00212
G1 X71.711 Y151.848 E.00212
G1 X71.739 Y151.897 E.00212
G1 X71.796 Y151.897 E.00212
G1 X71.824 Y151.848 E.00212
G1 E-3.5 F3600
;WIPE_START
G1 F7200
G1 X71.796 Y151.897 E-.02684
G1 X71.739 Y151.897 E-.02684
G1 X71.711 Y151.848 E-.02684
G1 X71.739 Y151.799 E-.02684
G1 X71.796 Y151.799 E-.02684
;WIPE_END
G1 E-1.36579 F3600
G1 X60.749 Y151.791 F9000
G1 E5 F2400
;WIDTH:0.492212
G1 F1200
G1 X60.693 Y151.791 E.0021
G1 X60.665 Y151.84 E.0021
G1 X60.693 Y151.888 E.0021
G1 X60.749 Y151.888 E.0021
G1 X60.777 Y151.84 E.0021
G1 E-3.5 F3600
;WIPE_START
G1 F7200
G1 X60.749 Y151.888 E-.02668
G1 X60.693 Y151.888 E-.02668
G1 X60.665 Y151.84 E-.02668
G1 X60.693 Y151.791 E-.02668
G1 X60.749 Y151.791 E-.02668
;WIPE_END
G1 E-1.36662 F3600
G1 X67.396 Y143.553 F9000
G1 E5 F2400
;TYPE:Solid infill
;WIDTH:0.421453
G1 F1200
G1 X67.862 Y144.019 E.02074
G1 X68.306 Y144.998 E.03385
G1 X67.388 Y144.081 E.04085
G1 X67.22 Y144.448 E.01271
G1 X68.75 Y145.978 E.06812
G1 X69.194 Y146.958 E.03385
G1 X67.044 Y144.807 E.09574
G1 X66.839 Y145.138 E.01224
G1 X69.249 Y147.547 E.10726
G1 X69.119 Y147.547 E.0041
G1 X68.777 Y147.611 E.01094
G1 X66.633 Y145.466 E.09545
G1 X66.399 Y145.768 E.01201
G1 X68.41 Y147.779 E.08954
G1 X68.27 Y147.89 E.00564
G1 X68.141 Y148.045 E.00634
G1 X66.15 Y146.055 E.08861
G1 X65.888 Y146.328 E.01192
G1 X67.961 Y148.401 E.09229
G1 X67.913 Y148.562 E.00529
G1 X67.896 Y148.871 E.00973
G1 X65.618 Y146.593 E.10137
G1 X65.325 Y146.835 E.01197
G1 X67.896 Y149.406 E.11443
G1 X67.896 Y149.941 E.01685
G1 X65.025 Y147.07 E.12779
G1 X64.701 Y147.282 E.01217
G1 X67.896 Y150.477 E.14219
G1 X67.896 Y151.012 E.01685
G1 X64.361 Y147.478 E.15731
G1 X64.006 Y147.657 E.01254
G1 X67.694 Y151.345 E.16416
G1 X67.158 Y151.345 E.01685
G1 X64.591 Y148.778 E.11427
G1 X64.591 Y149.314 E.01685
G1 X66.623 Y151.345 E.09044
G1 X66.088 Y151.345 E.01685
G1 X64.591 Y149.849 E.06661
G1 X64.591 Y150.384 E.01685
G1 X65.552 Y151.345 E.04279
G1 X65.017 Y151.345 E.01685
G1 X64.422 Y150.75 E.02651
M106 S255
;LAYER_CHANGE
;Z:0.4
;HEIGHT:0.2
;BEFORE_LAYER_CHANGE
G92 E0
;0.4


G1 E-3.5 F3600
;WIPE_START
G1 F7200
G1 X65.017 Y151.345 E-.40006
G1 X65.552 Y151.345 E-.25428
G1 X64.591 Y150.384 E-.64568
G1 X64.591 Y150.121 E-.12498
;WIPE_END
G1 E-.075 F3600
G1 Z.4 F9000
;AFTER_LAYER_CHANGE
;0.4
G1 X64.57 Y156.157
G1 E5 F2400
;TYPE:Skirt/Brim
;WIDTH:0.42
G1 X60.504 Y156.142 E.1275
G1 X59.501 Y155.949 E.03202
G1 X58.629 Y155.612 E.02932
G1 X58.031 Y155.254 E.02185
G1 X57.283 Y154.584 E.03149
G1 X56.669 Y153.671 E.03448
G1 X56.4 Y152.964 E.02375
G1 X55.596 Y148.189 E.1518
G1 X50.556 Y61.325 E2.72815
G1 X50.602 Y59.546 E.05582
G1 X52.709 Y47.546 E.38201
G1 X53.371 Y46.054 E.05115
G1 X54.654 Y45.048 E.05115
G1 X56.056 Y44.753 E.04491
G1 X177.903 Y45.513 E3.8205
G1 X179.755 Y45.696 E.05835
G1 X181.569 Y46.234 E.05932
G1 X183.247 Y47.108 E.05932
G1 X184.727 Y48.286 E.05931
G1 X185.694 Y49.368 E.04552
G1 X192.999 Y58.826 E.37468
G1 X193.701 Y60.764 E.06463
G1 X196.749 Y142.271 E2.55738
G1 X196.659 Y143.625 E.04255
G1 X195.991 Y147.695 E.12932
G1 X195.551 Y148.907 E.04043
G1 X195.034 Y149.644 E.02821
G1 X194.633 Y150.055 E.01802
G1 X193.875 Y150.615 E.02956
G1 X193.134 Y150.931 E.02524
G1 X191.603 Y151.263 E.04912
G1 X71.443 Y156.181 E3.77069
G1 X64.63 Y156.157 E.2136
G1 E-3.5 F3600
;WIPE_START
G1 F7200
G1 X61.63 Y156.146 E-1.425
;WIPE_END
G1 E-.075 F3600
G1 X62.53 Y147.855 F9000
G1 E5 F2400
;TYPE:Perimeter
;WIDTH:0.449999
G1 F1500
G1 X62.961 Y147.749 E.01502
G1 X63.523 Y147.549 E.02017
G1 X64.22 Y147.217 E.02615
G1 X64.729 Y146.904 E.02023
G1 X65.377 Y146.402 E.02772
G1 X65.926 Y145.859 E.02617
G1 X66.304 Y145.396 E.02022
G1 X66.751 Y144.709 E.02771
G1 X67.091 Y144.015 E.02617
G1 X67.295 Y143.454 E.02022
G1 X67.511 Y142.507 E.03288
G1 X69.749 Y147.436 E.18325
G1 X70.399 Y147.855 E.02616
G1 X69.221 Y147.855 E.03988
G1 X68.835 Y147.931 E.01332
G1 X68.587 Y148.076 E.00974
G1 X68.421 Y148.243 E.00796
G1 X68.25 Y148.569 E.01247
G1 X68.203 Y148.872 E.01039
G1 X68.203 Y151.77 E.09809
G1 X64.283 Y151.77 E.13269
G1 X64.279 Y148.773 E.10146
G1 X64.188 Y148.442 E.01162
G1 X63.978 Y148.145 E.0123
G1 X63.55 Y147.895 E.01678
G1 X63.266 Y147.855 E.00971
G1 X62.59 Y147.855 E.02287
G1 X61.189 Y148.295 F9000
;WIDTH:0.573967
G1 F2400
G1 X61.162 Y148.317 E.0015
;WIDTH:0.532645
G1 X61.033 Y148.424 E.00683
;WIDTH:0.491322
G1 X60.904 Y148.531 E.00626
;WIDTH:0.449999
G1 X60.8 Y148.872 E.01209
G1 X60.691 Y148.532 E.01209
G1 X60.53 Y148.375 E.00759
G1 X59.969 Y148 E.02286
G1 X59.618 Y147.711 E.0154
G1 X59.6 Y147.625 E.00298
G1 X60.792 Y147.622 E.04035
;WIDTH:0.49017
G1 X60.989 Y147.64 E.00734
;WIDTH:0.53034
G1 X61.185 Y147.658 E.008
;WIDTH:0.57051
G1 X61.382 Y147.675 E.00866
;WIDTH:0.588673
G1 X62.133 Y147.6 E.03427
G1 X62.365 Y147.521 E.01111
;WIDTH:0.542449
G1 X62.597 Y147.443 E.01017
;WIDTH:0.496224
G1 X62.828 Y147.364 E.00923
;WIDTH:0.449999
G1 X63.35 Y147.181 E.01871
G1 X64.01 Y146.868 E.02473
G1 X64.483 Y146.579 E.01875
G1 X65.092 Y146.111 E.02601
G1 X65.613 Y145.598 E.02474
G1 X65.965 Y145.17 E.01874
G1 X66.386 Y144.528 E.02601
G1 X66.71 Y143.872 E.02475
G1 X66.901 Y143.353 E.01874
G1 X67.088 Y142.607 E.02601
G1 X67.178 Y141.856 E.02561
G1 X67.13 Y140.682 E.03975
G1 X70.12 Y147.268 E.24481
;WIDTH:0.488127
G1 X70.305 Y147.406 E.00856
;WIDTH:0.526254
G1 X70.491 Y147.545 E.0093
;WIDTH:0.564381
G1 X70.676 Y147.683 E.01003
G1 X71.077 Y147.683 E.0174
G1 X71.283 Y147.664 E.00895
;WIDTH:0.526254
G1 X71.488 Y147.645 E.0083
;WIDTH:0.488127
G1 X71.694 Y147.626 E.00764
;WIDTH:0.449999
G1 X72.887 Y147.626 E.04038
G1 X72.887 Y147.674 E.00162
G1 X72.526 Y147.994 E.01633
G1 X71.956 Y148.375 E.02321
G1 X71.796 Y148.533 E.00762
G1 X71.687 Y148.872 E.01207
G1 X71.584 Y148.531 E.01207
G1 X71.443 Y148.383 E.00693
;WIDTH:0.488127
G1 X71.321 Y148.324 E.00502
;WIDTH:0.526254
G1 X71.199 Y148.264 E.00545
;WIDTH:0.564381
G1 X71.077 Y148.205 E.00588
G1 X70.277 Y148.224 E.0347
;WIDTH:0.526254
G1 X69.879 Y148.243 E.01604
;WIDTH:0.488127
G1 X69.48 Y148.262 E.01478
;WIDTH:0.449999
G1 X68.989 Y148.307 E.01667
G1 X68.841 Y148.395 E.00584
G1 X68.665 Y148.62 E.00966
G1 X68.61 Y148.872 E.00875
G1 X68.61 Y152.177 E.11186
G1 X63.876 Y152.177 E.16025
G1 X63.876 Y148.872 E.11186
G1 X63.844 Y148.675 E.00677
G1 X63.693 Y148.436 E.00956
G1 X63.373 Y148.271 E.01218
G1 X62.869 Y148.262 E.01706
;WIDTH:0.488916
G1 X62.672 Y148.242 E.00735
;WIDTH:0.527833
G1 X62.475 Y148.223 E.00799
;WIDTH:0.56675
G1 X62.278 Y148.203 E.00863
;WIDTH:0.605666
G1 X62.08 Y148.184 E.00927
G1 X61.292 Y148.21 E.03692
;WIDTH:0.573967
G1 X61.235 Y148.257 E.00326
G1 E-3.5 F3600
;WIPE_START
G1 F7200
G1 X61.162 Y148.317 E-.04462
G1 X61.033 Y148.424 E-.07973
G1 X60.904 Y148.531 E-.07973
G1 X60.8 Y148.872 E-.16963
G1 X60.691 Y148.532 E-.16963
G1 X60.53 Y148.375 E-.10655
G1 X59.969 Y148 E-.32078
G1 X59.618 Y147.711 E-.21617
G1 X59.6 Y147.625 E-.04177
G1 X60.013 Y147.624 E-.19639
;WIPE_END
G1 E-.075 F3600
G1 X71.721 Y147.999 F9000
G1 E5 F2400
;WIDTH:0.476444
G1 X71.667 Y147.999 E.00195
G1 X71.64 Y148.046 E.00195
G1 X71.667 Y148.093 E.00195
G1 X71.721 Y148.093 E.00195
G1 X71.748 Y148.046 E.00195
G1 E-3.5 F3600
;WIPE_START
G1 F7200
G1 X71.721 Y148.093 E-.02574
G1 X71.667 Y148.093 E-.02574
G1 X71.64 Y148.046 E-.02574
G1 X71.667 Y147.999 E-.02574
G1 X71.721 Y147.999 E-.02574
;WIPE_END
G1 E-1.3713 F3600
G1 X71.696 Y150.927 F9000
G1 E5 F2400
;WIDTH:0.474002
G1 F1500
G1 X71.861 Y151.354 E.01643
G1 X72.196 Y151.888 E.02257
G1 X72.04 Y152.014 E.00719
G1 X71.7 Y152.107 E.01265
G1 X71.696 Y150.987 E.04017
G1 E-3.5 F3600
;WIPE_START
G1 F7200
G1 X71.861 Y151.354 E-.19143
