;FLAVOR:Marlin
M73 P0
M73 R21
;TIME:1233
;Filament used: 0.838376m
;Layer height: 0.2
;MINX:86.5
;MINY:99.833
;MINZ:0.2
;MAXX:147.999
;MAXY:141.833
;MAXZ:8
;POSTPROCESSED
;Generated with Cura_SteamEngine 5.0.0
M140 S50
M105
M190 S50
M104 S200
M105
M109 S200
M82 ;absolute extrusion mode
; Ender 3 Custom Start G-code
G92 E0 ; Reset Extruder
G28 ; Home all axes
G1 Z2.0 F3000 ; Move Z Axis up little to prevent scratching of Heat Bed
G1 X0.1 Y20 Z0.3 F5000.0 ; Move to start position
G1 X0.1 Y200.0 Z0.3 F1500.0 E15 ; Draw the first line
G1 X0.4 Y200.0 Z0.3 F5000.0 ; Move to side a little
G1 X0.4 Y20 Z0.3 F1500.0 E30 ; Draw the second line
G92 E0 ; Reset Extruder
G1 Z2.0 F3000 ; Move Z Axis up little to prevent scratching of Heat Bed
G1 X5 Y20 Z0.3 F5000.0 ; Move over to prevent blob squish
G92 E0
G92 E0
G1 F2700 E-5
;LAYER_COUNT:40
;LAYER:0
M107
G0 F6000 X90.386 Y102.46 Z0.2
G0 X86.501 Y111.358
;TYPE:SKIRT
G1 F2700 E0
G1 F1200 X86.51 Y110.693 E0.02212
G1 X86.563 Y109.757 E0.0533
G1 X86.695 Y108.828 E0.08451
G1 X86.906 Y107.914 E0.11571
G1 X87.194 Y107.022 E0.14689
G1 X87.557 Y106.157 E0.17809
G1 X87.992 Y105.326 E0.20928
G1 X88.496 Y104.536 E0.24045
G1 X89.066 Y103.791 E0.27165
G1 X89.698 Y103.097 E0.30287
G1 X90.386 Y102.46 E0.33405
G1 X91.126 Y101.884 E0.36524
G1 X91.912 Y101.372 E0.39644
G1 X92.739 Y100.93 E0.42763
G1 X93.601 Y100.56 E0.45883
G1 X94.491 Y100.264 E0.49003
G1 X95.403 Y100.046 E0.52122
G1 X96.33 Y99.905 E0.5524
G1 X97.201 Y99.846 E0.58144
G1 X97.83 Y99.833 E0.60236
G1 X136.292 Y99.833 E1.88161
G1 X137.148 Y99.844 E1.91009
G1 X138.084 Y99.898 E1.94127
G1 X139.012 Y100.03 E1.97245
G1 X139.926 Y100.242 E2.00365
G1 X140.818 Y100.531 E2.03484
G1 X141.683 Y100.894 E2.06604
G1 X142.513 Y101.33 E2.09722
G1 X143.304 Y101.835 E2.12844
G1 X144.048 Y102.406 E2.15963
G1 X144.741 Y103.038 E2.19083
G1 X145.378 Y103.726 E2.22201
G1 X145.953 Y104.467 E2.25321
G1 X146.464 Y105.253 E2.28439
G1 X146.906 Y106.081 E2.31561
G1 X147.275 Y106.943 E2.34679
G1 X147.57 Y107.833 E2.37798
G1 X147.788 Y108.745 E2.40917
G1 X147.928 Y109.673 E2.44038
M73 P1
G1 X147.986 Y110.534 E2.46908
G1 X147.999 Y111.163 E2.49001
G1 X147.998 Y130.233 E3.12428
G1 X147.989 Y130.96 E3.14846
G1 X147.938 Y131.897 E3.17967
G1 X147.806 Y132.825 E3.21085
G1 X147.597 Y133.739 E3.24203
G1 X147.31 Y134.632 E3.27323
G1 X146.948 Y135.498 E3.30445
G1 X146.514 Y136.329 E3.33563
G1 X146.01 Y137.12 E3.36682
G1 X145.441 Y137.865 E3.398
G1 X144.81 Y138.56 E3.42922
G1 X144.123 Y139.198 E3.46041
G1 X143.384 Y139.775 E3.49159
G1 X142.598 Y140.287 E3.52279
G1 X141.772 Y140.73 E3.55397
G1 X140.91 Y141.102 E3.58519
G1 X140.021 Y141.398 E3.61636
G1 X139.109 Y141.618 E3.64756
G1 X138.182 Y141.759 E3.67875
G1 X137.298 Y141.82 E3.70822
G1 X136.669 Y141.833 E3.72914
G1 X98.065 Y141.832 E5.01312
G1 X97.367 Y141.823 E5.03634
G1 X96.431 Y141.771 E5.06751
G1 X95.502 Y141.639 E5.09872
G1 X94.588 Y141.429 E5.12992
G1 X93.695 Y141.142 E5.16111
G1 X92.83 Y140.779 E5.19231
G1 X91.999 Y140.345 E5.2235
G1 X91.208 Y139.841 E5.25469
G1 X90.463 Y139.271 E5.28589
G1 X89.769 Y138.64 E5.31709
G1 X89.132 Y137.953 E5.34825
G1 X88.555 Y137.213 E5.37946
G1 X88.043 Y136.427 E5.41066
G1 X87.6 Y135.6 E5.44186
G1 X87.229 Y134.739 E5.47304
G1 X86.933 Y133.849 E5.50424
G1 X86.714 Y132.937 E5.53544
G1 X86.573 Y132.01 E5.56662
G1 X86.513 Y131.121 E5.59626
G1 X86.5 Y130.491 E5.61722
G1 X86.501 Y111.358 E6.25358
M73 P2
G0 F6000 X86.901 Y111.364
G1 F1200 X86.91 Y110.699 E6.2757
G1 X86.962 Y109.779 E6.30635
G1 X87.094 Y108.868 E6.33697
G1 X87.305 Y107.972 E6.36758
G1 X87.592 Y107.097 E6.39821
G1 X87.955 Y106.251 E6.42883
G1 X88.389 Y105.439 E6.45945
G1 X88.892 Y104.668 E6.49007
G1 X89.461 Y103.944 E6.5207
G1 X90.089 Y103.272 E6.55129
G1 X90.774 Y102.656 E6.58193
G1 X91.51 Y102.103 E6.61255
G1 X92.291 Y101.615 E6.64318
G1 X93.111 Y101.197 E6.67379
G1 X93.965 Y100.852 E6.70443
G1 X94.845 Y100.582 E6.73504
G1 X95.745 Y100.39 E6.76565
G1 X96.659 Y100.276 E6.79629
G1 X97.212 Y100.246 E6.81471
G1 X97.83 Y100.233 E6.83526
G1 X136.292 Y100.233 E8.11452
G1 X137.142 Y100.244 E8.14279
G1 X138.061 Y100.297 E8.17341
G1 X138.972 Y100.43 E8.20403
G1 X139.868 Y100.641 E8.23464
G1 X140.742 Y100.929 E8.26525
G1 X141.589 Y101.292 E8.2959
G1 X142.4 Y101.727 E8.32651
G1 X143.17 Y102.231 E8.35712
G1 X143.894 Y102.8 E8.38775
G1 X144.566 Y103.43 E8.41838
G1 X145.181 Y104.115 E8.449
G1 X145.734 Y104.851 E8.47962
G1 X146.221 Y105.632 E8.51023
G1 X146.638 Y106.453 E8.54086
G1 X146.983 Y107.307 E8.57149
G1 X147.252 Y108.187 E8.6021
G1 X147.444 Y109.088 E8.63274
G1 X147.557 Y110.001 E8.66334
G1 X147.595 Y110.865 E8.6921
G1 X147.598 Y130.228 E9.33612
G1 X147.589 Y130.955 E9.3603
G1 X147.538 Y131.874 E9.39091
G1 X147.407 Y132.786 E9.42156
M73 P3
G1 X147.197 Y133.682 E9.45217
G1 X146.911 Y134.557 E9.48278
G1 X146.55 Y135.404 E9.51341
G1 X146.116 Y136.216 E9.54403
G1 X145.614 Y136.988 E9.57466
G1 X145.046 Y137.713 E9.60529
G1 X144.418 Y138.386 E9.63591
G1 X143.734 Y139.002 E9.66652
G1 X142.999 Y139.556 E9.69714
G1 X142.219 Y140.045 E9.72776
G1 X141.399 Y140.464 E9.75838
G1 X140.546 Y140.81 E9.789
G1 X139.666 Y141.081 E9.81962
G1 X138.766 Y141.274 E9.85024
G1 X137.852 Y141.389 E9.88088
G1 X137.287 Y141.42 E9.8997
G1 X136.669 Y141.433 E9.92026
G1 X98.07 Y141.432 E11.20407
G1 X97.372 Y141.423 E11.22728
G1 X96.453 Y141.371 E11.2579
G1 X95.542 Y141.24 E11.28851
G1 X94.646 Y141.03 E11.31912
G1 X93.771 Y140.743 E11.34975
G1 X92.924 Y140.381 E11.38038
G1 X92.112 Y139.947 E11.41101
G1 X91.341 Y139.445 E11.44161
G1 X90.616 Y138.877 E11.47224
G1 X89.943 Y138.248 E11.50288
G1 X89.328 Y137.564 E11.53347
G1 X88.774 Y136.829 E11.56408
G1 X88.286 Y136.048 E11.59471
G1 X87.867 Y135.228 E11.62534
G1 X87.521 Y134.375 E11.65596
G1 X87.251 Y133.495 E11.68657
G1 X87.058 Y132.594 E11.71722
G1 X86.944 Y131.681 E11.74782
G1 X86.913 Y131.11 E11.76684
G1 X86.9 Y130.491 E11.78743
G1 X86.901 Y111.364 E12.4236
G0 F6000 X87.301 Y111.369
G1 F1200 X87.31 Y110.704 E12.44572
G1 X87.362 Y109.802 E12.47577
G1 X87.494 Y108.909 E12.5058
G1 X87.704 Y108.031 E12.53582
G1 X87.991 Y107.174 E12.56588
M73 P4
G1 X88.353 Y106.347 E12.59591
G1 X88.786 Y105.555 E12.62593
G1 X89.288 Y104.804 E12.65597
G1 X89.855 Y104.1 E12.68604
G1 X90.481 Y103.45 E12.71605
G1 X91.162 Y102.857 E12.74609
G1 X91.894 Y102.327 E12.77615
G1 X92.669 Y101.864 E12.80617
G1 X93.482 Y101.471 E12.83621
G1 X94.327 Y101.151 E12.86626
G1 X95.196 Y100.908 E12.89627
G1 X96.084 Y100.742 E12.92632
G1 X97.223 Y100.646 E12.96433
G1 X97.83 Y100.633 E12.98453
G1 X136.292 Y100.633 E14.26378
G1 X137.136 Y100.644 E14.29185
G1 X138.038 Y100.697 E14.32191
G1 X138.931 Y100.829 E14.35193
G1 X139.809 Y101.04 E14.38196
G1 X140.665 Y101.328 E14.412
G1 X141.492 Y101.69 E14.44203
G1 X142.284 Y102.125 E14.47208
G1 X143.035 Y102.627 E14.50213
G1 X143.738 Y103.194 E14.53217
G1 X144.388 Y103.821 E14.5622
G1 X144.98 Y104.503 E14.59224
G1 X145.51 Y105.234 E14.62227
G1 X145.972 Y106.01 E14.65231
G1 X146.365 Y106.823 E14.68234
G1 X146.683 Y107.668 E14.71237
G1 X146.926 Y108.538 E14.74242
G1 X147.091 Y109.426 E14.77246
G1 X147.186 Y110.556 E14.81017
G1 X147.199 Y111.163 E14.83037
G1 X147.198 Y130.223 E15.46431
G1 X147.189 Y130.95 E15.48849
G1 X147.138 Y131.852 E15.51854
G1 X147.007 Y132.746 E15.54859
G1 X146.798 Y133.624 E15.57861
G1 X146.512 Y134.481 E15.60866
G1 X146.151 Y135.309 E15.6387
G1 X145.719 Y136.101 E15.66871
G1 X145.218 Y136.853 E15.69876
G1 X144.652 Y137.557 E15.7288
G1 X144.027 Y138.208 E15.75882
M73 P5
G1 X143.346 Y138.802 E15.78888
G1 X142.615 Y139.333 E15.81893
G1 X141.841 Y139.797 E15.84894
G1 X141.028 Y140.191 E15.87899
G1 X140.184 Y140.511 E15.90901
G1 X139.314 Y140.756 E15.93907
G1 X138.427 Y140.922 E15.96909
G1 X137.276 Y141.02 E16.00751
G1 X136.669 Y141.033 E16.0277
G1 X98.075 Y141.032 E17.31134
G1 X97.377 Y141.023 E17.33456
G1 X96.476 Y140.972 E17.36458
G1 X95.582 Y140.84 E17.39463
G1 X94.704 Y140.631 E17.42465
G1 X93.847 Y140.344 E17.45471
G1 X93.02 Y139.983 E17.48472
G1 X92.227 Y139.55 E17.51477
G1 X91.476 Y139.049 E17.5448
G1 X90.772 Y138.483 E17.57485
G1 X90.121 Y137.857 E17.60488
G1 X89.528 Y137.176 E17.63492
G1 X88.998 Y136.445 E17.66495
G1 X88.534 Y135.67 E17.69499
G1 X88.14 Y134.857 E17.72504
G1 X87.82 Y134.013 E17.75506
G1 X87.576 Y133.143 E17.78512
G1 X87.41 Y132.255 E17.81516
G1 X87.313 Y131.1 E17.85371
G1 X87.3 Y130.491 E17.87397
G1 X87.301 Y111.369 E18.50997
G1 F2700 E13.50997
;MESH:Washing machine stopper v1.stl
G0 F6000 X96.835 Y111.369
G0 X97.93 Y111.369
G0 X98.272 Y130.061
G0 X126.999 Y130.223
G1 F2700 E18.50997
G0 F6000 X126.999 Y130.633
;TYPE:WALL-OUTER
G1 F1200 X136.799 Y130.633 E18.83592
G1 X136.799 Y111.033 E19.48782
G1 X97.7 Y111.033 E20.78826
G1 X97.7 Y130.633 E21.44016
G1 X126.999 Y130.633 E22.41465
G0 F6000 X126.999 Y130.223
M73 P6
G0 X98.11 Y130.233
G0 X98.1 Y130.233
;TYPE:WALL-INNER
G1 F1200 X126.999 Y130.233 E23.37583
G1 X136.399 Y130.233 E23.68848
G1 X136.399 Y111.433 E24.31377
G1 X98.1 Y111.433 E25.5876
G1 X98.1 Y130.233 E26.21289
G1 F2700 E21.21289
G0 F6000 X98.11 Y130.233
G0 X136.227 Y130.061
G1 F2700 E26.21289
G0 F6000 X136.039 Y129.873
;TYPE:SKIN
G1 F1200 X136.039 Y120.833 E26.51356
G1 X136.039 Y111.793 E26.81423
G1 X98.46 Y111.793 E28.06411
G1 X98.46 Y129.873 E28.66546
G1 X136.039 Y129.873 E29.91534
G0 F6000 X136.299 Y129.873
G0 X136.299 Y112.079
G0 X135.838 Y112.079
G1 F1200 X135.751 Y111.992 E29.91943
G0 F6000 X135.186 Y111.992
G1 F1200 X135.838 Y112.645 E29.95012
G0 F6000 X135.838 Y113.211
G1 F1200 X134.62 Y111.992 E30.00744
G0 F6000 X134.054 Y111.992
G1 F1200 X135.838 Y113.777 E30.09137
G0 F6000 X135.838 Y114.342
G1 F1200 X133.489 Y111.992 E30.20189
G0 F6000 X132.923 Y111.992
G1 F1200 X135.838 Y114.908 E30.33902
G0 F6000 X135.838 Y115.474
G1 F1200 X132.357 Y111.992 E30.50278
G0 F6000 X131.791 Y111.992
G1 F1200 X135.838 Y116.039 E30.69314
G0 F6000 X135.838 Y116.605
G1 F1200 X131.226 Y111.992 E30.9101
G0 F6000 X130.66 Y111.992
G1 F1200 X135.838 Y117.171 E31.15368
G0 F6000 X135.838 Y117.736
G1 F1200 X130.094 Y111.992 E31.42386
G0 F6000 X129.529 Y111.992
G1 F1200 X135.838 Y118.302 E31.72064
M73 P7
G0 F6000 X135.838 Y118.868
G1 F1200 X128.963 Y111.992 E32.04404
G0 F6000 X128.397 Y111.992
G1 F1200 X135.838 Y119.433 E32.39404
G0 F6000 X135.838 Y119.999
G1 F1200 X127.832 Y111.992 E32.77065
G0 F6000 X127.266 Y111.992
G1 F1200 X135.838 Y120.565 E33.17387
G0 F6000 X135.838 Y121.13
G1 F1200 X126.7 Y111.992 E33.60369
G0 F6000 X126.135 Y111.992
G1 F1200 X135.838 Y121.696 E34.06012
G0 F6000 X135.838 Y122.262
G1 F1200 X125.569 Y111.992 E34.54316
G0 F6000 X125.003 Y111.992
G1 F1200 X135.838 Y122.827 E35.05281
G0 F6000 X135.838 Y123.393
G1 F1200 X124.438 Y111.992 E35.58905
G0 F6000 X123.872 Y111.992
G1 F1200 X135.838 Y123.959 E36.15192
G0 F6000 X135.838 Y124.525
G1 F1200 X123.306 Y111.992 E36.74141
G0 F6000 X122.741 Y111.992
G1 F1200 X135.838 Y125.09 E37.35748
G0 F6000 X135.838 Y125.656
G1 F1200 X122.175 Y111.992 E38.00016
G0 F6000 X121.609 Y111.992
G1 F1200 X135.838 Y126.222 E38.66948
G0 F6000 X135.838 Y126.787
G1 F1200 X121.043 Y111.992 E39.36539
G0 F6000 X120.478 Y111.992
G1 F1200 X135.838 Y127.353 E40.0879
G0 F6000 X135.838 Y127.919
G1 F1200 X119.912 Y111.992 E40.83703
G0 F6000 X119.346 Y111.992
G1 F1200 X135.838 Y128.484 E41.61277
G0 F6000 X135.838 Y129.05
G1 F1200 X118.781 Y111.992 E42.4151
G0 F6000 X118.215 Y111.992
G1 F1200 X135.838 Y129.616 E43.24405
G0 F6000 X135.328 Y129.672
G1 F1200 X117.649 Y111.992 E44.07564
G0 F6000 X117.084 Y111.992
G1 F1200 X134.763 Y129.672 E44.90723
G0 F6000 X134.197 Y129.672
M73 P8
G1 F1200 X116.518 Y111.992 E45.73882
G0 F6000 X115.952 Y111.992
G1 F1200 X133.631 Y129.672 E46.57041
G0 F6000 X133.066 Y129.672
G1 F1200 X115.387 Y111.992 E47.402
G0 F6000 X114.821 Y111.992
G1 F1200 X132.5 Y129.672 E48.23359
G0 F6000 X131.934 Y129.672
G1 F1200 X114.255 Y111.992 E49.06518
G0 F6000 X113.69 Y111.992
G1 F1200 X131.369 Y129.672 E49.89677
G0 F6000 X130.803 Y129.672
G1 F1200 X113.124 Y111.992 E50.72836
G0 F6000 X112.558 Y111.992
G1 F1200 X130.237 Y129.672 E51.55995
G0 F6000 X129.672 Y129.672
G1 F1200 X111.992 Y111.992 E52.39156
G0 F6000 X111.427 Y111.992
G1 F1200 X129.106 Y129.672 E53.22315
G0 F6000 X128.54 Y129.672
G1 F1200 X110.861 Y111.992 E54.05474
G0 F6000 X110.295 Y111.992
G1 F1200 X127.975 Y129.672 E54.88635
G0 F6000 X127.409 Y129.672
G1 F1200 X109.73 Y111.992 E55.71794
G0 F6000 X109.164 Y111.992
G1 F1200 X126.843 Y129.672 E56.54953
G0 F6000 X126.277 Y129.672
G1 F1200 X108.598 Y111.992 E57.38112
G0 F6000 X108.033 Y111.992
G1 F1200 X125.712 Y129.672 E58.21271
G0 F6000 X125.146 Y129.672
G1 F1200 X107.467 Y111.992 E59.0443
G0 F6000 X106.901 Y111.992
G1 F1200 X124.58 Y129.672 E59.87589
G0 F6000 X124.015 Y129.672
G1 F1200 X106.336 Y111.992 E60.70748
G0 F6000 X105.77 Y111.992
G1 F1200 X123.449 Y129.672 E61.53907
G0 F6000 X122.883 Y129.672
G1 F1200 X105.204 Y111.992 E62.37066
G0 F6000 X104.639 Y111.992
G1 F1200 X122.318 Y129.672 E63.20225
G0 F6000 X121.752 Y129.672
G1 F1200 X104.073 Y111.992 E64.03384
M73 P9
G0 F6000 X103.507 Y111.992
G1 F1200 X121.186 Y129.672 E64.86543
G0 F6000 X120.621 Y129.672
G1 F1200 X102.942 Y111.992 E65.69702
G0 F6000 X102.376 Y111.992
G1 F1200 X120.055 Y129.672 E66.52861
G0 F6000 X119.489 Y129.672
G1 F1200 X101.81 Y111.992 E67.3602
G0 F6000 X101.244 Y111.992
G1 F1200 X118.924 Y129.672 E68.19181
G0 F6000 X118.358 Y129.672
G1 F1200 X100.679 Y111.992 E69.0234
G0 F6000 X100.113 Y111.992
G1 F1200 X117.792 Y129.672 E69.85499
G0 F6000 X117.226 Y129.672
G1 F1200 X99.547 Y111.992 E70.68658
G0 F6000 X98.982 Y111.992
G1 F1200 X116.661 Y129.672 E71.51817
G0 F6000 X116.095 Y129.672
G1 F1200 X98.659 Y112.236 E72.3383
G0 F6000 X98.659 Y112.801
G1 F1200 X115.529 Y129.672 E73.13184
G0 F6000 X114.964 Y129.672
G1 F1200 X98.659 Y113.367 E73.89878
G0 F6000 X98.659 Y113.933
G1 F1200 X114.398 Y129.672 E74.63909
G0 F6000 X113.832 Y129.672
G1 F1200 X98.659 Y114.498 E75.35281
G0 F6000 X98.659 Y115.064
G1 F1200 X113.267 Y129.672 E76.03992
G0 F6000 X112.701 Y129.672
G1 F1200 X98.659 Y115.63 E76.70041
G0 F6000 X98.659 Y116.196
G1 F1200 X112.135 Y129.672 E77.33428
G0 F6000 X111.57 Y129.672
G1 F1200 X98.659 Y116.761 E77.94158
G0 F6000 X98.659 Y117.327
G1 F1200 X111.004 Y129.672 E78.52225
G0 F6000 X110.438 Y129.672
G1 F1200 X98.659 Y117.893 E79.0763
G0 F6000 X98.659 Y118.458
G1 F1200 X109.873 Y129.672 E79.60377
G0 F6000 X109.307 Y129.672
G1 F1200 X98.659 Y119.024 E80.10462
G0 F6000 X98.659 Y119.59
M73 P10
G1 F1200 X108.741 Y129.672 E80.57884
G0 F6000 X108.176 Y129.672
G1 F1200 X98.659 Y120.155 E81.02649
G0 F6000 X98.659 Y120.721
G1 F1200 X107.61 Y129.672 E81.44752
G0 F6000 X107.044 Y129.672
G1 F1200 X98.659 Y121.287 E81.84193
G0 F6000 X98.659 Y121.852
G1 F1200 X106.478 Y129.672 E82.20973
G0 F6000 X105.913 Y129.672
G1 F1200 X98.659 Y122.418 E82.55094
G0 F6000 X98.659 Y122.984
G1 F1200 X105.347 Y129.672 E82.86552
G0 F6000 X104.781 Y129.672
G1 F1200 X98.659 Y123.549 E83.1535
G0 F6000 X98.659 Y124.115
G1 F1200 X104.216 Y129.672 E83.41489
G0 F6000 X103.65 Y129.672
G1 F1200 X98.659 Y124.681 E83.64965
G0 F6000 X98.659 Y125.246
G1 F1200 X103.084 Y129.672 E83.85781
G0 F6000 X102.519 Y129.672
G1 F1200 X98.659 Y125.812 E84.03938
G0 F6000 X98.659 Y126.378
G1 F1200 X101.953 Y129.672 E84.19431
G0 F6000 X101.387 Y129.672
G1 F1200 X98.659 Y126.944 E84.32263
G0 F6000 X98.659 Y127.509
G1 F1200 X100.822 Y129.672 E84.42437
G0 F6000 X100.256 Y129.672
G1 F1200 X98.659 Y128.075 E84.49949
G0 F6000 X98.659 Y128.641
G1 F1200 X99.69 Y129.672 E84.54799
G0 F6000 X99.125 Y129.672
G1 F1200 X98.659 Y129.206 E84.5699
G1 F2700 E79.5699
;MESH:NONMESH
