;FLAVOR:Marlin
M73 P0
M73 R303
;TIME:18184
;Filament used: 14.5695m
;Layer height: 0.2
;MINX:41
;MINY:44.5
;MINZ:0.2
;MAXX:194
;MAXY:193.5
;MAXZ:5.4
;POSTPROCESSED
;Generated with Cura_SteamEngine 5.0.0
M140 S50
M105
M190 S50
M104 S215
M105
M109 S215
M82 ;absolute extrusion mode
; Ender 3 Custom Start G-code
G92 E0 ; Reset Extruder
G28 ; Home all axes
G1 Z2.0 F3000 ; Move Z Axis up little to prevent scratching of Heat Bed
G1 X0.1 Y20 Z0.3 F5000.0 ; Move to start position
G1 X0.1 Y200.0 Z0.3 F1500.0 E15 ; Draw the first line
G1 X0.4 Y200.0 Z0.3 F5000.0 ; Move to side a little
G1 X0.4 Y20 Z0.3 F1500.0 E30 ; Draw the second line
G92 E0 ; Reset Extruder
G1 Z2.0 F3000 ; Move Z Axis up little to prevent scratching of Heat Bed
G1 X5 Y20 Z0.3 F5000.0 ; Move over to prevent blob squish
G92 E0
G92 E0
G1 F2700 E-5
;LAYER_COUNT:27
;LAYER:0
M107
G0 F6000 X48.591 Y54.355 Z0.2
G0 X43.146 Y61.335
;TYPE:SKIRT
G1 F2700 E0
G1 F1200 X43.431 Y60.745 E0.02179
G1 X43.875 Y59.919 E0.05298
G1 X44.239 Y59.345 E0.07559
G1 X44.982 Y58.26 E0.11933
G1 X45.417 Y57.657 E0.14406
G1 X45.998 Y56.921 E0.17524
G1 X46.464 Y56.412 E0.1982
G1 X47.423 Y55.434 E0.24376
G1 X47.891 Y54.979 E0.26546
G1 X48.591 Y54.355 E0.29665
G1 X49.134 Y53.938 E0.31943
G1 X50.248 Y53.141 E0.36498
G1 X50.798 Y52.767 E0.38711
G1 X51.595 Y52.273 E0.41829
G1 X52.207 Y51.954 E0.44125
G1 X53.411 Y51.378 E0.48564
G1 X54.044 Y51.093 E0.50873
G1 X54.915 Y50.745 E0.53992
G1 X55.574 Y50.536 E0.56292
G1 X56.866 Y50.176 E0.60753
G1 X57.541 Y50.005 E0.63069
G1 X58.459 Y49.813 E0.66188
G1 X59.161 Y49.721 E0.68543
G1 X60.423 Y49.597 E0.72761
G1 X63.103 Y49.364 E0.81708
G1 X65.589 Y49.076 E0.90032
G1 X68.087 Y48.716 E0.98426
G1 X70.53 Y48.293 E1.06672
G1 X73.023 Y47.788 E1.15132
G1 X75.477 Y47.218 E1.23512
G1 X77.903 Y46.581 E1.31854
G1 X80.336 Y45.869 E1.40286
G1 X82.119 Y45.301 E1.4651
G1 X82.93 Y45.07 E1.49314
G1 X83.653 Y44.89 E1.51793
G1 X84.573 Y44.709 E1.54911
G1 X85.196 Y44.631 E1.56999
G1 X86.002 Y44.56 E1.59691
G1 X86.502 Y44.529 E1.61357
G1 X87.036 Y44.509 E1.63134
G1 X87.782 Y44.5 E1.65615
G1 X154.013 Y44.5 E3.85901
G1 X154.87 Y44.511 E3.88751
G1 X155.495 Y44.538 E3.90832
G1 X156.231 Y44.594 E3.93287
G1 X156.62 Y44.632 E3.94587
G1 X157.549 Y44.763 E3.97707
G1 X158.072 Y44.873 E3.99485
G1 X158.834 Y45.06 E4.02095
G1 X159.284 Y45.184 E4.03647
G1 X160.007 Y45.41 E4.06167
G1 X162.909 Y46.429 E4.16396
G1 X165.288 Y47.186 E4.247
G1 X167.721 Y47.886 E4.3312
G1 X170.121 Y48.502 E4.41362
G1 X172.618 Y49.069 E4.49878
G1 X175.08 Y49.555 E4.58225
G1 X176.563 Y49.813 E4.63231
G1 X177.392 Y49.991 E4.66051
G1 X178.773 Y50.347 E4.70795
G1 X179.369 Y50.515 E4.72854
G1 X180.26 Y50.807 E4.75973
G1 X180.907 Y51.074 E4.78301
G1 X182.16 Y51.644 E4.82879
G1 X182.756 Y51.932 E4.85081
G1 X183.582 Y52.375 E4.88198
G1 X184.155 Y52.739 E4.90456
G1 X185.24 Y53.482 E4.9483
G1 X185.843 Y53.917 E4.97303
G1 X186.579 Y54.498 E5.00422
G1 X187.078 Y54.954 E5.0267
G1 X188.029 Y55.885 E5.07096
G1 X188.512 Y56.381 E5.09399
G1 X189.137 Y57.08 E5.12518
G1 X189.551 Y57.618 E5.14776
G1 X190.34 Y58.72 E5.19283
G1 X190.742 Y59.313 E5.21666
G1 X191.235 Y60.111 E5.24786
G1 X191.542 Y60.701 E5.26998
G1 X192.12 Y61.906 E5.31443
G1 X192.404 Y62.536 E5.33742
G1 X192.753 Y63.407 E5.36863
G1 X192.963 Y64.07 E5.39176
G1 X193.324 Y65.366 E5.4365
G1 X193.495 Y66.041 E5.45966
G1 X193.687 Y66.959 E5.49086
G1 X193.776 Y67.637 E5.5136
G1 X193.908 Y68.979 E5.55845
G1 X193.959 Y69.676 E5.5817
G1 X193.987 Y70.306 E5.60267
G1 X194 Y71.243 E5.63384
G1 X193.999 Y176.93 E9.149
G1 X193.99 Y177.607 E9.17152
G1 X193.962 Y178.254 E9.19306
G1 X193.896 Y179.102 E9.22135
G1 X193.859 Y179.465 E9.23349
G1 X193.725 Y180.394 E9.2647
G1 X193.584 Y181.033 E9.28647
G1 X193.38 Y181.825 E9.31367
G1 X193.289 Y182.149 E9.32486
G1 X192.997 Y183.041 E9.35608
G1 X192.745 Y183.656 E9.37819
G1 X192.358 Y184.51 E9.40937
G1 X192.232 Y184.77 E9.41898
G1 X191.787 Y185.596 E9.45019
G1 X191.437 Y186.146 E9.47187
G1 X190.985 Y186.807 E9.4985
G1 X190.762 Y187.117 E9.5112
G1 X190.182 Y187.854 E9.5424
G1 X189.731 Y188.348 E9.56465
G1 X189.13 Y188.962 E9.59322
G1 X188.901 Y189.185 E9.60385
G1 X188.202 Y189.81 E9.63504
G1 X187.684 Y190.21 E9.65681
G1 X186.974 Y190.718 E9.68584
G1 X186.705 Y190.901 E9.69667
G1 X185.908 Y191.395 E9.72785
G1 X185.331 Y191.697 E9.74951
G1 X184.526 Y192.083 E9.77921
G1 X184.22 Y192.22 E9.79036
G1 X183.348 Y192.566 E9.82156
G1 X182.741 Y192.758 E9.84274
G1 X181.948 Y192.98 E9.87013
G1 X181.622 Y193.063 E9.88131
G1 X180.704 Y193.255 E9.91251
G1 X180.048 Y193.344 E9.93453
G1 X179.034 Y193.442 E9.96841
G1 X178.712 Y193.464 E9.97914
G1 X178.123 Y193.489 E9.99875
G1 X177.28 Y193.5 E10.02679
G1 X57.559 Y193.499 E14.00873
G1 X56.891 Y193.49 E14.03095
G1 X56.246 Y193.462 E14.05242
G1 X55.391 Y193.396 E14.08094
G1 X55.04 Y193.36 E14.09268
G1 X54.112 Y193.224 E14.12387
G1 X53.485 Y193.086 E14.14523
G1 X52.639 Y192.87 E14.17427
G1 X52.346 Y192.788 E14.18439
G1 X51.455 Y192.497 E14.21556
G1 X50.703 Y192.183 E14.24267
G1 X49.927 Y191.825 E14.27109
G1 X49.093 Y191.396 E14.30229
G1 X48.365 Y190.944 E14.33079
G1 X47.642 Y190.448 E14.35995
G1 X47.373 Y190.254 E14.37098
G1 X46.636 Y189.673 E14.40219
G1 X46.15 Y189.23 E14.42406
G1 X45.531 Y188.623 E14.4529
G1 X45.313 Y188.399 E14.4633
G1 X44.688 Y187.699 E14.49451
G1 X44.29 Y187.184 E14.51616
G1 X43.782 Y186.474 E14.54519
G1 X43.599 Y186.205 E14.55601
G1 X43.105 Y185.408 E14.5872
G1 X42.807 Y184.84 E14.60853
G1 X42.413 Y184.017 E14.63888
G1 X42.278 Y183.715 E14.64989
G1 X41.932 Y182.843 E14.68109
G1 X41.74 Y182.237 E14.70223
G1 X41.512 Y181.419 E14.73047
G1 X41.431 Y181.099 E14.74145
G1 X41.24 Y180.181 E14.77264
G1 X41.153 Y179.533 E14.79439
G1 X41.065 Y178.634 E14.82443
G1 X41.04 Y178.293 E14.8358
G1 X41.012 Y177.654 E14.85708
G1 X41 Y176.756 E14.88695
G1 X41.001 Y71.059 E18.40244
G1 X41.01 Y70.391 E18.42466
G1 X41.041 Y69.706 E18.44747
G1 X41.147 Y68.356 E18.49251
G1 X41.217 Y67.67 E18.51544
G1 X41.352 Y66.742 E18.54663
G1 X41.5 Y66.073 E18.56942
G1 X41.848 Y64.722 E18.61582
G1 X42.016 Y64.127 E18.63639
G1 X42.309 Y63.236 E18.66758
G1 X42.574 Y62.595 E18.69065
G1 X43.146 Y61.335 E18.73668
G1 F2700 E13.73668
G0 F6000 X41.801 Y71.07
G1 F2700 E18.73668
G1 F1200 X41.81 Y70.402 E18.7589
G1 X41.838 Y69.766 E18.78007
G1 X41.943 Y68.438 E18.82438
G1 X42.013 Y67.752 E18.84731
G1 X42.144 Y66.858 E18.87737
G1 X42.275 Y66.27 E18.8974
G1 X42.618 Y64.939 E18.94312
G1 X42.786 Y64.344 E18.96368
G1 X43.069 Y63.487 E18.9937
G1 X43.303 Y62.924 E19.01398
G1 X43.866 Y61.683 E19.0593
G1 X44.151 Y61.093 E19.08109
G1 X44.58 Y60.298 E19.11114
G1 X44.901 Y59.795 E19.13099
G1 X45.631 Y58.729 E19.17396
G1 X46.066 Y58.126 E19.19869
G1 X46.626 Y57.417 E19.22874
G1 X47.036 Y56.971 E19.24889
G1 X47.981 Y56.008 E19.29376
G1 X48.449 Y55.553 E19.31547
G1 X49.124 Y54.952 E19.34553
G1 X49.601 Y54.587 E19.36551
G1 X50.697 Y53.802 E19.41035
G1 X51.247 Y53.428 E19.43247
G1 X52.016 Y52.954 E19.46252
G1 X52.554 Y52.675 E19.48267
G1 X53.739 Y52.107 E19.52638
G1 X54.372 Y51.822 E19.54947
G1 X55.212 Y51.488 E19.57954
G1 X55.791 Y51.306 E19.59972
G1 X57.062 Y50.951 E19.64361
G1 X57.737 Y50.78 E19.66677
G1 X58.622 Y50.598 E19.69683
G1 X59.239 Y50.517 E19.71752
G1 X60.493 Y50.394 E19.75943
G1 X63.191 Y50.159 E19.84951
G1 X65.687 Y49.871 E19.93307
G1 X68.195 Y49.509 E20.01736
G1 X70.688 Y49.077 E20.10151
G1 X73.186 Y48.572 E20.18627
G1 X75.684 Y47.991 E20.27157
G1 X78.12 Y47.352 E20.35534
G1 X80.589 Y46.629 E20.44091
G1 X82.362 Y46.064 E20.5028
G1 X83.14 Y45.842 E20.52971
G1 X83.842 Y45.668 E20.55376
G1 X84.728 Y45.494 E20.58379
G1 X85.273 Y45.427 E20.60206
G1 X86.052 Y45.359 E20.62806
G1 X86.552 Y45.328 E20.64473
G1 X87.047 Y45.309 E20.6612
G1 X87.782 Y45.3 E20.68565
G1 X154.013 Y45.3 E22.8885
G1 X154.859 Y45.311 E22.91664
G1 X155.438 Y45.336 E22.93592
G1 X156.154 Y45.39 E22.9598
G1 X156.543 Y45.428 E22.9728
G1 X157.437 Y45.556 E23.00284
G1 X158.25 Y45.737 E23.03054
G1 X159.072 Y45.956 E23.05883
G1 X159.742 Y46.165 E23.08218
G1 X162.644 Y47.184 E23.18448
G1 X165.067 Y47.955 E23.26905
G1 X167.479 Y48.649 E23.35252
G1 X169.956 Y49.285 E23.43758
G1 X172.463 Y49.854 E23.52309
G1 X174.919 Y50.338 E23.60634
G1 X176.426 Y50.601 E23.65722
G1 X177.195 Y50.766 E23.68338
G1 X178.556 Y51.117 E23.73013
G1 X179.152 Y51.285 E23.75073
G1 X180.01 Y51.568 E23.78078
G1 X180.578 Y51.804 E23.80123
G1 X181.812 Y52.364 E23.84631
G1 X182.408 Y52.652 E23.86832
G1 X183.203 Y53.081 E23.89837
G1 X183.705 Y53.401 E23.91817
G1 X184.771 Y54.131 E23.96114
G1 X185.374 Y54.566 E23.98587
G1 X186.083 Y55.126 E24.01592
G1 X186.52 Y55.528 E24.03567
G1 X187.456 Y56.443 E24.07921
G1 X187.939 Y56.939 E24.10223
G1 X188.539 Y57.613 E24.13224
G1 X188.902 Y58.086 E24.15208
G1 X189.678 Y59.169 E24.19639
G1 X190.08 Y59.762 E24.22022
G1 X190.553 Y60.531 E24.25024
G1 X190.822 Y61.049 E24.26966
G1 X191.391 Y62.235 E24.31341
G1 X191.675 Y62.865 E24.33639
G1 X192.009 Y63.704 E24.36643
G1 X192.193 Y64.287 E24.38676
G1 X192.549 Y65.562 E24.43079
G1 X192.72 Y66.237 E24.45395
G1 X192.902 Y67.122 E24.484
G1 X192.98 Y67.717 E24.50396
G1 X193.11 Y69.038 E24.54811
G1 X193.161 Y69.735 E24.57135
G1 X193.187 Y70.319 E24.5908
G1 X193.2 Y71.243 E24.62153
G1 X193.199 Y176.92 E28.13636
G1 X193.19 Y177.597 E28.15888
G1 X193.164 Y178.196 E28.17883
G1 X193.1 Y179.021 E28.20635
G1 X193.063 Y179.384 E28.21848
G1 X192.932 Y180.278 E28.24854
G1 X192.808 Y180.838 E28.26761
G1 X192.61 Y181.609 E28.29409
G1 X192.519 Y181.933 E28.30528
G1 X192.237 Y182.791 E28.33532
G1 X192.014 Y183.33 E28.35472
G1 X191.638 Y184.161 E28.38506
G1 X191.512 Y184.421 E28.39467
G1 X191.083 Y185.216 E28.42471
G1 X190.775 Y185.697 E28.44371
G1 X190.335 Y186.339 E28.4696
G1 X190.112 Y186.649 E28.4823
G1 X189.553 Y187.358 E28.51233
G1 X189.157 Y187.791 E28.53184
G1 X188.572 Y188.389 E28.55967
G1 X188.343 Y188.612 E28.5703
G1 X187.669 Y189.212 E28.60031
G1 X187.214 Y189.562 E28.61941
G1 X186.524 Y190.056 E28.64763
G1 X186.255 Y190.239 E28.65845
G1 X185.487 Y190.714 E28.68849
G1 X184.981 Y190.978 E28.70747
G1 X184.199 Y191.353 E28.73631
G1 X183.893 Y191.49 E28.74746
G1 X183.053 Y191.822 E28.77751
G1 X182.522 Y191.989 E28.79602
G1 X181.751 Y192.205 E28.82265
G1 X181.425 Y192.288 E28.83384
G1 X180.54 Y192.472 E28.8639
G1 X179.965 Y192.548 E28.8832
G1 X178.979 Y192.644 E28.91614
G1 X178.657 Y192.666 E28.92688
G1 X178.112 Y192.689 E28.94502
G1 X177.28 Y192.7 E28.9727
G1 X57.57 Y192.699 E32.95427
G1 X56.902 Y192.69 E32.97649
G1 X56.304 Y192.664 E32.9964
G1 X55.472 Y192.6 E33.02415
G1 X55.121 Y192.564 E33.03589
G1 X54.228 Y192.432 E33.06591
G1 X53.68 Y192.31 E33.08458
G1 X52.855 Y192.1 E33.1129
G1 X52.562 Y192.018 E33.12302
G1 X51.704 Y191.736 E33.15306
G1 X51.038 Y191.457 E33.17707
G1 X50.262 Y191.099 E33.2055
G1 X49.46 Y190.685 E33.23552
G1 X48.814 Y190.281 E33.26086
G1 X48.11 Y189.799 E33.28923
G1 X47.841 Y189.605 E33.30027
G1 X47.132 Y189.045 E33.33032
G1 X46.707 Y188.655 E33.3495
G1 X46.104 Y188.065 E33.37756
G1 X45.886 Y187.841 E33.38796
G1 X45.286 Y187.166 E33.41799
G1 X44.938 Y186.714 E33.43697
G1 X44.444 Y186.024 E33.46519
G1 X44.261 Y185.755 E33.47601
G1 X43.786 Y184.987 E33.50605
G1 X43.526 Y184.49 E33.5247
G1 X43.143 Y183.691 E33.55417
G1 X43.008 Y183.389 E33.56518
G1 X42.676 Y182.549 E33.59522
G1 X42.51 Y182.018 E33.61372
G1 X42.288 Y181.223 E33.64117
G1 X42.207 Y180.903 E33.65215
G1 X42.024 Y180.018 E33.68221
G1 X41.949 Y179.45 E33.70127
G1 X41.863 Y178.576 E33.73048
G1 X41.838 Y178.235 E33.74185
G1 X41.812 Y177.642 E33.76159
G1 X41.8 Y176.756 E33.79106
G1 X41.801 Y71.07 E37.30619
G0 F6000 X41.401 Y71.064
G1 F1200 X41.41 Y70.396 E37.32841
G1 X41.439 Y69.736 E37.35039
G1 X41.545 Y68.397 E37.39506
G1 X41.615 Y67.711 E37.418
G1 X41.748 Y66.8 E37.44862
G1 X41.888 Y66.171 E37.47005
G1 X42.233 Y64.831 E37.51607
G1 X42.401 Y64.236 E37.53664
G1 X42.689 Y63.361 E37.56727
G1 X42.939 Y62.76 E37.58892
G1 X43.506 Y61.509 E37.63461
G1 X43.791 Y60.919 E37.6564
G1 X44.227 Y60.109 E37.68699
G1 X44.57 Y59.57 E37.70824
G1 X45.306 Y58.494 E37.7516
G1 X45.741 Y57.891 E37.77633
G1 X46.312 Y57.169 E37.80695
G1 X46.75 Y56.692 E37.82849
G1 X47.702 Y55.721 E37.87372
G1 X48.17 Y55.266 E37.89543
G1 X48.857 Y54.653 E37.92605
G1 X49.367 Y54.262 E37.94742
G1 X50.473 Y53.472 E37.99263
G1 X51.023 Y53.098 E38.01475
G1 X51.806 Y52.613 E38.04539
G1 X52.381 Y52.314 E38.06694
G1 X53.575 Y51.742 E38.11098
G1 X54.208 Y51.457 E38.13406
G1 X55.063 Y51.116 E38.16468
G1 X55.683 Y50.921 E38.1863
G1 X56.964 Y50.564 E38.23053
G1 X57.639 Y50.393 E38.25369
G1 X58.54 Y50.205 E38.2843
G1 X59.2 Y50.119 E38.30644
G1 X60.458 Y49.996 E38.34848
G1 X63.112 Y49.765 E38.43708
G1 X65.655 Y49.471 E38.52223
G1 X68.141 Y49.112 E38.60577
G1 X70.612 Y48.684 E38.68918
G1 X73.081 Y48.185 E38.77296
G1 X75.597 Y47.6 E38.85887
G1 X78.011 Y46.967 E38.94188
G1 X80.481 Y46.244 E39.02748
G1 X82.24 Y45.683 E39.08889
G1 X83.035 Y45.456 E39.11638
G1 X83.747 Y45.279 E39.14079
G1 X84.651 Y45.101 E39.17143
G1 X85.234 Y45.029 E39.19097
G1 X86.027 Y44.959 E39.21745
G1 X86.527 Y44.928 E39.23411
G1 X87.041 Y44.909 E39.25122
G1 X87.782 Y44.9 E39.27586
G1 X154.013 Y44.9 E41.47872
G1 X154.864 Y44.911 E41.50702
G1 X155.467 Y44.937 E41.5271
G1 X156.193 Y44.992 E41.55131
G1 X156.582 Y45.03 E41.56431
G1 X157.493 Y45.159 E41.59492
G1 X158.341 Y45.347 E41.6238
G1 X159.178 Y45.57 E41.65261
G1 X159.874 Y45.788 E41.67687
G1 X162.752 Y46.799 E41.77833
G1 X165.203 Y47.579 E41.86388
G1 X167.583 Y48.263 E41.94624
G1 X170.038 Y48.893 E42.03054
G1 X172.517 Y49.456 E42.11509
G1 X175.022 Y49.95 E42.20001
G1 X176.495 Y50.207 E42.24975
G1 X177.294 Y50.379 E42.27693
G1 X178.665 Y50.732 E42.32402
G1 X179.261 Y50.9 E42.34461
G1 X180.135 Y51.188 E42.37522
G1 X180.743 Y51.439 E42.3971
G1 X181.986 Y52.004 E42.44251
G1 X182.582 Y52.292 E42.46453
G1 X183.393 Y52.728 E42.49515
G1 X183.93 Y53.07 E42.51633
G1 X185.006 Y53.806 E42.55969
M73 P1
G1 X185.609 Y54.241 E42.58442
G1 X186.331 Y54.812 E42.61503
G1 X186.799 Y55.241 E42.63615
G1 X187.742 Y56.164 E42.68004
G1 X188.225 Y56.66 E42.70306
G1 X188.838 Y57.347 E42.73369
G1 X189.227 Y57.852 E42.75489
G1 X190.009 Y58.944 E42.79956
G1 X190.411 Y59.537 E42.82339
G1 X190.894 Y60.321 E42.85402
G1 X191.182 Y60.875 E42.87478
G1 X191.755 Y62.071 E42.91889
G1 X192.039 Y62.701 E42.94188
G1 X192.381 Y63.556 E42.9725
G1 X192.578 Y64.178 E42.9942
G1 X192.936 Y65.464 E43.0386
G1 X193.107 Y66.139 E43.06176
G1 X193.295 Y67.04 E43.09238
G1 X193.378 Y67.677 E43.11374
G1 X193.509 Y69.008 E43.15823
G1 X193.56 Y69.705 E43.18147
G1 X193.587 Y70.313 E43.20171
G1 X193.6 Y71.243 E43.23265
G1 X193.599 Y176.925 E46.74764
G1 X193.59 Y177.602 E46.77016
G1 X193.563 Y178.225 E46.7909
G1 X193.498 Y179.062 E46.81883
G1 X193.461 Y179.425 E46.83096
G1 X193.328 Y180.336 E46.86158
G1 X193.196 Y180.935 E46.88198
G1 X192.995 Y181.717 E46.90884
G1 X192.904 Y182.041 E46.92003
G1 X192.617 Y182.916 E46.95066
G1 X192.379 Y183.493 E46.97142
G1 X191.998 Y184.336 E47.00219
G1 X191.872 Y184.596 E47.0118
G1 X191.435 Y185.406 E47.04241
G1 X191.106 Y185.922 E47.06276
G1 X190.66 Y186.573 E47.08901
G1 X190.437 Y186.883 E47.10171
G1 X189.867 Y187.606 E47.13233
G1 X189.444 Y188.07 E47.15322
G1 X188.851 Y188.675 E47.18139
G1 X188.622 Y188.898 E47.19202
G1 X187.935 Y189.511 E47.22265
G1 X187.449 Y189.886 E47.24306
G1 X186.749 Y190.387 E47.2717
G1 X186.48 Y190.57 E47.28252
G1 X185.697 Y191.055 E47.31315
G1 X185.156 Y191.337 E47.33344
G1 X184.362 Y191.718 E47.36273
G1 X184.056 Y191.855 E47.37388
G1 X183.201 Y192.194 E47.40448
G1 X182.632 Y192.374 E47.42432
G1 X181.849 Y192.592 E47.45136
G1 X181.523 Y192.675 E47.46255
