;FLAVOR:Marlin
M73 P0
M73 R120
;TIME:7199
;Filament used: 4.84943m
;Layer height: 0.2
;MINX:67.447
;MINY:86.357
;MINZ:0.2
;MAXX:159.456
;MAXY:139.426
;MAXZ:27.6
;POSTPROCESSED
;Generated with Cura_SteamEngine 5.0.0
M140 S50
M105
M190 S50
M104 S215
M105
M109 S215
M82 ;absolute extrusion mode
; Ender 3 Custom Start G-code
G92 E0 ; Reset Extruder
G28 ; Home all axes
G1 Z2.0 F3000 ; Move Z Axis up little to prevent scratching of Heat Bed
G1 X0.1 Y20 Z0.3 F5000.0 ; Move to start position
G1 X0.1 Y200.0 Z0.3 F1500.0 E15 ; Draw the first line
G1 X0.4 Y200.0 Z0.3 F5000.0 ; Move to side a little
G1 X0.4 Y20 Z0.3 F1500.0 E30 ; Draw the second line
G92 E0 ; Reset Extruder
G1 Z2.0 F3000 ; Move Z Axis up little to prevent scratching of Heat Bed
G1 X5 Y20 Z0.3 F5000.0 ; Move over to prevent blob squish
G92 E0
G92 E0
G1 F2700 E-5
;LAYER_COUNT:138
;LAYER:0
M107
G0 F6000 X74.338 Y95.28 Z0.2
G0 X67.495 Y108.507
;TYPE:SKIRT
G1 F2700 E0
G1 F1200 X67.573 Y107.648 E0.02869
G1 X67.666 Y106.938 E0.0525
G1 X67.834 Y105.985 E0.08469
G1 X68.001 Y105.232 E0.11034
G1 X68.273 Y104.232 E0.14481
G1 X68.42 Y103.777 E0.16072
G1 X68.726 Y102.945 E0.1902
G1 X68.996 Y102.294 E0.21364
G1 X69.402 Y101.424 E0.24557
G1 X69.759 Y100.739 E0.27126
G1 X70.169 Y100.02 E0.29879
G1 X70.341 Y99.743 E0.30964
G1 X70.714 Y99.181 E0.33207
G1 X70.985 Y98.799 E0.34765
G1 X71.534 Y98.09 E0.37748
G1 X72.069 Y97.453 E0.40514
G1 X72.646 Y96.817 E0.4337
G1 X72.874 Y96.585 E0.44452
G1 X73.317 Y96.159 E0.46497
G1 X73.65 Y95.856 E0.47994
G1 X74.338 Y95.28 E0.50978
G1 X75.023 Y94.752 E0.53855
G1 X75.885 Y94.151 E0.5735
G1 X76.278 Y93.904 E0.58894
G1 X77.05 Y93.461 E0.61854
G1 X77.793 Y93.074 E0.64641
G1 X78.576 Y92.704 E0.67521
G1 X79.351 Y92.388 E0.70305
G1 X80.379 Y92.008 E0.7395
G1 X81.941 Y91.462 E0.79453
G1 X84.254 Y90.582 E0.87684
G1 X86.593 Y89.613 E0.96105
G1 X88.889 Y88.585 E1.04472
G1 X89.88 Y88.103 E1.08137
G1 X90.07 Y88.02 E1.08827
G1 X91.249 Y87.459 E1.1317
G1 X92.112 Y87.093 E1.16288
G1 X93.004 Y86.801 E1.19409
G1 X93.916 Y86.586 E1.22526
G1 X94.844 Y86.45 E1.25645
G1 X95.782 Y86.393 E1.28771
G1 X96.803 Y86.38 E1.32167
G1 X97.557 Y86.395 E1.34675
G1 X98.692 Y86.443 E1.38454
G1 X101.334 Y86.518 E1.47245
G1 X103.804 Y86.518 E1.5546
G1 X107.038 Y86.416 E1.66221
G1 X108.082 Y86.371 E1.69697
G1 X109.296 Y86.357 E1.73735
G1 X109.739 Y86.365 E1.75209
G1 X110.675 Y86.422 E1.78328
G1 X111.603 Y86.558 E1.81447
G1 X112.759 Y86.844 E1.85408
G1 X113.975 Y87.216 E1.89637
G1 X116.4 Y87.921 E1.98037
G1 X118.843 Y88.558 E2.06434
G1 X121.304 Y89.125 E2.14834
G1 X123.78 Y89.622 E2.23233
G1 X126.258 Y90.047 E2.31596
G1 X128.748 Y90.401 E2.39961
G1 X131.233 Y90.684 E2.48279
G1 X133.763 Y90.901 E2.56725
G1 X136.266 Y91.042 E2.65063
G1 X138.781 Y91.115 E2.73432
G1 X140.989 Y91.128 E2.80775
G1 X141.473 Y91.142 E2.82386
G1 X142.484 Y91.2 E2.85754
G1 X142.973 Y91.243 E2.87387
G1 X143.961 Y91.376 E2.90703
G1 X144.438 Y91.462 E2.92315
G1 X145.332 Y91.662 E2.95362
G1 X146.131 Y91.876 E2.98113
G1 X147.074 Y92.174 E3.01402
G1 X147.54 Y92.345 E3.03053
G1 X148.398 Y92.702 E3.06144
G1 X149.134 Y93.045 E3.08845
G1 X150.051 Y93.525 E3.12287
G1 X150.521 Y93.808 E3.14112
G1 X151.155 Y94.212 E3.16612
G1 X151.928 Y94.752 E3.19749
G1 X152.528 Y95.211 E3.22261
G1 X153.31 Y95.869 E3.2566
G1 X153.709 Y96.247 E3.27488
G1 X154.311 Y96.848 E3.30318
G1 X154.987 Y97.589 E3.33654
G1 X155.273 Y97.932 E3.35139
G1 X155.832 Y98.662 E3.38197
G1 X156.336 Y99.381 E3.41118
G1 X156.817 Y100.129 E3.44075
G1 X157.191 Y100.786 E3.4659
G1 X157.559 Y101.499 E3.49259
G1 X157.905 Y102.248 E3.52003
G1 X158.198 Y102.965 E3.54579
G1 X158.483 Y103.755 E3.57372
G1 X158.723 Y104.529 E3.60067
G1 X158.933 Y105.33 E3.62822
G1 X159.09 Y106.056 E3.65292
G1 X159.232 Y106.874 E3.68053
G1 X159.336 Y107.693 E3.70799
G1 X159.368 Y108.025 E3.71909
G1 X159.409 Y108.602 E3.73833
G1 X159.433 Y109.154 E3.7567
G1 X159.443 Y109.62 E3.77221
G1 X159.456 Y123.033 E4.21832
G1 X159.447 Y123.742 E4.24191
G1 X159.395 Y124.678 E4.27309
G1 X159.264 Y125.607 E4.30429
G1 X159.054 Y126.521 E4.33548
G1 X158.767 Y127.414 E4.36668
G1 X158.404 Y128.279 E4.39788
G1 X157.97 Y129.11 E4.42906
G1 X157.466 Y129.901 E4.46026
G1 X156.897 Y130.646 E4.49144
G1 X156.266 Y131.34 E4.52264
G1 X155.578 Y131.978 E4.55384
G1 X154.839 Y132.555 E4.58503
G1 X154.053 Y133.067 E4.61623
G1 X153.226 Y133.51 E4.64743
G1 X152.365 Y133.881 E4.67861
G1 X151.475 Y134.177 E4.70981
G1 X150.502 Y134.409 E4.74308
G1 X148.282 Y134.831 E4.81824
G1 X145.799 Y135.37 E4.90275
G1 X143.391 Y135.963 E4.98523
G1 X140.953 Y136.639 E5.06938
G1 X138.554 Y137.378 E5.15287
G1 X136.134 Y138.198 E5.23785
G1 X134.695 Y138.723 E5.2888
G1 X133.801 Y139.006 E5.31999
G1 X132.887 Y139.213 E5.35116
G1 X131.957 Y139.34 E5.38238
G1 X131.119 Y139.387 E5.41029
G1 X130.09 Y139.4 E5.44452
G1 X129.358 Y139.385 E5.46887
G1 X127.662 Y139.307 E5.52534
G1 X125.113 Y139.236 E5.61015
G1 X122.589 Y139.238 E5.6941
G1 X120.094 Y139.309 E5.77712
G1 X119.567 Y139.34 E5.79468
G1 X117.895 Y139.411 E5.85034
G1 X116.631 Y139.426 E5.89238
G1 X116.185 Y139.417 E5.90722
G1 X115.249 Y139.358 E5.93841
G1 X114.321 Y139.219 E5.96962
G1 X113.192 Y138.939 E6.00831
G1 X111.992 Y138.572 E6.05005
G1 X109.552 Y137.863 E6.13456
G1 X107.109 Y137.226 E6.21853
G1 X104.656 Y136.661 E6.30225
G1 X102.167 Y136.163 E6.38668
G1 X99.698 Y135.739 E6.47
G1 X97.199 Y135.383 E6.55396
G1 X94.709 Y135.1 E6.63731
G1 X92.203 Y134.886 E6.72096
G1 X89.686 Y134.744 E6.80481
G1 X87.17 Y134.671 E6.88853
G1 X85.757 Y134.662 E6.93553
G1 X79.029 Y134.666 E7.1593
G1 X78.327 Y134.657 E7.18265
G1 X77.391 Y134.605 E7.21383
G1 X76.462 Y134.474 E7.24503
G1 X75.548 Y134.263 E7.27623
G1 X74.655 Y133.976 E7.30743
G1 X73.79 Y133.614 E7.33862
G1 X72.959 Y133.179 E7.36982
G1 X72.168 Y132.675 E7.40101
G1 X71.423 Y132.106 E7.43219
G1 X70.729 Y131.475 E7.46339
G1 X70.091 Y130.787 E7.4946
G1 X69.514 Y130.048 E7.52578
G1 X69.002 Y129.262 E7.55698
G1 X68.559 Y128.435 E7.58818
G1 X68.189 Y127.574 E7.61935
G1 X67.892 Y126.684 E7.65056
G1 X67.673 Y125.772 E7.68175
G1 X67.532 Y124.845 E7.71294
G1 X67.473 Y123.978 E7.74184
G1 X67.458 Y123.323 E7.76363
G1 X67.447 Y110.154 E8.20164
G1 X67.453 Y109.497 E8.22349
G1 X67.495 Y108.507 E8.25645
G0 F6000 X67.847 Y110.157
G1 F1200 X67.853 Y109.5 E8.2783
G1 X67.894 Y108.527 E8.31069
G1 X67.97 Y107.7 E8.33831
G1 X68.063 Y106.99 E8.36213
G1 X68.224 Y106.072 E8.39313
G1 X68.391 Y105.319 E8.41878
G1 X68.653 Y104.355 E8.45201
G1 X68.8 Y103.9 E8.46791
G1 X69.096 Y103.098 E8.49634
G1 X69.366 Y102.447 E8.51979
G1 X69.757 Y101.609 E8.55054
G1 X70.114 Y100.924 E8.57623
G1 X70.509 Y100.231 E8.60276
G1 X70.681 Y99.954 E8.61361
G1 X71.041 Y99.413 E8.63522
G1 X71.312 Y99.031 E8.6508
G1 X71.84 Y98.347 E8.67954
G1 X72.375 Y97.71 E8.70721
G1 X72.932 Y97.097 E8.73476
G1 X73.16 Y96.865 E8.74557
G1 X73.586 Y96.455 E8.76524
G1 X73.919 Y96.152 E8.78021
G1 X74.582 Y95.597 E8.80897
G1 X75.267 Y95.069 E8.83774
G1 X76.097 Y94.489 E8.87142
G1 X76.49 Y94.242 E8.88685
G1 X77.234 Y93.816 E8.91537
G1 X77.977 Y93.429 E8.94323
G1 X78.733 Y93.073 E8.97103
G1 X79.491 Y92.763 E8.99826
G1 X80.511 Y92.385 E9.03444
G1 X82.076 Y91.838 E9.08958
G1 X84.43 Y90.943 E9.17335
G1 X86.76 Y89.977 E9.25724
G1 X89.049 Y88.953 E9.34064
G1 X90.055 Y88.463 E9.37786
G1 X90.259 Y88.374 E9.38526
G1 X91.421 Y87.821 E9.42806
G1 X92.269 Y87.461 E9.45871
G1 X93.144 Y87.177 E9.4893
G1 X94.041 Y86.969 E9.51993
G1 X94.953 Y86.841 E9.55056
G1 X95.789 Y86.793 E9.57841
G1 X96.797 Y86.78 E9.61194
G1 X97.54 Y86.795 E9.63666
G1 X98.663 Y86.843 E9.67404
G1 X101.323 Y86.918 E9.76255
G1 X103.817 Y86.918 E9.8455
G1 X107.07 Y86.815 E9.95375
G1 X108.089 Y86.771 E9.98767
G1 X109.288 Y86.757 E10.02755
G1 X109.731 Y86.765 E10.04229
G1 X110.65 Y86.821 E10.07291
G1 X111.561 Y86.957 E10.10355
G1 X112.642 Y87.227 E10.14061
G1 X113.809 Y87.584 E10.1812
G1 X116.302 Y88.309 E10.26755
G1 X118.758 Y88.949 E10.35197
G1 X121.208 Y89.513 E10.43558
G1 X123.733 Y90.02 E10.52124
G1 X126.171 Y90.438 E10.60351
G1 X128.687 Y90.797 E10.68804
G1 X131.221 Y91.085 E10.77287
G1 X133.706 Y91.298 E10.85582
G1 X136.233 Y91.441 E10.94001
G1 X138.812 Y91.515 E11.02582
G1 X140.986 Y91.528 E11.09813
G1 X141.453 Y91.541 E11.11367
G1 X142.449 Y91.599 E11.14685
G1 X142.938 Y91.642 E11.16318
G1 X143.89 Y91.769 E11.19512
G1 X144.367 Y91.855 E11.21124
G1 X145.228 Y92.048 E11.24059
G1 X146.027 Y92.262 E11.2681
G1 X146.937 Y92.55 E11.29985
G1 X147.403 Y92.721 E11.31636
G1 X148.229 Y93.064 E11.3461
G1 X148.965 Y93.407 E11.37311
G1 X149.853 Y93.872 E11.40645
G1 X150.306 Y94.146 E11.42406
G1 X150.94 Y94.55 E11.44906
G1 X151.685 Y95.07 E11.47928
G1 X152.285 Y95.529 E11.50441
G1 X153.042 Y96.166 E11.53731
G1 X153.426 Y96.53 E11.55491
G1 X154.028 Y97.131 E11.5832
G1 X154.68 Y97.845 E11.61536
G1 X154.966 Y98.188 E11.63022
G1 X155.505 Y98.892 E11.65971
G1 X156.009 Y99.611 E11.68891
G1 X156.472 Y100.332 E11.71741
G1 X156.838 Y100.974 E11.74199
G1 X157.198 Y101.672 E11.76811
G1 X157.536 Y102.404 E11.79493
G1 X157.824 Y103.106 E11.82016
G1 X158.103 Y103.878 E11.84747
G1 X158.337 Y104.635 E11.87382
G1 X158.543 Y105.419 E11.90078
G1 X158.697 Y106.129 E11.92494
G1 X158.836 Y106.929 E11.95195
G1 X158.938 Y107.731 E11.97884
G1 X158.97 Y108.063 E11.98993
G1 X159.009 Y108.62 E12.00851
G1 X159.033 Y109.172 E12.02688
G1 X159.043 Y109.621 E12.04182
G1 X159.056 Y123.028 E12.48774
G1 X159.047 Y123.737 E12.51132
G1 X158.995 Y124.656 E12.54194
G1 X158.864 Y125.567 E12.57255
G1 X158.654 Y126.463 E12.60316
G1 X158.368 Y127.338 E12.63378
G1 X158.006 Y128.185 E12.66441
G1 X157.572 Y128.997 E12.69503
G1 X157.07 Y129.768 E12.72564
G1 X156.502 Y130.493 E12.75627
G1 X155.874 Y131.166 E12.78688
G1 X155.189 Y131.782 E12.81752
G1 X154.454 Y132.336 E12.84814
G1 X153.674 Y132.824 E12.87874
G1 X152.854 Y133.243 E12.90937
G1 X152.001 Y133.589 E12.93998
G1 X151.121 Y133.86 E12.97061
G1 X150.427 Y134.016 E12.99427
G1 X148.209 Y134.438 E13.06936
G1 X145.717 Y134.979 E13.15418
G1 X143.293 Y135.576 E13.23721
G1 X140.834 Y136.258 E13.32208
G1 X138.424 Y137 E13.40595
G1 X135.995 Y137.823 E13.49125
G1 X134.558 Y138.347 E13.54212
G1 X133.681 Y138.625 E13.57272
G1 X132.782 Y138.825 E13.60336
G1 X131.869 Y138.947 E13.63399
G1 X131.112 Y138.987 E13.65921
G1 X130.096 Y139 E13.693
G1 X129.375 Y138.986 E13.71699
G1 X127.662 Y138.907 E13.77402
G1 X125.124 Y138.836 E13.85847
G1 X122.612 Y138.838 E13.94202
G1 X120.06 Y138.911 E14.02693
G1 X119.544 Y138.941 E14.04412
G1 X117.888 Y139.011 E14.09925
G1 X116.639 Y139.026 E14.1408
G1 X116.193 Y139.017 E14.15563
G1 X115.274 Y138.958 E14.18626
G1 X114.364 Y138.82 E14.21688
G1 X113.309 Y138.556 E14.25305
G1 X112.16 Y138.205 E14.29301
G1 X109.65 Y137.475 E14.37995
G1 X107.194 Y136.835 E14.46436
G1 X104.759 Y136.274 E14.54747
G1 X102.236 Y135.769 E14.63305
G1 X99.751 Y135.343 E14.71691
G1 X97.265 Y134.988 E14.80043
G1 X94.759 Y134.703 E14.88432
G1 X92.222 Y134.487 E14.96901
G1 X89.719 Y134.345 E15.05239
G1 X87.138 Y134.271 E15.13827
G1 X85.76 Y134.262 E15.1841
G1 X79.034 Y134.266 E15.40781
G1 X78.332 Y134.257 E15.43116
G1 X77.413 Y134.205 E15.46178
G1 X76.502 Y134.074 E15.49239
G1 X75.605 Y133.864 E15.52303
G1 X74.73 Y133.577 E15.55366
G1 X73.884 Y133.215 E15.58426
G1 X73.072 Y132.782 E15.61487
G1 X72.301 Y132.279 E15.64549
G1 X71.576 Y131.711 E15.67612
G1 X70.903 Y131.083 E15.70674
G1 X70.287 Y130.398 E15.73738
G1 X69.733 Y129.663 E15.76799
G1 X69.245 Y128.883 E15.79859
G1 X68.826 Y128.063 E15.82922
G1 X68.481 Y127.209 E15.85985
G1 X68.21 Y126.329 E15.89048
G1 X68.017 Y125.429 E15.92109
G1 X67.903 Y124.516 E15.9517
G1 X67.872 Y123.966 E15.97002
G1 X67.858 Y123.323 E15.99141
G1 X67.847 Y110.157 E16.42931
G0 F6000 X68.247 Y110.161
G1 F1200 X68.253 Y109.504 E16.45117
G1 X68.294 Y108.548 E16.48299
G1 X68.366 Y107.752 E16.50958
G1 X68.459 Y107.042 E16.53339
G1 X68.615 Y106.159 E16.56322
G1 X68.782 Y105.406 E16.58887
G1 X69.034 Y104.478 E16.62085
G1 X69.181 Y104.023 E16.63676
G1 X69.465 Y103.251 E16.66411
G1 X69.735 Y102.6 E16.68756
G1 X70.112 Y101.794 E16.71715
G1 X70.469 Y101.109 E16.74284
G1 X70.849 Y100.442 E16.76837
G1 X71.021 Y100.165 E16.77922
G1 X71.367 Y99.644 E16.80002
G1 X71.638 Y99.262 E16.8156
G1 X72.146 Y98.604 E16.84325
G1 X72.681 Y97.967 E16.87092
G1 X73.217 Y97.377 E16.89743
G1 X73.445 Y97.145 E16.90825
G1 X73.855 Y96.751 E16.92716
G1 X74.188 Y96.448 E16.94213
G1 X74.826 Y95.913 E16.96983
G1 X75.511 Y95.385 E16.99859
G1 X76.31 Y94.828 E17.03099
G1 X76.703 Y94.581 E17.04643
G1 X77.419 Y94.171 E17.07387
G1 X78.162 Y93.784 E17.10173
G1 X78.889 Y93.441 E17.12847
G1 X79.63 Y93.137 E17.15511
G1 X80.643 Y92.763 E17.19102
G1 X82.202 Y92.218 E17.24595
G1 X84.559 Y91.322 E17.32982
G1 X86.941 Y90.335 E17.41558
G1 X89.222 Y89.314 E17.4987
G1 X90.23 Y88.823 E17.53599
G1 X90.416 Y88.743 E17.54272
G1 X91.593 Y88.182 E17.58609
G1 X92.425 Y87.83 E17.61614
G1 X93.284 Y87.553 E17.64616
G1 X94.165 Y87.353 E17.6762
G1 X95.06 Y87.232 E17.70624
G1 X95.796 Y87.193 E17.73076
G1 X96.792 Y87.18 E17.76389
G1 X97.523 Y87.194 E17.7882
G1 X98.705 Y87.244 E17.82755
G1 X101.312 Y87.318 E17.9143
G1 X103.829 Y87.318 E17.99801
G1 X107.045 Y87.217 E18.10503
G1 X108.096 Y87.17 E18.14002
G1 X108.925 Y87.156 E18.1676
G1 X109.724 Y87.165 E18.19417
G1 X110.626 Y87.221 E18.22423
G1 X111.518 Y87.357 E18.25424
G1 X112.525 Y87.609 E18.28877
G1 X113.728 Y87.977 E18.33061
G1 X116.194 Y88.695 E18.41604
G1 X118.673 Y89.34 E18.50123
G1 X121.104 Y89.9 E18.58421
G1 X123.665 Y90.414 E18.67108
G1 X126.118 Y90.835 E18.75386
G1 X128.652 Y91.196 E18.839
G1 X131.143 Y91.479 E18.92238
G1 X133.685 Y91.697 E19.00724
G1 X136.234 Y91.841 E19.09215
G1 X138.798 Y91.915 E19.17747
G1 X140.984 Y91.928 E19.25018
G1 X141.433 Y91.941 E19.26512
G1 X142.413 Y91.997 E19.29776
G1 X142.902 Y92.04 E19.31409
G1 X143.819 Y92.163 E19.34486
G1 X144.296 Y92.249 E19.36098
G1 X145.125 Y92.434 E19.38924
G1 X145.924 Y92.648 E19.41675
G1 X146.799 Y92.925 E19.44727
G1 X147.265 Y93.096 E19.46378
G1 X148.06 Y93.427 E19.49243
G1 X148.796 Y93.77 E19.51943
G1 X149.655 Y94.22 E19.55169
G1 X150.091 Y94.483 E19.56862
G1 X150.725 Y94.887 E19.59363
G1 X151.441 Y95.388 E19.62269
G1 X152.041 Y95.847 E19.64782
G1 X152.774 Y96.463 E19.67966
G1 X153.143 Y96.814 E19.6966
G1 X153.745 Y97.415 E19.72489
G1 X154.373 Y98.101 E19.75583
G1 X154.659 Y98.444 E19.77068
G1 X155.177 Y99.121 E19.79903
G1 X155.681 Y99.84 E19.82824
G1 X156.127 Y100.534 E19.85567
G1 X156.485 Y101.161 E19.87969
G1 X156.838 Y101.845 E19.90529
G1 X157.168 Y102.56 E19.93148
G1 X157.45 Y103.247 E19.95618
G1 X157.722 Y104.002 E19.98287
G1 X157.951 Y104.742 E20.00864
G1 X158.153 Y105.509 E20.03502
G1 X158.304 Y106.203 E20.05864
G1 X158.439 Y106.985 E20.08503
G1 X158.54 Y107.769 E20.11133
G1 X158.572 Y108.101 E20.12242
G1 X158.609 Y108.637 E20.14029
G1 X158.643 Y109.621 E20.17304
G1 X158.656 Y123.022 E20.61876
G1 X158.647 Y123.731 E20.64234
G1 X158.596 Y124.633 E20.67239
G1 X158.465 Y125.527 E20.70244
G1 X158.255 Y126.405 E20.73247
G1 X157.969 Y127.262 E20.76251
G1 X157.608 Y128.089 E20.79253
G1 X157.175 Y128.882 E20.82258
G1 X156.674 Y129.633 E20.8526
G1 X156.108 Y130.337 E20.88265
G1 X155.482 Y130.988 E20.91269
G1 X154.801 Y131.582 E20.94274
G1 X154.071 Y132.112 E20.97275
G1 X153.296 Y132.576 E21.00279
G1 X152.483 Y132.97 E21.03284
G1 X151.639 Y133.29 E21.06286
G1 X150.352 Y133.623 E21.10708
G1 X148.127 Y134.046 E21.18241
G1 X145.642 Y134.585 E21.26698
G1 X143.172 Y135.194 E21.35159
G1 X140.748 Y135.866 E21.43526
G1 X138.272 Y136.628 E21.52142
G1 X135.869 Y137.443 E21.60582
G1 X134.421 Y137.971 E21.65708
G1 X133.56 Y138.243 E21.68711
G1 X132.678 Y138.437 E21.71715
