;FLAVOR:Marlin
M73 P0
M73 R121
;TIME:7271
;Filament used: 4.77893m
;Layer height: 0.2
;MINX:63.98
;MINY:90.71
;MINZ:0.2
;MAXX:171.02
;MAXY:144.299
;MAXZ:15
;POSTPROCESSED
;Generated with Cura_SteamEngine 5.0.0
M140 S50
M105
M190 S50
M104 S215
M105
M109 S215
M82 ;absolute extrusion mode
; Ender 3 Custom Start G-code
G92 E0 ; Reset Extruder
G28 ; Home all axes
G1 Z2.0 F3000 ; Move Z Axis up little to prevent scratching of Heat Bed
G1 X0.1 Y20 Z0.3 F5000.0 ; Move to start position
G1 X0.1 Y200.0 Z0.3 F1500.0 E15 ; Draw the first line
G1 X0.4 Y200.0 Z0.3 F5000.0 ; Move to side a little
G1 X0.4 Y20 Z0.3 F1500.0 E30 ; Draw the second line
G92 E0 ; Reset Extruder
G1 Z2.0 F3000 ; Move Z Axis up little to prevent scratching of Heat Bed
G1 X5 Y20 Z0.3 F5000.0 ; Move over to prevent blob squish
G92 E0
G92 E0
G1 F2700 E-5
;LAYER_COUNT:75
;LAYER:0
M107
G0 F6000 X68.589 Y97.647 Z0.2
G0 X63.98 Y107.132
;TYPE:SKIRT
G1 F2700 E0
G1 F1200 X63.988 Y106.463 E0.02225
G1 X64.039 Y105.527 E0.05343
G1 X64.17 Y104.598 E0.08463
G1 X64.379 Y103.684 E0.11582
G1 X64.666 Y102.791 E0.14702
G1 X65.027 Y101.926 E0.17819
G1 X65.461 Y101.094 E0.2094
G1 X65.964 Y100.303 E0.24058
G1 X66.533 Y99.557 E0.27179
G1 X67.163 Y98.863 E0.30296
G1 X67.85 Y98.224 E0.33417
G1 X68.589 Y97.647 E0.36535
G1 X69.375 Y97.134 E0.39657
G1 X70.201 Y96.691 E0.42774
G1 X71.062 Y96.319 E0.45894
G1 X71.952 Y96.022 E0.49014
G1 X72.864 Y95.802 E0.52135
G1 X73.791 Y95.66 E0.55254
G1 X74.641 Y95.6 E0.58088
G1 X75.315 Y95.584 E0.6033
G1 X86.308 Y95.562 E0.96893
G1 X88.951 Y95.519 E1.05685
G1 X91.446 Y95.408 E1.13992
G1 X93.96 Y95.225 E1.22376
G1 X96.464 Y94.972 E1.30746
G1 X98.941 Y94.649 E1.39055
G1 X101.463 Y94.248 E1.47548
G1 X103.915 Y93.788 E1.55846
G1 X106.393 Y93.249 E1.6428
G1 X108.782 Y92.659 E1.72465
G1 X111.268 Y91.969 E1.81046
G1 X113.7 Y91.224 E1.89506
G1 X114.606 Y90.982 E1.92625
G1 X115.529 Y90.818 E1.95743
G1 X116.797 Y90.722 E1.99972
G1 X117.87 Y90.71 E2.03541
G1 X118.311 Y90.718 E2.05008
G1 X119.247 Y90.775 E2.08127
G1 X120.175 Y90.911 E2.11247
G1 X121.33 Y91.197 E2.15204
G1 X122.394 Y91.522 E2.18905
G1 X124.846 Y92.236 E2.27399
G1 X127.294 Y92.874 E2.35813
G1 X129.72 Y93.432 E2.44092
G1 X132.243 Y93.939 E2.52652
G1 X134.676 Y94.357 E2.60863
G1 X137.19 Y94.715 E2.69308
G1 X139.67 Y94.997 E2.7761
G1 X142.194 Y95.213 E2.86036
G1 X144.713 Y95.357 E2.94428
G1 X147.218 Y95.429 E3.02763
G1 X148.75 Y95.438 E3.07858
G1 X159.431 Y95.417 E3.43383
G1 X160.1 Y95.425 E3.45609
G1 X161.036 Y95.476 E3.48726
G1 X161.965 Y95.607 E3.51847
G1 X162.879 Y95.816 E3.54965
G1 X163.772 Y96.103 E3.58085
G1 X164.637 Y96.464 E3.61203
G1 X165.469 Y96.898 E3.64324
G1 X166.26 Y97.401 E3.67441
G1 X167.006 Y97.97 E3.70562
G1 X167.7 Y98.6 E3.7368
G1 X168.339 Y99.287 E3.768
G1 X168.916 Y100.026 E3.79919
G1 X169.429 Y100.812 E3.8304
G1 X169.872 Y101.638 E3.86158
G1 X170.244 Y102.499 E3.89277
G1 X170.541 Y103.389 E3.92398
G1 X170.761 Y104.301 E3.95518
G1 X170.903 Y105.228 E3.98637
G1 X170.963 Y106.078 E4.01472
G1 X170.979 Y106.752 E4.03714
G1 X171.02 Y127.817 E4.73777
G1 X171.011 Y128.542 E4.76188
G1 X170.96 Y129.478 E4.79306
G1 X170.828 Y130.407 E4.82427
G1 X170.619 Y131.321 E4.85545
G1 X170.332 Y132.214 E4.88665
G1 X169.97 Y133.079 E4.91784
G1 X169.535 Y133.91 E4.94903
G1 X169.032 Y134.701 E4.98021
G1 X168.463 Y135.447 E5.01142
G1 X167.832 Y136.141 E5.04261
G1 X167.145 Y136.779 E5.0738
G1 X166.405 Y137.356 E5.10501
G1 X165.62 Y137.868 E5.13618
G1 X164.793 Y138.312 E5.1674
G1 X163.932 Y138.683 E5.19858
G1 X163.042 Y138.979 E5.22978
G1 X162.13 Y139.199 E5.26098
G1 X161.203 Y139.34 E5.29217
G1 X160.361 Y139.399 E5.32024
G1 X159.687 Y139.416 E5.34267
G1 X144.24 Y139.447 E5.85644
G1 X141.597 Y139.49 E5.94435
G1 X139.098 Y139.601 E6.02755
G1 X136.592 Y139.783 E6.11112
G1 X134.082 Y140.038 E6.19504
G1 X131.607 Y140.36 E6.27805
G1 X129.085 Y140.761 E6.36298
G1 X126.62 Y141.223 E6.4464
G1 X124.18 Y141.752 E6.52944
G1 X121.731 Y142.359 E6.61336
G1 X119.313 Y143.031 E6.69683
G1 X117.63 Y143.54 E6.75531
G1 X116.837 Y143.788 E6.78294
G1 X115.931 Y144.029 E6.81413
G1 X115.007 Y144.193 E6.84534
G1 X113.749 Y144.287 E6.8873
G1 X112.677 Y144.299 E6.92295
G1 X112.236 Y144.291 E6.93762
G1 X111.3 Y144.234 E6.96881
G1 X110.372 Y144.098 E7.00001
G1 X109.22 Y143.812 E7.03949
G1 X108.215 Y143.505 E7.07444
G1 X105.7 Y142.773 E7.16156
G1 X103.259 Y142.137 E7.24546
G1 X100.819 Y141.575 E7.32874
G1 X98.304 Y141.07 E7.41405
G1 X95.871 Y140.652 E7.49616
G1 X93.357 Y140.294 E7.58062
G1 X90.877 Y140.012 E7.66364
G1 X88.353 Y139.796 E7.74789
G1 X85.834 Y139.652 E7.83181
G1 X83.329 Y139.58 E7.91516
G1 X81.796 Y139.571 E7.96615
G1 X75.568 Y139.583 E8.1733
G1 X74.9 Y139.575 E8.19552
G1 X73.964 Y139.524 E8.22669
G1 X73.035 Y139.393 E8.2579
G1 X72.121 Y139.184 E8.28908
G1 X71.228 Y138.897 E8.32028
G1 X70.363 Y138.536 E8.35146
G1 X69.531 Y138.102 E8.38267
G1 X68.74 Y137.599 E8.41384
G1 X67.994 Y137.03 E8.44505
G1 X67.299 Y136.399 E8.47627
G1 X66.661 Y135.712 E8.50745
G1 X66.084 Y134.973 E8.53864
G1 X65.571 Y134.188 E8.56983
G1 X65.128 Y133.362 E8.601
G1 X64.756 Y132.5 E8.63223
G1 X64.459 Y131.611 E8.6634
G1 X64.239 Y130.699 E8.69461
G1 X64.097 Y129.772 E8.7258
G1 X64.036 Y128.868 E8.75593
G1 X64.021 Y128.184 E8.77869
G1 X63.98 Y107.132 E9.47888
G0 F6000 X64.38 Y107.137
G1 F1200 X64.388 Y106.468 E9.50114
G1 X64.439 Y105.549 E9.53175
G1 X64.569 Y104.638 E9.56236
G1 X64.778 Y103.741 E9.59299
G1 X65.065 Y102.866 E9.62362
G1 X65.426 Y102.019 E9.65424
G1 X65.859 Y101.207 E9.68485
G1 X66.361 Y100.435 E9.71548
G1 X66.928 Y99.71 E9.74609
G1 X67.556 Y99.036 E9.77673
G1 X68.239 Y98.42 E9.80732
G1 X68.974 Y97.865 E9.83795
G1 X69.754 Y97.377 E9.86855
G1 X70.574 Y96.957 E9.8992
G1 X71.427 Y96.611 E9.92981
G1 X72.307 Y96.339 E9.96045
G1 X73.207 Y96.146 E9.99106
G1 X74.12 Y96.03 E10.02167
G1 X74.654 Y96 E10.03946
G1 X75.316 Y95.984 E10.06149
G1 X86.316 Y95.962 E10.42735
G1 X88.976 Y95.919 E10.51583
G1 X91.457 Y95.808 E10.59843
G1 X93.993 Y95.624 E10.683
G1 X96.519 Y95.368 E10.76745
G1 X98.989 Y95.047 E10.85029
G1 X101.528 Y94.643 E10.9358
G1 X104.002 Y94.179 E11.01952
G1 X106.461 Y93.644 E11.10322
G1 X108.92 Y93.037 E11.18746
G1 X111.364 Y92.358 E11.27183
G1 X113.82 Y91.606 E11.35726
G1 X114.709 Y91.368 E11.38787
G1 X115.616 Y91.21 E11.41849
G1 X116.804 Y91.122 E11.45811
G1 X117.862 Y91.11 E11.4933
G1 X118.303 Y91.118 E11.50797
G1 X119.222 Y91.174 E11.5386
G1 X120.133 Y91.311 E11.56924
G1 X121.213 Y91.58 E11.60626
G1 X122.227 Y91.89 E11.64152
G1 X124.748 Y92.624 E11.72885
G1 X127.175 Y93.256 E11.81227
G1 X129.656 Y93.827 E11.89694
G1 X132.161 Y94.33 E11.98192
G1 X134.629 Y94.754 E12.06521
G1 X137.124 Y95.11 E12.14904
G1 X139.658 Y95.398 E12.23386
G1 X142.138 Y95.61 E12.31665
G1 X144.678 Y95.755 E12.40126
G1 X147.249 Y95.829 E12.48681
G1 X148.748 Y95.838 E12.53667
G1 X159.426 Y95.817 E12.89182
G1 X160.095 Y95.825 E12.91407
G1 X161.014 Y95.876 E12.94469
G1 X161.925 Y96.006 E12.97529
G1 X162.822 Y96.215 E13.00593
G1 X163.697 Y96.502 E13.03656
G1 X164.544 Y96.863 E13.06718
G1 X165.356 Y97.296 E13.09779
G1 X166.128 Y97.798 E13.12841
G1 X166.853 Y98.365 E13.15903
G1 X167.527 Y98.993 E13.18967
G1 X168.143 Y99.676 E13.22026
G1 X168.698 Y100.411 E13.25089
G1 X169.186 Y101.191 E13.28149
G1 X169.606 Y102.011 E13.31214
G1 X169.952 Y102.864 E13.34275
G1 X170.224 Y103.744 E13.37339
G1 X170.417 Y104.644 E13.404
G1 X170.533 Y105.557 E13.43461
G1 X170.563 Y106.091 E13.4524
G1 X170.579 Y106.753 E13.47443
G1 X170.62 Y127.812 E14.17485
G1 X170.611 Y128.537 E14.19897
G1 X170.56 Y129.456 E14.22958
G1 X170.429 Y130.367 E14.26019
G1 X170.219 Y131.264 E14.29083
G1 X169.933 Y132.138 E14.32142
G1 X169.571 Y132.985 E14.35206
G1 X169.138 Y133.797 E14.38266
G1 X168.636 Y134.569 E14.41329
G1 X168.068 Y135.294 E14.44392
G1 X167.44 Y135.967 E14.47454
G1 X166.756 Y136.583 E14.50516
G1 X166.021 Y137.137 E14.53577
G1 X165.24 Y137.626 E14.56642
G1 X164.42 Y138.045 E14.59704
G1 X163.567 Y138.391 E14.62766
G1 X162.687 Y138.662 E14.65828
G1 X161.787 Y138.855 E14.6889
G1 X160.874 Y138.97 E14.71951
G1 X160.348 Y139 E14.73703
G1 X159.686 Y139.016 E14.75905
G1 X144.232 Y139.047 E15.27306
G1 X141.572 Y139.09 E15.36154
G1 X139.088 Y139.201 E15.44424
G1 X136.559 Y139.385 E15.52858
G1 X134.022 Y139.642 E15.61339
G1 X131.563 Y139.962 E15.69587
G1 X129.02 Y140.366 E15.78151
G1 X126.532 Y140.833 E15.86571
G1 X124.104 Y141.359 E15.94833
G1 X121.633 Y141.971 E16.033
G1 X119.177 Y142.654 E16.11779
G1 X117.52 Y143.155 E16.17537
G1 X116.718 Y143.406 E16.20332
G1 X115.828 Y143.642 E16.23394
G1 X114.921 Y143.8 E16.26456
G1 X113.742 Y143.887 E16.30388
G1 X112.685 Y143.899 E16.33904
G1 X112.244 Y143.891 E16.35371
G1 X111.325 Y143.835 E16.38433
G1 X110.414 Y143.698 E16.41497
G1 X109.337 Y143.43 E16.45189
G1 X108.315 Y143.118 E16.48743
G1 X105.798 Y142.385 E16.57462
G1 X103.345 Y141.746 E16.65893
G1 X100.916 Y141.187 E16.74183
G1 X98.386 Y140.679 E16.82766
G1 X95.918 Y140.255 E16.91095
G1 X93.423 Y139.899 E16.99477
G1 X90.889 Y139.611 E17.0796
G1 X88.409 Y139.399 E17.16238
G1 X85.869 Y139.254 E17.247
G1 X83.298 Y139.18 E17.33255
G1 X81.798 Y139.171 E17.38244
G1 X75.573 Y139.183 E17.58948
G1 X74.905 Y139.175 E17.6117
G1 X73.986 Y139.124 E17.64232
G1 X73.074 Y138.994 E17.67296
G1 X72.178 Y138.785 E17.70356
G1 X71.303 Y138.498 E17.73419
G1 X70.456 Y138.137 E17.76481
G1 X69.644 Y137.704 E17.79542
G1 X68.872 Y137.202 E17.82604
G1 X68.147 Y136.635 E17.85666
G1 X67.473 Y136.007 E17.8873
G1 X66.857 Y135.323 E17.91791
G1 X66.302 Y134.589 E17.94852
G1 X65.813 Y133.808 E17.97917
G1 X65.394 Y132.989 E18.00976
G1 X65.048 Y132.136 E18.04038
G1 X64.776 Y131.256 E18.07102
G1 X64.583 Y130.356 E18.10163
G1 X64.467 Y129.443 E18.13224
G1 X64.436 Y128.858 E18.15173
G1 X64.421 Y128.183 E18.17418
G1 X64.38 Y107.137 E18.87418
G0 F6000 X64.78 Y107.142
G1 F1200 X64.788 Y106.473 E18.89643
G1 X64.838 Y105.571 E18.92647
G1 X64.969 Y104.678 E18.95649
G1 X65.178 Y103.799 E18.98654
G1 X65.463 Y102.942 E19.01658
G1 X65.824 Y102.114 E19.04663
G1 X66.256 Y101.321 E19.07666
G1 X66.757 Y100.57 E19.10669
G1 X67.322 Y99.865 E19.13674
G1 X67.947 Y99.214 E19.16675
G1 X68.628 Y98.62 E19.19681
G1 X69.358 Y98.089 E19.22683
G1 X70.133 Y97.624 E19.25689
G1 X70.945 Y97.23 E19.28691
G1 X71.789 Y96.909 E19.31695
G1 X72.659 Y96.664 E19.34701
G1 X73.546 Y96.497 E19.37703
G1 X74.667 Y96.4 E19.41445
G1 X75.317 Y96.384 E19.43608
G1 X86.323 Y96.362 E19.80214
G1 X88.965 Y96.319 E19.89002
G1 X91.503 Y96.206 E19.97452
G1 X94.03 Y96.022 E20.05879
G1 X96.541 Y95.768 E20.14273
G1 X99.067 Y95.439 E20.22746
G1 X101.593 Y95.038 E20.31253
G1 X104.089 Y94.569 E20.397
G1 X106.57 Y94.03 E20.48144
G1 X108.985 Y93.433 E20.56418
G1 X111.5 Y92.735 E20.65099
G1 X113.939 Y91.987 E20.73584
G1 X114.812 Y91.755 E20.76589
G1 X115.702 Y91.602 E20.79592
G1 X116.811 Y91.522 E20.8329
G1 X117.855 Y91.51 E20.86763
G1 X118.296 Y91.518 E20.8823
G1 X119.197 Y91.574 E20.91232
G1 X120.09 Y91.71 E20.94237
G1 X121.096 Y91.962 E20.97686
G1 X122.146 Y92.283 E21.01338
G1 X124.64 Y93.009 E21.09977
G1 X127.09 Y93.647 E21.18398
G1 X129.559 Y94.216 E21.26825
G1 X132.086 Y94.723 E21.35397
G1 X134.571 Y95.15 E21.43784
G1 X137.094 Y95.509 E21.5226
G1 X139.58 Y95.792 E21.60582
G1 X142.15 Y96.012 E21.69161
G1 X144.646 Y96.155 E21.77476
G1 X147.235 Y96.229 E21.86091
G1 X148.747 Y96.238 E21.9112
G1 X159.421 Y96.217 E22.26622
G1 X160.09 Y96.225 E22.28847
G1 X160.992 Y96.275 E22.31852
G1 X161.885 Y96.406 E22.34853
G1 X162.764 Y96.615 E22.37859
G1 X163.621 Y96.9 E22.40862
G1 X164.449 Y97.261 E22.43867
G1 X165.242 Y97.693 E22.4687
G1 X165.993 Y98.194 E22.49873
G1 X166.698 Y98.759 E22.52878
G1 X167.349 Y99.384 E22.55879
G1 X167.943 Y100.065 E22.58885
G1 X168.474 Y100.795 E22.61887
G1 X168.939 Y101.57 E22.64893
G1 X169.333 Y102.382 E22.67895
G1 X169.654 Y103.226 E22.70899
G1 X169.899 Y104.096 E22.73905
G1 X170.066 Y104.983 E22.76907
G1 X170.163 Y106.104 E22.80649
G1 X170.179 Y106.754 E22.82812
G1 X170.22 Y127.807 E23.52834
G1 X170.211 Y128.532 E23.55246
G1 X170.16 Y129.433 E23.58248
G1 X170.029 Y130.327 E23.61253
G1 X169.82 Y131.205 E23.64255
G1 X169.534 Y132.062 E23.6726
G1 X169.173 Y132.89 E23.70264
G1 X168.741 Y133.683 E23.73267
G1 X168.239 Y134.434 E23.76272
G1 X167.674 Y135.138 E23.79274
G1 X167.048 Y135.789 E23.82278
G1 X166.368 Y136.383 E23.85281
G1 X165.637 Y136.914 E23.88286
G1 X164.862 Y137.378 E23.91291
G1 X164.05 Y137.772 E23.94292
G1 X163.205 Y138.092 E23.97298
G1 X162.336 Y138.337 E24.00301
G1 X161.448 Y138.503 E24.03305
G1 X160.335 Y138.6 E24.07021
G1 X159.685 Y138.616 E24.09184
G1 X144.225 Y138.647 E24.60604
G1 X141.583 Y138.69 E24.69392
G1 X139.041 Y138.803 E24.77856
G1 X136.526 Y138.986 E24.86243
G1 X134.002 Y139.242 E24.94681
G1 X131.481 Y139.57 E25.03136
G1 X128.955 Y139.971 E25.11643
G1 X126.445 Y140.442 E25.20137
G1 X124.028 Y140.966 E25.28363
G1 X121.535 Y141.584 E25.36905
G1 X119.04 Y142.277 E25.45518
G1 X117.365 Y142.784 E25.51339
G1 X116.598 Y143.024 E25.54012
G1 X115.725 Y143.255 E25.57015
G1 X114.835 Y143.408 E25.60019
G1 X113.735 Y143.487 E25.63687
G1 X112.692 Y143.499 E25.67156
G1 X112.251 Y143.491 E25.68623
G1 X111.35 Y143.435 E25.71625
G1 X110.457 Y143.299 E25.7463
G1 X109.454 Y143.047 E25.7807
G1 X108.463 Y142.744 E25.81516
G1 X105.906 Y142 E25.90374
G1 X103.464 Y141.364 E25.98767
G1 X100.979 Y140.792 E26.07248
G1 X98.461 Y140.286 E26.1579
G1 X95.976 Y139.859 E26.24176
G1 X93.453 Y139.5 E26.32653
G1 X90.967 Y139.217 E26.40974
G1 X88.397 Y138.997 E26.49554
G1 X85.901 Y138.854 E26.57869
G1 X83.312 Y138.78 E26.66483
G1 X81.8 Y138.771 E26.71512
G1 X75.578 Y138.783 E26.92207
G1 X74.91 Y138.775 E26.94429
G1 X74.008 Y138.724 E26.97434
G1 X73.115 Y138.594 E27.00435
G1 X72.236 Y138.385 E27.0344
G1 X71.379 Y138.1 E27.06444
G1 X70.551 Y137.739 E27.09448
G1 X69.758 Y137.307 E27.12452
G1 X69.007 Y136.806 E27.15455
G1 X68.302 Y136.241 E27.1846
G1 X67.651 Y135.616 E27.21461
G1 X67.057 Y134.935 E27.24467
G1 X66.526 Y134.205 E27.27469
G1 X66.061 Y133.43 E27.30475
G1 X65.667 Y132.618 E27.33477
G1 X65.346 Y131.774 E27.3648
G1 X65.101 Y130.904 E27.39486
G1 X64.934 Y130.017 E27.42488
G1 X64.836 Y128.847 E27.46394
G1 X64.821 Y128.182 E27.48606
G1 X64.78 Y107.142 E28.18585
G1 F2700 E23.18585
G0 F6000 X96.912 Y114.971
G1 F2700 E28.18585
G1 F1200 X97.111 Y114.876 E28.19319
G1 X96.983 Y115.384 E28.21061
G1 X96.912 Y114.971 E28.22455
G0 F6000 X96.407 Y114.695
G1 F1200 X96.637 Y114.654 E28.23232
G1 X97.055 Y114.446 E28.24785
G1 X97.172 Y114.361 E28.25266
G1 X97.35 Y114.361 E28.25858
G1 X97.5 Y114.469 E28.26473
G1 X97.571 Y114.689 E28.27242
G1 X97.316 Y115.697 E28.307
G1 X97.037 Y116.555 E28.33701
G1 X96.972 Y116.882 E28.3481
G1 X96.98 Y117.172 E28.35774
G1 X97.245 Y119.175 E28.42495
G1 X97.295 Y119.404 E28.43274
G1 X97.611 Y120.428 E28.46838
G1 X97.553 Y120.61 E28.47474
G1 X97.403 Y120.718 E28.48089
G1 X97.225 Y120.718 E28.48681
G1 X96.806 Y120.464 E28.5031
G1 X96.619 Y120.412 E28.50956
G1 X96.769 Y120.049 E28.52262
G1 X96.808 Y119.718 E28.53371
G1 X96.787 Y119.478 E28.54172
G1 X96.469 Y117.68 E28.60245
G1 X96.689 Y117.001 E28.62619
G1 X96.753 Y116.673 E28.6373
G1 X96.738 Y116.337 E28.64849
G1 X96.521 Y115.048 E28.69197
G1 X96.426 Y114.727 E28.7031
G1 X96.407 Y114.695 E28.70434
G1 F2700 E23.70434
G0 F6000 X93.782 Y121.037
G1 F2700 E28.70434
G1 F1200 X93.822 Y120.915 E28.70861
G1 X93.929 Y120.837 E28.71301
G1 X95.135 Y120.832 E28.75312
G1 X95.5 Y120.761 E28.76549
G1 X95.777 Y120.651 E28.77541
G1 X96.022 Y120.511 E28.78479
G1 X96.218 Y120.308 E28.79418
G1 X96.35 Y120.059 E28.80355
G1 X96.406 Y119.782 E28.81295
G1 X96.393 Y119.548 E28.82074
G1 X96.057 Y117.651 E28.88482
