;FLAVOR:Marlin
M73 P0
M73 R125
;TIME:7498
;Filament used: 4.82116m
;Layer height: 0.2
;MINX:71.006
;MINY:54.232
;MINZ:0.2
;MAXX:163.006
;MAXY:107.698
;MAXZ:27.6
;POSTPROCESSED
;Generated with Cura_SteamEngine 5.0.0
M140 S50
M105
M190 S50
M104 S215
M105
M109 S215
M82 ;absolute extrusion mode
; Ender 3 Custom Start G-code
G92 E0 ; Reset Extruder
G28 ; Home all axes
G1 Z2.0 F3000 ; Move Z Axis up little to prevent scratching of Heat Bed
G1 X0.1 Y20 Z0.3 F5000.0 ; Move to start position
G1 X0.1 Y200.0 Z0.3 F1500.0 E15 ; Draw the first line
G1 X0.4 Y200.0 Z0.3 F5000.0 ; Move to side a little
G1 X0.4 Y20 Z0.3 F1500.0 E30 ; Draw the second line
G92 E0 ; Reset Extruder
G1 Z2.0 F3000 ; Move Z Axis up little to prevent scratching of Heat Bed
G1 X5 Y20 Z0.3 F5000.0 ; Move over to prevent blob squish
G92 E0
G92 E0
G1 F2700 E-5
;LAYER_COUNT:138
;LAYER:0
M107
G0 F6000 X75.642 Y65.685 Z0.2
G0 X71.008 Y78.223
;TYPE:SKIRT
G1 F2700 E0
G1 F1200 X71.022 Y77.459 E0.02542
G1 X71.061 Y76.709 E0.05039
G1 X71.133 Y75.88 E0.07807
G1 X71.263 Y74.899 E0.11098
G1 X71.341 Y74.462 E0.12575
G1 X71.543 Y73.556 E0.15662
G1 X71.769 Y72.71 E0.18575
G1 X72.085 Y71.717 E0.22041
G1 X72.253 Y71.265 E0.23644
G1 X72.59 Y70.457 E0.26556
G1 X72.931 Y69.724 E0.29245
G1 X73.367 Y68.885 E0.3239
G1 X73.705 Y68.318 E0.34585
G1 X74.144 Y67.628 E0.37305
G1 X74.657 Y66.891 E0.40292
G1 X75.11 Y66.317 E0.42724
G1 X75.642 Y65.685 E0.45472
G1 X76.211 Y65.059 E0.48285
G1 X76.772 Y64.503 E0.50912
G1 X77.018 Y64.273 E0.52033
G1 X77.498 Y63.849 E0.54163
G1 X77.836 Y63.568 E0.55625
G1 X78.555 Y63.019 E0.58634
G1 X79.267 Y62.52 E0.61525
G1 X80.158 Y61.956 E0.65033
G1 X80.617 Y61.703 E0.66776
G1 X82.061 Y60.954 E0.72186
G1 X83.27 Y60.354 E0.76675
G1 X85.462 Y59.191 E0.84929
G1 X87.673 Y57.934 E0.93388
G1 X89.962 Y56.548 E1.02288
G1 X90.962 Y55.922 E1.06212
G1 X91.777 Y55.458 E1.09331
G1 X92.629 Y55.066 E1.1245
G1 X93.511 Y54.748 E1.15569
G1 X94.417 Y54.506 E1.18688
G1 X95.341 Y54.342 E1.21809
G1 X96.609 Y54.247 E1.26038
G1 X97.775 Y54.232 E1.29917
G1 X98.379 Y54.241 E1.31926
G1 X99.466 Y54.311 E1.35549
G1 X102.391 Y54.646 E1.45341
G1 X104.918 Y54.86 E1.53776
G1 X107.381 Y55 E1.61981
G1 X109.931 Y55.071 E1.70466
G1 X112.456 Y55.071 E1.78864
G1 X114.951 Y54.999 E1.87166
G1 X117.444 Y54.858 E1.95471
G1 X118.552 Y54.762 E1.9917
G1 X119.846 Y54.662 E2.03486
G1 X120.504 Y54.631 E2.05677
G1 X121.592 Y54.617 E2.09296
G1 X122.21 Y54.626 E2.11352
G1 X124.889 Y54.702 E2.20266
G1 X127.376 Y54.702 E2.28538
G1 X129.934 Y54.63 E2.37049
G1 X132.392 Y54.49 E2.45238
G1 X133.614 Y54.382 E2.49318
G1 X134.918 Y54.28 E2.53668
G1 X135.578 Y54.249 E2.55866
G1 X136.787 Y54.233 E2.59887
G1 X137.279 Y54.241 E2.61524
G1 X138.215 Y54.297 E2.64643
G1 X139.143 Y54.431 E2.67761
G1 X140.057 Y54.645 E2.70883
G1 X140.948 Y54.935 E2.74
G1 X141.812 Y55.3 E2.7712
G1 X142.906 Y55.897 E2.81265
G1 X144.091 Y56.634 E2.85906
G1 X146.349 Y57.984 E2.94656
G1 X148.525 Y59.202 E3.0295
G1 X150.744 Y60.364 E3.11281
G1 X152.448 Y61.21 E3.17609
G1 X153.433 Y61.723 E3.21303
G1 X154.193 Y62.157 E3.24214
G1 X154.749 Y62.522 E3.26426
G1 X155.476 Y63.031 E3.29378
G1 X156.194 Y63.579 E3.32382
G1 X156.757 Y64.058 E3.3484
G1 X157.011 Y64.287 E3.35978
G1 X157.458 Y64.714 E3.38034
G1 X157.792 Y65.051 E3.39612
G1 X158.415 Y65.735 E3.42689
G1 X158.948 Y66.372 E3.45452
G1 X159.477 Y67.057 E3.4833
G1 X159.879 Y67.647 E3.50705
G1 X160.32 Y68.339 E3.53434
G1 X160.759 Y69.092 E3.56333
G1 X161.1 Y69.769 E3.58854
G1 X161.451 Y70.526 E3.6163
G1 X161.827 Y71.442 E3.64923
G1 X161.975 Y71.855 E3.66382
G1 X162.248 Y72.728 E3.69424
G1 X162.471 Y73.563 E3.72299
G1 X162.684 Y74.54 E3.75625
G1 X162.764 Y75.006 E3.77197
G1 X162.881 Y75.908 E3.80223
G1 X162.955 Y76.754 E3.83047
G1 X162.996 Y77.578 E3.85791
G1 X163.006 Y78.449 E3.88688
G1 X163.005 Y91.308 E4.31457
G1 X162.996 Y92.035 E4.33876
G1 X162.945 Y92.972 E4.36997
G1 X162.813 Y93.9 E4.40114
G1 X162.604 Y94.814 E4.43233
G1 X162.317 Y95.707 E4.46353
G1 X161.955 Y96.573 E4.49474
G1 X161.521 Y97.404 E4.52593
G1 X161.017 Y98.195 E4.55712
G1 X160.448 Y98.94 E4.5883
G1 X159.817 Y99.635 E4.61952
G1 X159.13 Y100.273 E4.65071
G1 X158.391 Y100.85 E4.68189
G1 X157.605 Y101.362 E4.71309
G1 X156.779 Y101.805 E4.74426
G1 X155.917 Y102.177 E4.77549
G1 X155.028 Y102.473 E4.80665
G1 X154.116 Y102.693 E4.83786
G1 X153.189 Y102.834 E4.86904
G1 X152.305 Y102.895 E4.89852
G1 X151.676 Y102.908 E4.91944
G1 X148.05 Y102.908 E5.04004
G1 X145.442 Y102.945 E5.12679
G1 X142.921 Y103.052 E5.21072
G1 X140.426 Y103.229 E5.29391
G1 X137.926 Y103.477 E5.37747
G1 X135.433 Y103.796 E5.46106
G1 X132.94 Y104.187 E5.54499
G1 X130.45 Y104.65 E5.62923
G1 X127.986 Y105.18 E5.71306
G1 X125.584 Y105.769 E5.79532
G1 X123.125 Y106.445 E5.88014
G1 X120.701 Y107.184 E5.96442
G1 X119.795 Y107.426 E5.99561
G1 X118.872 Y107.59 E6.02679
G1 X117.604 Y107.686 E6.06909
G1 X116.532 Y107.698 E6.10474
G1 X116.089 Y107.69 E6.11948
G1 X115.153 Y107.633 E6.15067
G1 X114.225 Y107.497 E6.18187
G1 X113.072 Y107.211 E6.22138
G1 X111.839 Y106.834 E6.26426
G1 X109.348 Y106.11 E6.35054
G1 X106.89 Y105.47 E6.43502
G1 X104.448 Y104.907 E6.51837
G1 X101.959 Y104.409 E6.6028
G1 X99.489 Y103.985 E6.68615
G1 X96.99 Y103.629 E6.77011
G1 X94.5 Y103.346 E6.85346
G1 X91.994 Y103.132 E6.93711
G1 X89.477 Y102.99 E7.02096
G1 X86.961 Y102.917 E7.10468
G1 X85.618 Y102.908 E7.14935
G1 X82.713 Y102.908 E7.24597
G1 X81.857 Y102.897 E7.27444
G1 X80.921 Y102.843 E7.30562
G1 X79.993 Y102.711 E7.3368
G1 X79.079 Y102.499 E7.36801
G1 X78.187 Y102.21 E7.39919
G1 X77.322 Y101.847 E7.43039
G1 X76.492 Y101.411 E7.46158
G1 X75.701 Y100.906 E7.49279
G1 X74.957 Y100.335 E7.52398
G1 X74.264 Y99.703 E7.55518
G1 X73.627 Y99.015 E7.58636
G1 X73.052 Y98.274 E7.61756
G1 X72.541 Y97.488 E7.64874
G1 X72.099 Y96.66 E7.67996
G1 X71.73 Y95.798 E7.71114
G1 X71.435 Y94.908 E7.74233
G1 X71.217 Y93.996 E7.77352
G1 X71.077 Y93.068 E7.80473
G1 X71.019 Y92.196 E7.8338
G1 X71.006 Y91.566 E7.85476
G1 X71.008 Y78.223 E8.29855
G0 F6000 X71.408 Y78.231
G1 F1200 X71.422 Y77.467 E8.32396
G1 X71.46 Y76.744 E8.34804
G1 X71.532 Y75.915 E8.37572
G1 X71.657 Y74.969 E8.40746
G1 X71.735 Y74.532 E8.42222
G1 X71.929 Y73.659 E8.45197
G1 X72.155 Y72.813 E8.48109
G1 X72.46 Y71.856 E8.5145
G1 X72.628 Y71.404 E8.53054
G1 X72.953 Y70.626 E8.55858
G1 X73.294 Y69.893 E8.58547
G1 X73.714 Y69.084 E8.61579
G1 X74.043 Y68.533 E8.63713
G1 X74.482 Y67.843 E8.66433
G1 X74.976 Y67.132 E8.69313
G1 X75.416 Y66.575 E8.71674
G1 X75.948 Y65.943 E8.74421
G1 X76.496 Y65.339 E8.77134
G1 X77.045 Y64.795 E8.79704
G1 X77.291 Y64.565 E8.80824
G1 X77.754 Y64.157 E8.82877
G1 X78.092 Y63.876 E8.84339
G1 X78.784 Y63.347 E8.87236
G1 X79.496 Y62.848 E8.90128
G1 X80.359 Y62.302 E8.93524
G1 X80.802 Y62.058 E8.95207
G1 X82.239 Y61.312 E9.00592
G1 X83.442 Y60.715 E9.05058
G1 X85.683 Y59.526 E9.13496
G1 X87.873 Y58.282 E9.21873
G1 X90.146 Y56.905 E9.30712
G1 X91.174 Y56.261 E9.34747
G1 X91.975 Y55.807 E9.37809
G1 X92.812 Y55.423 E9.40872
G1 X93.679 Y55.115 E9.43932
G1 X94.57 Y54.882 E9.46996
G1 X95.477 Y54.728 E9.50055
G1 X96.616 Y54.647 E9.53853
G1 X97.769 Y54.632 E9.57689
G1 X98.373 Y54.641 E9.59698
G1 X99.421 Y54.709 E9.63191
G1 X102.348 Y55.044 E9.72989
G1 X104.86 Y55.257 E9.81374
G1 X107.383 Y55.4 E9.89779
G1 X109.92 Y55.471 E9.98221
G1 X112.432 Y55.471 E10.06576
G1 X114.984 Y55.398 E10.15067
G1 X117.47 Y55.257 E10.23349
G1 X118.583 Y55.161 E10.27065
G1 X119.877 Y55.061 E10.31381
G1 X120.511 Y55.031 E10.33492
G1 X121.587 Y55.017 E10.37071
G1 X122.199 Y55.026 E10.39107
G1 X124.878 Y55.102 E10.48021
G1 X127.387 Y55.102 E10.56366
G1 X129.932 Y55.03 E10.64834
G1 X132.418 Y54.889 E10.73116
G1 X133.645 Y54.781 E10.77213
G1 X134.949 Y54.679 E10.81563
G1 X135.585 Y54.649 E10.83681
G1 X136.78 Y54.633 E10.87656
G1 X137.272 Y54.641 E10.89292
G1 X138.191 Y54.696 E10.92354
G1 X139.102 Y54.831 E10.95418
G1 X139.998 Y55.044 E10.98481
G1 X140.872 Y55.334 E11.01543
G1 X141.717 Y55.698 E11.04604
G1 X142.695 Y56.237 E11.08318
G1 X143.923 Y57 E11.13126
G1 X146.112 Y58.31 E11.21611
G1 X148.323 Y59.547 E11.30038
G1 X150.595 Y60.737 E11.38568
G1 X152.263 Y61.565 E11.44762
G1 X153.248 Y62.078 E11.48456
G1 X153.984 Y62.498 E11.51274
G1 X154.52 Y62.85 E11.53407
G1 X155.247 Y63.359 E11.56359
G1 X155.939 Y63.887 E11.59254
G1 X156.489 Y64.355 E11.61656
G1 X156.743 Y64.584 E11.62793
G1 X157.174 Y64.995 E11.64774
G1 X157.508 Y65.332 E11.66352
G1 X158.109 Y65.992 E11.69321
G1 X158.642 Y66.629 E11.72083
G1 X159.151 Y67.289 E11.74856
G1 X159.542 Y67.862 E11.77163
G1 X159.983 Y68.554 E11.79892
G1 X160.406 Y69.28 E11.82687
G1 X160.738 Y69.937 E11.85135
G1 X161.089 Y70.694 E11.8791
G1 X161.451 Y71.577 E11.91084
G1 X161.599 Y71.99 E11.92544
G1 X161.861 Y72.831 E11.95473
G1 X162.084 Y73.666 E11.98348
G1 X162.29 Y74.607 E12.01552
G1 X162.37 Y75.073 E12.03124
G1 X162.483 Y75.943 E12.06042
G1 X162.557 Y76.789 E12.08867
G1 X162.596 Y77.583 E12.11511
G1 X162.606 Y78.449 E12.14391
G1 X162.605 Y91.303 E12.57144
G1 X162.596 Y92.03 E12.59562
G1 X162.545 Y92.949 E12.62624
G1 X162.414 Y93.861 E12.65688
G1 X162.204 Y94.757 E12.68749
G1 X161.918 Y95.632 E12.71811
G1 X161.557 Y96.479 E12.74873
G1 X161.123 Y97.291 E12.77935
G1 X160.621 Y98.063 E12.80998
G1 X160.053 Y98.788 E12.84061
G1 X159.425 Y99.461 E12.87123
G1 X158.741 Y100.077 E12.90185
G1 X158.006 Y100.631 E12.93246
G1 X157.226 Y101.12 E12.96308
G1 X156.406 Y101.539 E12.99371
G1 X155.553 Y101.885 E13.02432
G1 X154.673 Y102.156 E13.05495
G1 X153.773 Y102.349 E13.08556
G1 X152.859 Y102.464 E13.1162
G1 X152.294 Y102.495 E13.13502
G1 X151.676 Y102.508 E13.15558
G1 X148.044 Y102.508 E13.27638
G1 X145.419 Y102.545 E13.3637
G1 X142.911 Y102.652 E13.44719
G1 X140.391 Y102.83 E13.53121
G1 X137.876 Y103.079 E13.61527
G1 X135.387 Y103.398 E13.69873
G1 X132.835 Y103.799 E13.78466
G1 X130.404 Y104.251 E13.8669
G1 X127.912 Y104.787 E13.95168
G1 X125.455 Y105.389 E14.03581
G1 X123.018 Y106.06 E14.11988
G1 X120.582 Y106.802 E14.20458
G1 X119.692 Y107.039 E14.23521
G1 X118.785 Y107.198 E14.26584
G1 X117.597 Y107.286 E14.30546
G1 X116.54 Y107.298 E14.34062
G1 X116.097 Y107.29 E14.35536
G1 X115.178 Y107.234 E14.38598
G1 X114.267 Y107.098 E14.41662
G1 X113.189 Y106.829 E14.45357
G1 X111.92 Y106.441 E14.49771
G1 X109.456 Y105.725 E14.58305
G1 X106.983 Y105.081 E14.66804
G1 X104.537 Y104.517 E14.75153
G1 X102.034 Y104.016 E14.83644
G1 X99.542 Y103.589 E14.92053
G1 X97.056 Y103.234 E15.00405
G1 X94.55 Y102.949 E15.08794
G1 X92.013 Y102.733 E15.17262
G1 X89.51 Y102.591 E15.25601
G1 X86.928 Y102.517 E15.34192
G1 X85.621 Y102.508 E15.38539
G1 X82.713 Y102.508 E15.48211
G1 X81.863 Y102.497 E15.51039
G1 X80.944 Y102.444 E15.541
G1 X80.033 Y102.311 E15.57163
G1 X79.137 Y102.1 E15.60224
G1 X78.263 Y101.812 E15.63285
G1 X77.416 Y101.449 E15.6635
G1 X76.605 Y101.014 E15.69411
G1 X75.835 Y100.51 E15.72472
G1 X75.111 Y99.941 E15.75534
G1 X74.439 Y99.311 E15.78598
G1 X73.824 Y98.626 E15.8166
G1 X73.271 Y97.89 E15.84722
G1 X72.784 Y97.109 E15.87783
G1 X72.367 Y96.288 E15.90846
G1 X72.022 Y95.434 E15.93909
G1 X71.753 Y94.554 E15.9697
G1 X71.561 Y93.653 E16.00034
G1 X71.448 Y92.74 E16.03094
G1 X71.419 Y92.185 E16.04942
G1 X71.406 Y91.566 E16.07001
G1 X71.408 Y78.231 E16.51354
G0 F6000 X71.808 Y78.238
G1 F1200 X71.822 Y77.474 E16.53895
G1 X71.858 Y76.778 E16.56213
G1 X71.93 Y75.949 E16.58981
G1 X72.051 Y75.04 E16.62031
G1 X72.129 Y74.603 E16.63507
G1 X72.316 Y73.762 E16.66373
G1 X72.542 Y72.916 E16.69285
G1 X72.835 Y71.995 E16.725
G1 X73.003 Y71.543 E16.74104
G1 X73.316 Y70.795 E16.768
G1 X73.657 Y70.062 E16.79489
G1 X74.061 Y69.283 E16.82408
G1 X74.38 Y68.748 E16.8448
G1 X74.819 Y68.058 E16.872
G1 X75.295 Y67.374 E16.89971
G1 X75.722 Y66.832 E16.92266
G1 X76.254 Y66.2 E16.95014
G1 X76.782 Y65.62 E16.97623
G1 X77.318 Y65.087 E17.00137
G1 X77.564 Y64.857 E17.01257
G1 X78.009 Y64.465 E17.03229
G1 X78.347 Y64.184 E17.04691
G1 X79.014 Y63.674 E17.07484
G1 X79.726 Y63.175 E17.10376
G1 X80.56 Y62.648 E17.13657
G1 X80.987 Y62.413 E17.15278
G1 X82.417 Y61.671 E17.20637
G1 X83.629 Y61.07 E17.25136
G1 X85.847 Y59.893 E17.33488
G1 X88.071 Y58.629 E17.41996
G1 X90.359 Y57.243 E17.50893
G1 X91.386 Y56.6 E17.54923
G1 X92.172 Y56.155 E17.57927
G1 X92.994 Y55.781 E17.60931
G1 X93.846 Y55.482 E17.63934
G1 X94.721 Y55.259 E17.66937
G1 X95.613 Y55.114 E17.69943
G1 X96.623 Y55.047 E17.7331
G1 X97.763 Y55.032 E17.77102
G1 X98.367 Y55.041 E17.79111
G1 X99.375 Y55.106 E17.82471
G1 X102.299 Y55.441 E17.92259
G1 X104.842 Y55.656 E18.00748
G1 X107.383 Y55.8 E18.09213
G1 X109.909 Y55.871 E18.17617
G1 X112.444 Y55.871 E18.26049
G1 X114.983 Y55.798 E18.34497
G1 X117.527 Y55.654 E18.42972
G1 X118.614 Y55.559 E18.46601
G1 X119.908 Y55.459 E18.50918
G1 X120.518 Y55.431 E18.52949
G1 X121.581 Y55.417 E18.56485
G1 X122.187 Y55.426 E18.58501
G1 X124.866 Y55.502 E18.67415
G1 X127.398 Y55.502 E18.75836
G1 X129.932 Y55.43 E18.84268
G1 X132.475 Y55.286 E18.92739
G1 X133.677 Y55.18 E18.96753
G1 X134.981 Y55.078 E19.01103
G1 X135.592 Y55.049 E19.03137
G1 X136.774 Y55.033 E19.07069
G1 X137.266 Y55.041 E19.08706
G1 X138.167 Y55.096 E19.11708
G1 X139.06 Y55.23 E19.14711
G1 X139.938 Y55.443 E19.17716
G1 X140.794 Y55.732 E19.20721
G1 X141.62 Y56.096 E19.23724
G1 X142.484 Y56.577 E19.27012
G1 X143.687 Y57.325 E19.31724
G1 X145.933 Y58.668 E19.40428
G1 X148.12 Y59.892 E19.48764
G1 X150.411 Y61.092 E19.57366
G1 X152.079 Y61.919 E19.63558
G1 X153.064 Y62.432 E19.67252
G1 X153.775 Y62.839 E19.69976
G1 X154.29 Y63.177 E19.72025
G1 X155.017 Y63.686 E19.74977
G1 X155.683 Y64.195 E19.77765
G1 X156.221 Y64.652 E19.80113
G1 X156.475 Y64.881 E19.8125
G1 X156.89 Y65.277 E19.83158
G1 X157.224 Y65.614 E19.84736
G1 X157.802 Y66.248 E19.8759
G1 X158.335 Y66.885 E19.90352
G1 X158.916 Y67.649 E19.93545
G1 X159.205 Y68.077 E19.95262
G1 X159.646 Y68.769 E19.97992
G1 X160.053 Y69.467 E20.00679
G1 X160.375 Y70.105 E20.03056
G1 X160.726 Y70.862 E20.05831
G1 X161.074 Y71.712 E20.08886
G1 X161.222 Y72.125 E20.10345
G1 X161.475 Y72.934 E20.13164
G1 X161.698 Y73.769 E20.16039
G1 X161.896 Y74.675 E20.19124
G1 X161.976 Y75.141 E20.20696
G1 X162.084 Y75.978 E20.23503
G1 X162.158 Y76.824 E20.26328
G1 X162.196 Y77.588 E20.28872
G1 X162.206 Y78.449 E20.31736
G1 X162.205 Y91.298 E20.74472
G1 X162.196 Y92.025 E20.7689
G1 X162.145 Y92.927 E20.79895
G1 X162.014 Y93.821 E20.829
G1 X161.805 Y94.699 E20.85902
G1 X161.519 Y95.556 E20.88907
G1 X161.158 Y96.384 E20.91911
G1 X160.726 Y97.176 E20.94912
G1 X160.225 Y97.928 E20.97917
G1 X159.659 Y98.632 E21.00921
G1 X159.034 Y99.283 E21.03923
G1 X158.353 Y99.877 E21.06929
G1 X157.622 Y100.408 E21.09934
G1 X156.848 Y100.872 E21.12935
G1 X156.035 Y101.266 E21.1594
G1 X155.191 Y101.586 E21.18942
G1 X154.321 Y101.831 E21.21948
G1 X153.434 Y101.997 E21.2495
G1 X152.283 Y102.095 E21.28792
G1 X151.676 Y102.108 E21.30811
G1 X148.038 Y102.108 E21.42911
G1 X145.432 Y102.145 E21.5158
G1 X142.867 Y102.254 E21.60119
G1 X140.36 Y102.432 E21.68478
G1 X137.819 Y102.683 E21.7697
G1 X135.311 Y103.004 E21.8538
G1 X132.806 Y103.398 E21.93814
G1 X130.319 Y103.86 E22.02228
G1 X127.805 Y104.401 E22.10781
G1 X125.359 Y105 E22.19156
G1 X122.912 Y105.674 E22.27598
G1 X121.061 Y106.233 E22.34029
G1 X120.462 Y106.421 E22.36117
G1 X119.589 Y106.653 E22.39122
G1 X118.699 Y106.806 E22.42125
G1 X117.59 Y106.886 E22.45823
G1 X116.547 Y106.898 E22.49293
G1 X116.104 Y106.89 E22.50766
G1 X115.202 Y106.834 E22.53772
G1 X114.31 Y106.698 E22.56773
G1 X113.305 Y106.446 E22.60219
G1 X112.047 Y106.061 E22.64595
G1 X109.563 Y105.34 E22.73198
G1 X107.069 Y104.69 E22.8177
G1 X104.634 Y104.129 E22.90081
