;FLAVOR:Marlin
M73 P0
M73 R15
;TIME:894
;Filament used: 0.486326m
;Layer height: 0.2
;MINX:61.651
;MINY:87.5
;MINZ:0.2
;MAXX:173.349
;MAXY:147.5
;MAXZ:0.8
;POSTPROCESSED
;Generated with Cura_SteamEngine 4.9.1
M140 S50
M105
M190 S50
M104 S215
M105
M109 S215
M82 ;absolute extrusion mode
; Ender 3 Custom Start G-code
G92 E0 ; Reset Extruder
G28 ; Home all axes
G1 Z2.0 F3000 ; Move Z Axis up little to prevent scratching of Heat Bed
G1 X0.1 Y20 Z0.3 F5000.0 ; Move to start position
G1 X0.1 Y200.0 Z0.3 F1500.0 E15 ; Draw the first line
G1 X0.4 Y200.0 Z0.3 F5000.0 ; Move to side a little
G1 X0.4 Y20 Z0.3 F1500.0 E30 ; Draw the second line
G92 E0 ; Reset Extruder
G1 Z2.0 F3000 ; Move Z Axis up little to prevent scratching of Heat Bed
G1 X5 Y20 Z0.3 F5000.0 ; Move over to prevent blob squish
G92 E0
G92 E0
G1 F2700 E-5
;LAYER_COUNT:4
;LAYER:0
M107
G0 F6000 X66.277 Y89.551 Z0.2
;TYPE:SKIRT
G1 F2700 E0
G1 F1200 X67.063 Y89.039 E0.0312
G1 X67.89 Y88.597 E0.06239
G1 X68.752 Y88.227 E0.09359
G1 X69.642 Y87.931 E0.12478
G1 X70.554 Y87.713 E0.15597
G1 X71.481 Y87.572 E0.18716
G1 X72.352 Y87.513 E0.21619
G1 X72.673 Y87.504 E0.22687
G1 X72.981 Y87.5 E0.23712
G1 X153.944 Y87.5 E2.92996
G1 X154.802 Y87.511 E2.9585
G1 X155.738 Y87.564 E2.98968
G1 X156.667 Y87.697 E3.02089
G1 X157.58 Y87.909 E3.05207
G1 X158.473 Y88.197 E3.08328
G1 X159.337 Y88.561 E3.11446
G1 X160.168 Y88.997 E3.14567
G1 X160.958 Y89.502 E3.17686
G1 X161.702 Y90.072 E3.20803
G1 X162.395 Y90.704 E3.23923
G1 X163.032 Y91.393 E3.27043
G1 X163.608 Y92.133 E3.30162
G1 X164.119 Y92.92 E3.33283
G1 X164.391 Y93.41 E3.35147
G1 X164.678 Y93.96 E3.37211
G1 X165.46 Y95.509 E3.42982
G1 X166.652 Y97.712 E3.51313
G1 X167.918 Y99.899 E3.59718
G1 X169.235 Y102.035 E3.68064
G1 X170.507 Y103.967 E3.75758
G1 X170.899 Y104.57 E3.7815
G1 X171.2 Y105.061 E3.80065
G1 X171.508 Y105.594 E3.82113
G1 X171.972 Y106.488 E3.85463
G1 X172.008 Y106.566 E3.85749
G1 X172.345 Y107.382 E3.88685
G1 X172.521 Y107.861 E3.90382
G1 X172.87 Y108.996 E3.94332
G1 X172.941 Y109.281 E3.95309
G1 X173.176 Y110.526 E3.99523
G1 X173.229 Y110.935 E4.00894
G1 X173.309 Y111.863 E4.03992
G1 X173.333 Y112.406 E4.058
G1 X173.343 Y112.734 E4.06892
G1 X173.349 Y113.239 E4.08571
G1 X173.348 Y120.885 E4.34002
G1 X173.343 Y121.251 E4.35219
G1 X173.333 Y121.583 E4.36324
G1 X173.309 Y122.13 E4.38145
G1 X173.227 Y123.075 E4.413
G1 X173.174 Y123.48 E4.42659
G1 X172.97 Y124.593 E4.46422
G1 X172.909 Y124.85 E4.47301
G1 X172.722 Y125.536 E4.49666
G1 X172.528 Y126.119 E4.51709
G1 X172.36 Y126.58 E4.53341
G1 X172.031 Y127.384 E4.56231
G1 X171.994 Y127.465 E4.56527
G1 X171.511 Y128.4 E4.60027
G1 X171.163 Y129.002 E4.6234
G1 X170.969 Y129.326 E4.63596
G1 X170.521 Y130.043 E4.66408
G1 X169.182 Y132.255 E4.75008
G1 X167.94 Y134.443 E4.83376
G1 X166.761 Y136.665 E4.91742
G1 X165.647 Y138.916 E5.00096
G1 X165.206 Y139.876 E5.03609
G1 X164.604 Y141.16 E5.08326
G1 X164.17 Y141.991 E5.11444
G1 X163.666 Y142.782 E5.14564
G1 X163.098 Y143.528 E5.17682
M73 P1
G1 X162.467 Y144.223 E5.20805
G1 X161.78 Y144.861 E5.23923
G1 X161.041 Y145.438 E5.27041
G1 X160.256 Y145.951 E5.3016
G1 X159.429 Y146.395 E5.33282
G1 X158.568 Y146.766 E5.364
G1 X157.679 Y147.063 E5.39518
G1 X156.767 Y147.283 E5.42638
G1 X155.84 Y147.425 E5.45757
G1 X154.984 Y147.485 E5.48612
G1 X154.661 Y147.495 E5.49686
G1 X154.321 Y147.5 E5.50817
G1 X73.216 Y147.499 E8.20574
G1 X72.518 Y147.49 E8.22895
G1 X71.582 Y147.438 E8.26013
G1 X70.653 Y147.306 E8.29134
G1 X69.739 Y147.096 E8.32253
G1 X68.846 Y146.809 E8.35373
G1 X67.981 Y146.446 E8.38493
G1 X67.15 Y146.012 E8.41611
G1 X66.359 Y145.508 E8.44731
G1 X65.614 Y144.938 E8.47851
G1 X64.92 Y144.307 E8.50971
G1 X64.283 Y143.62 E8.54087
G1 X63.706 Y142.88 E8.57208
G1 X63.194 Y142.094 E8.60328
G1 X62.751 Y141.267 E8.63448
G1 X62.38 Y140.406 E8.66566
G1 X62.084 Y139.516 E8.69686
G1 X61.865 Y138.604 E8.72805
G1 X61.724 Y137.677 E8.75924
G1 X61.664 Y136.788 E8.78888
G1 X61.655 Y136.455 E8.79996
G1 X61.651 Y136.158 E8.80983
G1 X61.652 Y99.025 E10.04488
G1 X61.661 Y98.36 E10.067
G1 X61.714 Y97.424 E10.09818
G1 X61.846 Y96.495 E10.12939
G1 X62.057 Y95.581 E10.16059
G1 X62.345 Y94.689 E10.19177
G1 X62.708 Y93.824 E10.22297
G1 X63.143 Y92.993 E10.25417
G1 X63.647 Y92.203 E10.28533
G1 X64.217 Y91.458 E10.31653
G1 X64.849 Y90.764 E10.34775
G1 X65.537 Y90.127 E10.37894
G1 X66.277 Y89.551 E10.41013
G0 F6000 X66.661 Y89.77
G1 F1200 X67.442 Y89.282 E10.44076
G1 X68.262 Y88.864 E10.47137
G1 X69.116 Y88.519 E10.50201
G1 X69.996 Y88.249 E10.53262
G1 X70.896 Y88.057 E10.56323
G1 X71.81 Y87.943 E10.59386
G1 X72.363 Y87.913 E10.61228
G1 X72.684 Y87.904 E10.62296
G1 X72.981 Y87.9 E10.63284
G1 X153.944 Y87.9 E13.32568
G1 X154.796 Y87.911 E13.35402
G1 X155.715 Y87.964 E13.38464
G1 X156.626 Y88.097 E13.41526
G1 X157.522 Y88.308 E13.44588
G1 X158.397 Y88.596 E13.47652
G1 X159.243 Y88.959 E13.50714
G1 X160.054 Y89.394 E13.53774
G1 X160.825 Y89.898 E13.56838
G1 X161.549 Y90.467 E13.59901
G1 X162.221 Y91.096 E13.62962
G1 X162.836 Y91.781 E13.66024
G1 X163.389 Y92.517 E13.69086
G1 X164.037 Y93.596 E13.73272
G1 X164.321 Y94.14 E13.75313
G1 X165.117 Y95.715 E13.81183
G1 X166.297 Y97.897 E13.89433
G1 X167.58 Y100.115 E13.97956
M73 P2
G1 X168.888 Y102.235 E14.06241
G1 X170.171 Y104.185 E14.14005
G1 X170.563 Y104.788 E14.16397
G1 X170.854 Y105.261 E14.18244
G1 X171.162 Y105.794 E14.20291
G1 X171.608 Y106.656 E14.23519
G1 X171.644 Y106.734 E14.23805
G1 X171.97 Y107.52 E14.26635
G1 X172.146 Y107.999 E14.28333
G1 X172.482 Y109.093 E14.32139
G1 X172.553 Y109.378 E14.33116
G1 X172.779 Y110.578 E14.37177
G1 X172.832 Y110.987 E14.38549
G1 X172.91 Y111.881 E14.41534
G1 X172.934 Y112.424 E14.43342
G1 X172.943 Y112.739 E14.4439
G1 X172.949 Y113.239 E14.46053
G1 X172.948 Y120.88 E14.71467
G1 X172.943 Y121.246 E14.72684
G1 X172.934 Y121.566 E14.73749
G1 X172.91 Y122.113 E14.7557
G1 X172.83 Y123.023 E14.78608
G1 X172.777 Y123.428 E14.79967
G1 X172.58 Y124.501 E14.83595
G1 X172.519 Y124.758 E14.84474
G1 X172.339 Y125.421 E14.86759
G1 X172.152 Y125.982 E14.88726
G1 X171.984 Y126.443 E14.90358
G1 X171.667 Y127.218 E14.93143
G1 X171.63 Y127.299 E14.93439
G1 X171.165 Y128.2 E14.96811
G1 X170.817 Y128.802 E14.99124
G1 X170.629 Y129.114 E15.00335
G1 X170.195 Y129.809 E15.03061
G1 X168.835 Y132.055 E15.11794
G1 X167.581 Y134.264 E15.20242
G1 X166.424 Y136.444 E15.28451
G1 X165.282 Y138.751 E15.37013
G1 X164.844 Y139.706 E15.40507
G1 X164.242 Y140.99 E15.45224
G1 X163.815 Y141.806 E15.48287
G1 X163.319 Y142.581 E15.51347
G1 X162.758 Y143.311 E15.54409
G1 X162.135 Y143.989 E15.57472
G1 X161.456 Y144.611 E15.60535
G1 X160.726 Y145.172 E15.63597
G1 X159.95 Y145.667 E15.66658
G1 X159.133 Y146.092 E15.69721
G1 X158.283 Y146.446 E15.72784
G1 X157.406 Y146.724 E15.75844
G1 X156.507 Y146.925 E15.78907
G1 X155.595 Y147.047 E15.81968
G1 X154.972 Y147.085 E15.84044
G1 X154.649 Y147.095 E15.85119
G1 X154.321 Y147.1 E15.8621
G1 X73.221 Y147.099 E18.55949
G1 X72.523 Y147.09 E18.58271
G1 X71.604 Y147.038 E18.61333
G1 X70.693 Y146.907 E18.64394
G1 X69.797 Y146.697 E18.67455
G1 X68.922 Y146.41 E18.70517
G1 X68.075 Y146.048 E18.73581
G1 X67.263 Y145.614 E18.76643
G1 X66.492 Y145.112 E18.79703
G1 X65.767 Y144.544 E18.82767
G1 X65.094 Y143.915 E18.8583
G1 X64.479 Y143.231 E18.8889
G1 X63.925 Y142.496 E18.91951
G1 X63.437 Y141.715 E18.95014
G1 X63.018 Y140.895 E18.98077
G1 X62.672 Y140.042 E19.01138
G1 X62.402 Y139.162 E19.042
G1 X62.209 Y138.261 E19.07265
G1 X62.095 Y137.348 E19.10325
G1 X62.064 Y136.777 E19.12227
M73 P3
G1 X62.055 Y136.444 E19.13335
G1 X62.051 Y136.158 E19.14286
G1 X62.052 Y99.031 E20.37771
G1 X62.061 Y98.366 E20.39983
G1 X62.113 Y97.446 E20.43048
G1 X62.245 Y96.535 E20.4611
G1 X62.456 Y95.639 E20.49171
G1 X62.743 Y94.764 E20.52234
G1 X63.106 Y93.918 E20.55296
G1 X63.54 Y93.106 E20.58358
G1 X64.043 Y92.335 E20.6142
G1 X64.612 Y91.611 E20.64483
G1 X65.24 Y90.939 E20.67542
G1 X65.925 Y90.323 E20.70606
G1 X66.661 Y89.77 E20.73668
G0 F6000 X67.045 Y89.994
G1 F1200 X67.82 Y89.531 E20.7667
G1 X68.633 Y89.138 E20.79674
G1 X69.478 Y88.818 E20.82679
G1 X70.347 Y88.575 E20.8568
G1 X71.235 Y88.409 E20.88685
G1 X72.374 Y88.313 E20.92487
G1 X72.695 Y88.304 E20.93555
G1 X72.981 Y88.3 E20.94506
G1 X153.944 Y88.3 E23.6379
G1 X154.79 Y88.311 E23.66604
G1 X155.692 Y88.364 E23.69609
G1 X156.585 Y88.496 E23.72612
G1 X157.464 Y88.707 E23.75618
G1 X158.32 Y88.995 E23.78622
G1 X159.147 Y89.357 E23.81625
G1 X159.939 Y89.791 E23.84629
G1 X160.689 Y90.294 E23.87632
G1 X161.392 Y90.861 E23.90636
G1 X162.042 Y91.487 E23.93638
G1 X162.635 Y92.169 E23.96644
G1 X163.164 Y92.901 E23.99647
G1 X163.683 Y93.781 E24.03046
G1 X163.964 Y94.321 E24.0507
G1 X164.758 Y95.893 E24.10928
G1 X165.957 Y98.108 E24.19305
G1 X167.221 Y100.293 E24.27701
G1 X168.557 Y102.459 E24.36165
G1 X169.836 Y104.403 E24.43905
G1 X170.228 Y105.006 E24.46297
G1 X170.508 Y105.462 E24.48077
G1 X170.816 Y105.995 E24.50124
G1 X171.245 Y106.824 E24.53229
G1 X171.281 Y106.902 E24.53514
G1 X171.594 Y107.658 E24.56236
G1 X171.77 Y108.137 E24.57933
G1 X172.093 Y109.189 E24.61593
G1 X172.164 Y109.474 E24.6257
G1 X172.382 Y110.629 E24.6648
G1 X172.435 Y111.038 E24.67851
G1 X172.51 Y111.899 E24.70726
G1 X172.534 Y112.442 E24.72534
G1 X172.543 Y112.745 E24.73542
G1 X172.549 Y113.239 E24.75185
G1 X172.548 Y120.874 E25.00579
G1 X172.543 Y121.24 E25.01797
G1 X172.534 Y121.548 E25.02821
G1 X172.51 Y122.095 E25.04642
G1 X172.434 Y122.972 E25.0757
G1 X172.381 Y123.377 E25.08929
G1 X172.191 Y124.409 E25.12419
G1 X172.13 Y124.666 E25.13298
G1 X171.957 Y125.305 E25.15499
G1 X171.776 Y125.845 E25.17394
G1 X171.608 Y126.306 E25.19026
G1 X171.303 Y127.052 E25.21706
G1 X171.266 Y127.133 E25.22002
G1 X170.819 Y128 E25.25247
G1 X170.471 Y128.602 E25.27559
G1 X170.29 Y128.902 E25.28725
M73 P4
G1 X169.856 Y129.596 E25.31447
G1 X168.488 Y131.857 E25.40237
G1 X167.238 Y134.058 E25.48655
G1 X166.059 Y136.279 E25.57019
G1 X164.919 Y138.585 E25.65575
G1 X164.481 Y139.536 E25.69057
G1 X163.879 Y140.82 E25.73774
G1 X163.46 Y141.62 E25.76777
G1 X162.972 Y142.38 E25.79781
G1 X162.418 Y143.093 E25.82785
G1 X161.804 Y143.755 E25.85788
G1 X161.133 Y144.36 E25.88793
G1 X160.411 Y144.903 E25.91797
G1 X159.645 Y145.38 E25.94799
G1 X158.839 Y145.788 E25.97803
G1 X158 Y146.122 E26.00807
G1 X157.135 Y146.381 E26.0381
G1 X156.25 Y146.563 E26.06815
G1 X154.96 Y146.685 E26.11125
G1 X154.637 Y146.695 E26.122
G1 X154.321 Y146.7 E26.13251
G1 X73.226 Y146.699 E28.82974
G1 X72.528 Y146.69 E28.85296
G1 X71.627 Y146.639 E28.88297
G1 X70.733 Y146.507 E28.91303
G1 X69.855 Y146.298 E28.94305
G1 X68.998 Y146.011 E28.97311
G1 X68.171 Y145.65 E29.00312
G1 X67.378 Y145.217 E29.03317
G1 X66.627 Y144.716 E29.0632
G1 X65.923 Y144.15 E29.09324
G1 X65.272 Y143.524 E29.12328
G1 X64.679 Y142.843 E29.15331
G1 X64.149 Y142.112 E29.18334
G1 X63.685 Y141.337 E29.21339
G1 X63.291 Y140.524 E29.24344
G1 X62.971 Y139.68 E29.27346
G1 X62.727 Y138.81 E29.30351
G1 X62.561 Y137.922 E29.33356
G1 X62.464 Y136.767 E29.37211
G1 X62.455 Y136.434 E29.38319
G1 X62.451 Y136.158 E29.39237
G1 X62.452 Y99.036 E30.62705
G1 X62.461 Y98.371 E30.64917
G1 X62.513 Y97.469 E30.67922
G1 X62.645 Y96.576 E30.70925
G1 X62.855 Y95.698 E30.73927
G1 X63.142 Y94.841 E30.76933
G1 X63.504 Y94.014 E30.79936
G1 X63.937 Y93.222 E30.82938
G1 X64.439 Y92.471 E30.85942
G1 X65.006 Y91.767 E30.88949
G1 X65.632 Y91.117 E30.9195
G1 X66.313 Y90.524 E30.94954
G1 X67.045 Y89.994 E30.9796
G1 F2700 E25.9796
;MESH:Part Studio 1 - Part 1 (1).stl
G0 F6000 X73.065 Y97.835
G0 X73.065 Y98.914
G0 X77.477 Y99.1
;TYPE:WALL-INNER
G1 F2700 E30.9796
G1 F1200 X149.822 Y99.1 E33.3858
G1 X149.94 Y99.1 E33.38973
G1 X150.231 Y99.1 E33.3994
G1 X150.53 Y99.1 E33.40935
G1 X150.828 Y99.1 E33.41926
G1 X151.132 Y99.1 E33.42937
G1 X151.266 Y99.1 E33.43383
G1 X151.569 Y99.1 E33.44391
G1 X151.865 Y99.1 E33.45375
G1 X152.155 Y99.1 E33.4634
G1 X152.445 Y99.1 E33.47304
G1 X152.477 Y99.1 E33.47411
G1 X154.051 Y99.1 E33.52646
M73 P5
G1 X154.051 Y105.363 E33.73477
G1 X154.069 Y105.726 E33.74685
G1 X154.12 Y106.094 E33.75921
G1 X154.202 Y106.457 E33.77159
G1 X154.318 Y106.813 E33.78404
G1 X154.461 Y107.155 E33.79637
G1 X154.634 Y107.485 E33.80876
G1 X154.837 Y107.799 E33.8212
G1 X155.064 Y108.092 E33.83353
G1 X155.317 Y108.366 E33.84593
G1 X155.593 Y108.615 E33.8583
G1 X155.891 Y108.841 E33.87073
G1 X156.205 Y109.039 E33.88308
G1 X156.537 Y109.21 E33.8955
G1 X156.883 Y109.35 E33.90792
G1 X157.237 Y109.46 E33.92025
G1 X157.603 Y109.539 E33.9327
G1 X157.971 Y109.585 E33.94503
G1 X158.31 Y109.6 E33.95632
G1 X158.667 Y109.6 E33.96819
G1 X158.798 Y109.603 E33.97255
G1 X159.08 Y109.627 E33.98197
G1 X159.35 Y109.674 E33.99108
G1 X159.602 Y109.742 E33.99976
G1 X159.851 Y109.833 E34.00858
G1 X160.092 Y109.944 E34.01741
G1 X160.333 Y110.084 E34.02668
G1 X160.547 Y110.234 E34.03537
G1 X160.75 Y110.405 E34.0442
G1 X160.943 Y110.597 E34.05325
G1 X161.114 Y110.802 E34.06213
G1 X161.264 Y111.015 E34.07079
G1 X161.401 Y111.25 E34.07984
G1 X161.514 Y111.495 E34.08882
G1 X161.605 Y111.742 E34.09757
G1 X161.675 Y111.998 E34.1064
G1 X161.722 Y112.27 E34.11558
G1 X161.745 Y112.525 E34.12409
G1 X161.749 Y112.67 E34.12892
G1 X161.749 Y121.308 E34.41622
G1 X161.737 Y121.593 E34.42571
G1 X161.7 Y121.869 E34.43497
G1 X161.644 Y122.126 E34.44372
G1 X161.563 Y122.378 E34.45252
G1 X161.466 Y122.618 E34.46113
G1 X161.338 Y122.863 E34.47032
G1 X161.197 Y123.085 E34.47907
G1 X161.03 Y123.304 E34.48823
G1 X160.853 Y123.497 E34.49694
G1 X160.656 Y123.677 E34.50582
G1 X160.434 Y123.848 E34.51514
G1 X160.219 Y123.985 E34.52362
G1 X159.971 Y124.114 E34.53291
G1 X159.733 Y124.213 E34.54149
G1 X159.467 Y124.297 E34.55077
G1 X159.209 Y124.353 E34.55955
G1 X158.951 Y124.387 E34.5682
G1 X158.811 Y124.397 E34.57287
G1 X158.133 Y124.403 E34.59542
G1 X157.739 Y124.439 E34.60858
G1 X157.375 Y124.507 E34.6209
G1 X157.015 Y124.605 E34.63331
G1 X156.666 Y124.734 E34.64568
G1 X156.329 Y124.893 E34.65808
G1 X156.007 Y125.082 E34.67049
G1 X155.705 Y125.296 E34.6828
G1 X155.42 Y125.537 E34.69522
G1 X155.157 Y125.802 E34.70764
G1 X154.92 Y126.089 E34.72002
G1 X154.709 Y126.395 E34.73238
G1 X154.523 Y126.718 E34.74478
G1 X154.368 Y127.058 E34.7572
G1 X154.243 Y127.405 E34.76947
G1 X154.146 Y127.768 E34.78197
G1 X154.086 Y128.137 E34.7944
M73 P6
G1 X154.055 Y128.5 E34.80652
G1 X154.051 Y128.661 E34.81188
G1 X154.051 Y135.9 E35.05265
G1 X73.251 Y135.9 E37.74007
G1 X73.251 Y99.1 E38.96404
G1 X74.822 Y99.1 E39.01629
G1 X74.94 Y99.1 E39.02021
G1 X75.231 Y99.1 E39.02989
G1 X75.53 Y99.1 E39.03984
G1 X75.828 Y99.1 E39.04975
G1 X76.132 Y99.1 E39.05986
G1 X76.266 Y99.1 E39.06432
G1 X76.569 Y99.1 E39.0744
G1 X76.865 Y99.1 E39.08424
G1 X77.155 Y99.1 E39.09389
G1 X77.445 Y99.1 E39.10353
G1 X77.477 Y99.1 E39.1046
G0 F6000 X77.891 Y99.998
G0 X77.676 Y100.206
;TYPE:WALL-OUTER
G1 F1200 X77.495 Y100.019 E39.11325
G1 X77.227 Y99.814 E39.12447
G1 X76.986 Y99.683 E39.1336
G1 X76.745 Y99.589 E39.1422
G1 X76.5 Y99.53 E39.15058
G1 X76.24 Y99.502 E39.15928
G1 X76.141 Y99.5 E39.16257
G1 X75.881 Y99.517 E39.17124
G1 X75.635 Y99.567 E39.17959
G1 X75.385 Y99.652 E39.18837
G1 X75.142 Y99.773 E39.1974
G1 X74.927 Y99.918 E39.20603
G1 X74.73 Y100.093 E39.21479
G1 X74.556 Y100.293 E39.22361
G1 X74.413 Y100.511 E39.23228
G1 X74.3 Y100.744 E39.24089
G1 X74.199 Y101.066 E39.25212
G1 X74.159 Y101.336 E39.26119
G1 X74.153 Y101.599 E39.26994
G1 X74.201 Y101.943 E39.2815
G1 X74.275 Y102.194 E39.2902
G1 X74.418 Y102.499 E39.3014
G1 X74.563 Y102.717 E39.31011
G1 X74.745 Y102.922 E39.31923
G1 X74.945 Y103.095 E39.32802
G1 X75.16 Y103.238 E39.33661
