;FLAVOR:Marlin
M73 P0
M73 R51
;TIME:3061
;Filament used: 1.35018m
;Layer height: 0.2
;MINX:66.985
;MINY:53.189
;MINZ:0.2
;MAXX:167.996
;MAXY:181.816
;MAXZ:13
;POSTPROCESSED
;Generated with Cura_SteamEngine 4.9.1
M140 S50
M105
M190 S50
M104 S215
M105
M109 S215
M82 ;absolute extrusion mode
; Ender 3 Custom Start G-code
G92 E0 ; Reset Extruder
G28 ; Home all axes
G1 Z2.0 F3000 ; Move Z Axis up little to prevent scratching of Heat Bed
G1 X0.1 Y20 Z0.3 F5000.0 ; Move to start position
G1 X0.1 Y200.0 Z0.3 F1500.0 E15 ; Draw the first line
G1 X0.4 Y200.0 Z0.3 F5000.0 ; Move to side a little
G1 X0.4 Y20 Z0.3 F1500.0 E30 ; Draw the second line
G92 E0 ; Reset Extruder
G1 Z2.0 F3000 ; Move Z Axis up little to prevent scratching of Heat Bed
G1 X5 Y20 Z0.3 F5000.0 ; Move over to prevent blob squish
G92 E0
G92 E0
G1 F2700 E-5
;LAYER_COUNT:65
;LAYER:0
M107
G0 F6000 X94.967 Y58.631 Z0.2
;TYPE:SKIRT
G1 F2700 E0
G1 F1200 X95.482 Y57.847 E0.0312
G1 X96.061 Y57.109 E0.0624
G1 X96.701 Y56.423 E0.0936
G1 X97.397 Y55.795 E0.12478
G1 X98.144 Y55.228 E0.15597
G1 X98.936 Y54.726 E0.18716
G1 X100.192 Y54.108 E0.23372
G1 X100.382 Y54.029 E0.24056
G1 X101.262 Y53.706 E0.27174
G1 X102.167 Y53.46 E0.30293
G1 X103.09 Y53.291 E0.33414
G1 X104.023 Y53.201 E0.36532
G1 X104.901 Y53.19 E0.39452
G1 X105.124 Y53.196 E0.40194
G1 X106.097 Y53.265 E0.43439
G1 X107.119 Y53.384 E0.46861
G1 X109.696 Y53.647 E0.55476
G1 X112.175 Y53.83 E0.63744
G1 X114.731 Y53.946 E0.72254
G1 X117.224 Y53.989 E0.80547
G1 X119.742 Y53.961 E0.88923
G1 X122.24 Y53.862 E0.97237
G1 X124.752 Y53.692 E1.05611
G1 X128.327 Y53.328 E1.17563
G1 X128.635 Y53.29 E1.18596
G1 X129.003 Y53.251 E1.19826
G1 X129.231 Y53.231 E1.20588
G1 X130.192 Y53.189 E1.23787
G1 X130.418 Y53.189 E1.24539
G1 X131.355 Y53.229 E1.27658
G1 X132.285 Y53.349 E1.30777
G1 X133.202 Y53.547 E1.33897
G1 X134.098 Y53.823 E1.37015
G1 X134.968 Y54.174 E1.40136
G1 X135.961 Y54.687 E1.43853
G1 X136.177 Y54.813 E1.44685
G1 X136.966 Y55.32 E1.47804
G1 X137.709 Y55.892 E1.50923
G1 X138.401 Y56.525 E1.54042
G1 X139.036 Y57.215 E1.57161
G1 X139.61 Y57.957 E1.60281
G1 X140.119 Y58.745 E1.63401
G1 X140.573 Y59.601 E1.66624
G1 X140.656 Y59.776 E1.67268
G1 X141.16 Y61.034 E1.71776
G1 X141.389 Y61.73 E1.74213
G1 X141.872 Y63.259 E1.79546
G1 X142.692 Y65.623 E1.87868
G1 X143.589 Y67.988 E1.96281
G1 X144.538 Y70.292 E2.04569
G1 X145.578 Y72.624 E2.13061
G1 X146.657 Y74.877 E2.2137
G1 X147.813 Y77.12 E2.29763
G1 X149.028 Y79.324 E2.38133
G1 X150.298 Y81.482 E2.46461
G1 X151.649 Y83.634 E2.54913
G1 X153.042 Y85.723 E2.63264
G1 X154.488 Y87.761 E2.71575
G1 X156.012 Y89.783 E2.79996
G1 X157.542 Y91.694 E2.88139
G1 X158.049 Y92.348 E2.90891
G1 X158.59 Y93.114 E2.9401
G1 X159.032 Y93.863 E2.96903
G1 X159.139 Y94.062 E2.97654
G1 X159.548 Y94.906 E3.00773
G1 X159.883 Y95.782 E3.03893
G1 X160.159 Y96.755 E3.07257
G1 X160.237 Y97.087 E3.08391
G1 X160.413 Y98.008 E3.1151
G1 X160.522 Y99.221 E3.1556
G1 X160.527 Y99.365 E3.1604
G1 X160.517 Y100.35 E3.19316
G1 X160.49 Y100.815 E3.20865
G1 X160.377 Y102.368 E3.26044
G1 X160.266 Y104.872 E3.34381
G1 X160.224 Y107.432 E3.42896
G1 X160.254 Y109.912 E3.51145
G1 X160.357 Y112.443 E3.59571
G1 X160.53 Y114.955 E3.67945
G1 X160.772 Y117.447 E3.76273
G1 X161.088 Y119.959 E3.84694
G1 X161.472 Y122.435 E3.93027
G1 X161.926 Y124.909 E4.01393
G1 X162.447 Y127.355 E4.09711
G1 X163.05 Y129.835 E4.182
G1 X163.711 Y132.255 E4.26544
G1 X164.443 Y134.662 E4.34911
G1 X165.238 Y137.035 E4.43235
G1 X166.103 Y139.397 E4.51601
G1 X166.725 Y140.938 E4.57129
G1 X167.236 Y142.235 E4.61765
G1 X167.543 Y143.121 E4.64884
G1 X167.772 Y144.031 E4.68005
G1 X167.924 Y144.956 E4.71123
G1 X167.996 Y145.891 E4.74242
G1 X167.983 Y146.917 E4.77655
G1 X167.964 Y147.238 E4.78724
G1 X167.832 Y148.402 E4.8262
G1 X167.639 Y149.32 E4.8574
G1 X167.368 Y150.218 E4.8886
G1 X166.913 Y151.325 E4.92841
G1 X166.802 Y151.558 E4.93699
G1 X166.363 Y152.387 E4.96819
G1 X165.854 Y153.175 E4.9994
G1 X165.404 Y153.769 E5.02418
G1 X165.177 Y154.048 E5.03614
G1 X164.533 Y154.772 E5.06837
G1 X164.121 Y155.196 E5.08804
G1 X162.366 Y157.052 E5.17299
G1 X160.669 Y158.953 E5.25775
G1 X159.049 Y160.872 E5.34128
G1 X157.475 Y162.848 E5.4253
G1 X155.982 Y164.836 E5.50799
G1 X154.523 Y166.897 E5.59198
G1 X153.125 Y168.997 E5.67589
G1 X151.786 Y171.134 E5.75977
G1 X150.528 Y173.278 E5.84244
G1 X149.759 Y174.691 E5.89595
G1 X149.644 Y174.883 E5.90339
G1 X149.063 Y175.937 E5.94342
G1 X148.575 Y176.738 E5.97462
G1 X148.022 Y177.495 E6.0058
G1 X147.406 Y178.202 E6.03699
G1 X146.732 Y178.854 E6.06818
G1 X146.004 Y179.447 E6.09941
G1 X145.489 Y179.809 E6.12035
G1 X145.23 Y179.98 E6.13067
G1 X144.426 Y180.463 E6.16186
G1 X143.584 Y180.875 E6.19304
G1 X142.709 Y181.215 E6.22426
G1 X141.809 Y181.478 E6.25545
G1 X140.89 Y181.665 E6.28664
G1 X140.001 Y181.769 E6.31641
G1 X139.79 Y181.785 E6.32345
G1 X138.852 Y181.815 E6.35466
G1 X137.916 Y181.767 E6.38584
G1 X136.779 Y181.598 E6.42407
G1 X136.032 Y181.447 E6.44942
G1 X135.74 Y181.384 E6.45935
G1 X133.218 Y180.894 E6.5448
G1 X130.766 Y180.488 E6.62747
G1 X128.281 Y180.149 E6.71088
G1 X125.763 Y179.878 E6.79512
G1 X123.247 Y179.679 E6.87906
G1 X120.73 Y179.551 E6.96288
G1 X118.236 Y179.495 E7.04586
G1 X115.718 Y179.51 E7.12961
G1 X113.186 Y179.597 E7.21387
G1 X110.669 Y179.754 E7.29775
G1 X108.166 Y179.981 E7.38134
G1 X105.673 Y180.28 E7.46485
G1 X103.211 Y180.645 E7.54763
G1 X99.436 Y181.341 E7.67531
G1 X98.193 Y181.597 E7.71752
G1 X97.268 Y181.746 E7.74868
G1 X96.332 Y181.816 E7.7799
G1 X95.394 Y181.807 E7.8111
G1 X94.461 Y181.717 E7.84227
G1 X93.538 Y181.548 E7.87348
G1 X92.846 Y181.367 E7.89727
G1 X92.543 Y181.277 E7.90779
G1 X91.656 Y180.972 E7.93898
G1 X90.798 Y180.592 E7.97019
G1 X89.976 Y180.141 E8.00138
G1 X89.196 Y179.621 E8.03256
G1 X88.462 Y179.037 E8.06376
G1 X87.936 Y178.55 E8.0876
G1 X87.837 Y178.452 E8.09223
G1 X87.2 Y177.764 E8.12342
G1 X86.623 Y177.024 E8.15463
G1 X85.894 Y175.855 E8.20045
G1 X85.492 Y175.11 E8.2286
G1 X84.21 Y172.813 E8.3161
G1 X82.922 Y170.652 E8.39977
G1 X81.563 Y168.511 E8.48411
G1 X80.168 Y166.445 E8.56703
G1 X78.698 Y164.398 E8.65085
G1 X77.184 Y162.408 E8.73401
G1 X75.605 Y160.451 E8.81765
G1 X73.957 Y158.521 E8.90206
G1 X72.275 Y156.662 E8.98544
G1 X70.404 Y154.706 E9.07547
G1 X69.79 Y154.007 E9.10641
G1 X69.569 Y153.733 E9.11812
G1 X69.012 Y152.978 E9.14933
G1 X68.521 Y152.179 E9.18052
G1 X68.063 Y151.258 E9.21473
G1 X67.938 Y150.974 E9.22505
G1 X67.597 Y150.101 E9.25622
G1 X67.332 Y149.201 E9.28743
G1 X67.144 Y148.282 E9.31863
G1 X67.059 Y147.618 E9.34089
G1 X67.037 Y147.394 E9.34838
G1 X66.985 Y146.458 E9.37956
G1 X67.013 Y145.52 E9.41077
G1 X67.121 Y144.589 E9.44194
G1 X67.308 Y143.67 E9.47313
G1 X67.717 Y142.37 E9.51846
G1 X67.87 Y141.975 E9.53255
G1 X68.868 Y139.478 E9.62199
G1 X69.739 Y137.113 E9.70581
G1 X70.522 Y134.779 E9.78769
G1 X71.277 Y132.303 E9.87379
G1 X71.928 Y129.925 E9.95579
G1 X72.53 Y127.461 E10.04016
G1 X73.062 Y124.982 E10.12448
G1 X73.516 Y122.508 E10.20814
G1 X73.902 Y120.027 E10.29166
G1 X74.214 Y117.571 E10.374
G1 X74.465 Y115.008 E10.45965
G1 X74.638 Y112.54 E10.54194
G1 X74.742 Y109.997 E10.62659
G1 X74.775 Y107.501 E10.70962
G1 X74.736 Y104.95 E10.79447
G1 X74.627 Y102.46 E10.87737
G1 X74.492 Y100.52 E10.94205
G1 X74.479 Y100.281 E10.95001
G1 X74.468 Y99.344 E10.98118
G1 X74.537 Y98.408 E11.01239
G1 X74.611 Y97.888 E11.02986
G1 X74.658 Y97.604 E11.03944
G1 X74.85 Y96.686 E11.07063
G1 X75.258 Y95.413 E11.11509
G1 X75.335 Y95.215 E11.12216
G1 X75.712 Y94.356 E11.15336
G1 X75.971 Y93.86 E11.17197
G1 X76.046 Y93.725 E11.17711
G1 X76.797 Y92.554 E11.22338
G1 X76.941 Y92.358 E11.23147
G1 X77.269 Y91.934 E11.24929
G1 X78.49 Y90.431 E11.3137
G1 X80.018 Y88.438 E11.39723
G1 X81.497 Y86.394 E11.48114
G1 X82.902 Y84.333 E11.56411
G1 X84.275 Y82.188 E11.64881
G1 X85.564 Y80.04 E11.73213
G1 X86.798 Y77.851 E11.81571
G1 X87.971 Y75.624 E11.89943
G1 X89.079 Y73.367 E11.98305
G1 X90.12 Y71.084 E12.06651
G1 X91.113 Y68.735 E12.15133
G1 X92.038 Y66.364 E12.23598
G1 X92.856 Y64.071 E12.31695
G1 X93.71 Y61.443 E12.40886
G1 X93.785 Y61.204 E12.41719
G1 X94.103 Y60.321 E12.4484
G1 X94.494 Y59.469 E12.47958
G1 X94.837 Y58.849 E12.50315
G1 X94.967 Y58.631 E12.51159
G0 F6000 X95.311 Y58.836
G1 F1200 X95.816 Y58.066 E12.54222
G1 X96.387 Y57.344 E12.57283
G1 X97.017 Y56.673 E12.60345
G1 X97.704 Y56.06 E12.63407
G1 X98.441 Y55.509 E12.66468
G1 X99.224 Y55.023 E12.69533
G1 X100.345 Y54.477 E12.7368
G1 X100.535 Y54.398 E12.74364
G1 X101.4 Y54.082 E12.77427
G1 X102.289 Y53.842 E12.8049
G1 X103.195 Y53.68 E12.83551
G1 X104.112 Y53.597 E12.86614
G1 X104.89 Y53.59 E12.89201
G1 X105.113 Y53.596 E12.89943
G1 X106.051 Y53.663 E12.93071
G1 X107.036 Y53.777 E12.96369
G1 X109.661 Y54.046 E13.05146
G1 X112.161 Y54.23 E13.13483
G1 X114.706 Y54.346 E13.21957
G1 X117.222 Y54.389 E13.30326
G1 X119.727 Y54.361 E13.38658
G1 X122.282 Y54.26 E13.47163
G1 X124.792 Y54.09 E13.5553
G1 X128.36 Y53.726 E13.67459
G1 X128.683 Y53.687 E13.68541
G1 X129.038 Y53.65 E13.69728
G1 X129.266 Y53.63 E13.7049
G1 X130.192 Y53.589 E13.73573
G1 X130.418 Y53.589 E13.74324
G1 X131.338 Y53.629 E13.77387
G1 X132.251 Y53.749 E13.8045
G1 X133.15 Y53.947 E13.83512
G1 X134.028 Y54.223 E13.86573
G1 X134.879 Y54.574 E13.89634
G1 X135.759 Y55.033 E13.92936
G1 X135.975 Y55.159 E13.93767
G1 X136.749 Y55.657 E13.96828
G1 X137.478 Y56.22 E13.99892
G1 X138.154 Y56.845 E14.02954
G1 X138.774 Y57.525 E14.06015
G1 X139.332 Y58.257 E14.09076
G1 X139.825 Y59.035 E14.1214
G1 X140.211 Y59.773 E14.1491
G1 X140.294 Y59.948 E14.15554
G1 X140.78 Y61.16 E14.19897
G1 X141.008 Y61.851 E14.22317
G1 X141.496 Y63.395 E14.27703
G1 X142.316 Y65.759 E14.36025
G1 X143.205 Y68.103 E14.44363
G1 X144.192 Y70.5 E14.52985
G1 X145.209 Y72.781 E14.61292
G1 X146.298 Y75.054 E14.69674
G1 X147.45 Y77.289 E14.78037
G1 X148.682 Y79.525 E14.86529
G1 X149.967 Y81.707 E14.94951
G1 X151.31 Y83.847 E15.03354
G1 X152.711 Y85.947 E15.1175
G1 X154.167 Y88 E15.20122
G1 X155.679 Y90.008 E15.28482
G1 X157.346 Y92.091 E15.37356
G1 X157.733 Y92.592 E15.39461
G1 X158.263 Y93.344 E15.42521
G1 X158.68 Y94.052 E15.45254
G1 X158.787 Y94.251 E15.46005
G1 X159.187 Y95.08 E15.49067
G1 X159.514 Y95.941 E15.5213
G1 X159.77 Y96.847 E15.55262
G1 X159.848 Y97.179 E15.56396
G1 X160.019 Y98.083 E15.59456
G1 X160.123 Y99.235 E15.63303
G1 X160.128 Y99.379 E15.63782
G1 X160.118 Y100.329 E15.66942
G1 X160.091 Y100.786 E15.68465
G1 X159.977 Y102.358 E15.73707
G1 X159.866 Y104.847 E15.81994
G1 X159.824 Y107.43 E15.90586
G1 X159.854 Y109.933 E15.98911
G1 X159.957 Y112.453 E16.073
G1 X160.131 Y114.986 E16.15745
G1 X160.376 Y117.499 E16.24143
G1 X160.691 Y120.004 E16.3254
G1 X161.077 Y122.497 E16.4093
G1 X161.54 Y125.021 E16.49465
G1 X162.047 Y127.401 E16.57559
G1 X162.663 Y129.938 E16.66242
G1 X163.319 Y132.339 E16.74521
G1 X164.064 Y134.791 E16.83044
G1 X164.87 Y137.194 E16.91474
G1 X165.726 Y139.53 E16.99749
G1 X166.353 Y141.084 E17.05322
G1 X166.864 Y142.381 E17.09959
G1 X167.164 Y143.252 E17.13023
G1 X167.387 Y144.145 E17.16084
G1 X167.532 Y145.054 E17.19146
G1 X167.598 Y145.973 E17.2221
G1 X167.583 Y146.893 E17.25271
G1 X167.564 Y147.214 E17.2634
G1 X167.438 Y148.337 E17.30099
G1 X167.247 Y149.237 E17.33159
G1 X166.979 Y150.118 E17.36222
G1 X166.552 Y151.153 E17.39945
G1 X166.441 Y151.386 E17.40804
G1 X166.009 Y152.199 E17.43866
G1 X165.508 Y152.972 E17.4693
G1 X165.093 Y153.517 E17.49208
G1 X164.866 Y153.796 E17.50404
G1 X164.246 Y154.493 E17.53507
G1 X163.861 Y154.889 E17.55344
G1 X162.062 Y156.792 E17.64054
G1 X160.382 Y158.674 E17.72445
G1 X158.73 Y160.631 E17.80963
G1 X157.176 Y162.583 E17.89261
G1 X155.652 Y164.611 E17.97699
G1 X154.18 Y166.69 E18.06171
G1 X152.796 Y168.768 E18.14475
G1 X151.445 Y170.926 E18.22944
G1 X150.182 Y173.076 E18.31237
G1 X149.408 Y174.5 E18.36628
G1 X149.282 Y174.709 E18.37439
G1 X148.712 Y175.744 E18.41369
G1 X148.233 Y176.53 E18.44431
G1 X147.688 Y177.272 E18.47493
G1 X147.081 Y177.964 E18.50554
G1 X146.415 Y178.6 E18.53617
G1 X145.697 Y179.176 E18.56679
G1 X145.268 Y179.475 E18.58418
G1 X145.009 Y179.646 E18.5945
G1 X144.22 Y180.119 E18.6251
G1 X143.392 Y180.522 E18.65573
G1 X142.532 Y180.852 E18.68637
G1 X141.648 Y181.106 E18.71696
G1 X140.744 Y181.282 E18.74759
G1 X139.97 Y181.37 E18.7735
G1 X139.759 Y181.386 E18.78054
G1 X138.839 Y181.415 E18.81115
G1 X137.92 Y181.365 E18.84176
G1 X136.858 Y181.206 E18.87748
G1 X135.912 Y181.013 E18.90959
G1 X135.789 Y180.986 E18.91378
G1 X133.329 Y180.507 E18.99714
G1 X130.814 Y180.091 E19.08192
G1 X128.306 Y179.749 E19.16611
G1 X125.802 Y179.479 E19.24988
G1 X123.265 Y179.279 E19.33452
G1 X120.759 Y179.152 E19.41798
G1 X118.243 Y179.095 E19.50168
G1 X115.701 Y179.11 E19.58623
G1 X113.148 Y179.198 E19.67119
G1 X110.679 Y179.352 E19.75347
G1 X108.119 Y179.584 E19.83897
G1 X105.604 Y179.885 E19.92321
G1 X103.165 Y180.247 E20.00522
G1 X99.333 Y180.954 E20.13483
G1 X98.113 Y181.205 E20.17625
G1 X97.204 Y181.351 E20.20687
G1 X96.286 Y181.418 E20.23749
G1 X95.365 Y181.404 E20.26812
G1 X94.449 Y181.311 E20.29875
G1 X93.545 Y181.139 E20.32935
G1 X92.96 Y180.983 E20.34949
G1 X92.657 Y180.893 E20.36
G1 X91.786 Y180.593 E20.39064
G1 X90.945 Y180.218 E20.42127
G1 X90.14 Y179.772 E20.45188
G1 X89.377 Y179.258 E20.48248
G1 X88.661 Y178.679 E20.5131
G1 X88.218 Y178.265 E20.53327
G1 X88.119 Y178.167 E20.5379
G1 X87.493 Y177.492 E20.56852
G1 X86.929 Y176.765 E20.59913
G1 X86.246 Y175.665 E20.64219
G1 X85.822 Y174.879 E20.6719
G1 X84.56 Y172.619 E20.75799
G1 X83.27 Y170.455 E20.84178
G1 X81.899 Y168.293 E20.92693
G1 X80.508 Y166.234 E21.00958
G1 X79.026 Y164.168 E21.09414
G1 X77.498 Y162.161 E21.17804
G1 X75.888 Y160.165 E21.26333
G1 X74.275 Y158.276 E21.34595
G1 X72.562 Y156.382 E21.43089
G1 X70.693 Y154.429 E21.5208
G1 X70.101 Y153.756 E21.55061
G1 X69.88 Y153.482 E21.56232
G1 X69.334 Y152.741 E21.59293
G1 X68.854 Y151.955 E21.62356
G1 X68.429 Y151.097 E21.65541
G1 X68.304 Y150.813 E21.66573
G1 X67.97 Y149.955 E21.69635
G1 X67.712 Y149.072 E21.72695
G1 X67.531 Y148.169 E21.75758
G1 X67.457 Y147.579 E21.77736
G1 X67.435 Y147.355 E21.78484
G1 X67.385 Y146.436 E21.81545
G1 X67.414 Y145.516 E21.84607
G1 X67.524 Y144.602 E21.87669
G1 X67.713 Y143.7 E21.90734
G1 X68.091 Y142.514 E21.94874
G1 X68.242 Y142.124 E21.96265
G1 X69.227 Y139.66 E22.05091
G1 X70.117 Y137.241 E22.13664
G1 X70.911 Y134.875 E22.21964
G1 X71.648 Y132.461 E22.30359
G1 X72.328 Y129.977 E22.38925
G1 X72.915 Y127.575 E22.47149
G1 X73.459 Y125.033 E22.55795
G1 X73.906 Y122.606 E22.64003
G1 X74.295 Y120.102 E22.72432
G1 X74.619 Y117.554 E22.80975
G1 X74.862 Y115.074 E22.89263
G1 X75.038 Y112.55 E22.97678
G1 X75.142 Y110.019 E23.06103
G1 X75.175 Y107.478 E23.14555
G1 X75.136 Y104.962 E23.22924
G1 X75.024 Y102.413 E23.31411
G1 X74.892 Y100.499 E23.37792
G1 X74.879 Y100.26 E23.38588
G1 X74.869 Y99.339 E23.41651
G1 X74.938 Y98.421 E23.44713
G1 X75.005 Y97.953 E23.46286
G1 X75.052 Y97.669 E23.47243
G1 X75.242 Y96.768 E23.50306
G1 X75.631 Y95.558 E23.54533
G1 X75.708 Y95.36 E23.5524
G1 X76.078 Y94.517 E23.58302
G1 X76.321 Y94.054 E23.60041
G1 X76.396 Y93.919 E23.60554
G1 X77.12 Y92.791 E23.65013
G1 X77.264 Y92.595 E23.65821
G1 X77.579 Y92.187 E23.67536
G1 X78.788 Y90.698 E23.73915
G1 X80.344 Y88.67 E23.82417
G1 X81.819 Y86.631 E23.90787
G1 X83.252 Y84.528 E23.99251
G1 X84.602 Y82.419 E24.0758
G1 X85.906 Y80.247 E24.16006
G1 X87.157 Y78.028 E24.24478
G1 X88.334 Y75.793 E24.3288
G1 X89.438 Y73.544 E24.41213
G1 X90.494 Y71.227 E24.49682
G1 X91.47 Y68.919 E24.58016
G1 X92.407 Y66.518 E24.66589
G1 X93.252 Y64.149 E24.74954
G1 X94.077 Y61.611 E24.8383
