;FLAVOR:Marlin
M73 P0
M73 R17
;TIME:1048
;Filament used: 0.476152m
;Layer height: 0.2
;MINX:60.821
;MINY:69.828
;MINZ:0.2
;MAXX:153.906
;MAXY:144.507
;MAXZ:8.6
;POSTPROCESSED
;Generated with Cura_SteamEngine 4.9.1
M140 S50
M105
M190 S50
M104 S215
M105
M109 S215
M82 ;absolute extrusion mode
; Ender 3 Custom Start G-code
G92 E0 ; Reset Extruder
G28 ; Home all axes
G1 Z2.0 F3000 ; Move Z Axis up little to prevent scratching of Heat Bed
G1 X0.1 Y20 Z0.3 F5000.0 ; Move to start position
G1 X0.1 Y200.0 Z0.3 F1500.0 E15 ; Draw the first line
G1 X0.4 Y200.0 Z0.3 F5000.0 ; Move to side a little
G1 X0.4 Y20 Z0.3 F1500.0 E30 ; Draw the second line
G92 E0 ; Reset Extruder
G1 Z2.0 F3000 ; Move Z Axis up little to prevent scratching of Heat Bed
G1 X5 Y20 Z0.3 F5000.0 ; Move over to prevent blob squish
G92 E0
G92 E0
G1 F2700 E-5
;LAYER_COUNT:43
;LAYER:0
M107
G0 F6000 X65.384 Y83.716 Z0.2
;TYPE:SKIRT
G1 F2700 E0
G1 F1200 X66.169 Y83.186 E0.0315
G1 X67.14 Y82.59 E0.0694
G1 X67.53 Y82.358 E0.08449
G1 X69.664 Y81.008 E0.16848
G1 X71.736 Y79.613 E0.25156
G1 X73.787 Y78.147 E0.33541
G1 X75.81 Y76.61 E0.41991
G1 X77.744 Y75.056 E0.50243
G1 X79.678 Y73.408 E0.58694
G1 X79.991 Y73.132 E0.60082
G1 X80.687 Y72.54 E0.63121
G1 X81.427 Y71.963 E0.66242
G1 X82.213 Y71.452 E0.6936
G1 X83.04 Y71.009 E0.7248
G1 X83.901 Y70.638 E0.75599
G1 X84.421 Y70.455 E0.77432
G1 X84.714 Y70.36 E0.78457
G1 X85.618 Y70.109 E0.81577
G1 X86.54 Y69.936 E0.84697
G1 X87.473 Y69.842 E0.87816
G1 X88.411 Y69.828 E0.90936
G1 X89.22 Y69.88 E0.93632
G1 X89.279 Y69.886 E0.9383
G1 X90.207 Y70.021 E0.96949
G1 X91.531 Y70.357 E1.01492
G1 X92.025 Y70.516 E1.03218
G1 X94.512 Y71.277 E1.11868
G1 X96.902 Y71.934 E1.20112
G1 X99.373 Y72.54 E1.28575
G1 X101.832 Y73.07 E1.36941
G1 X104.326 Y73.532 E1.45377
G1 X106.785 Y73.917 E1.53656
G1 X109.28 Y74.236 E1.62022
G1 X111.795 Y74.485 E1.70427
G1 X114.294 Y74.662 E1.7876
G1 X116.821 Y74.769 E1.87172
G1 X118.165 Y74.797 E1.91643
G1 X119.431 Y74.815 E1.95855
G1 X120.367 Y74.868 E1.98973
G1 X121.296 Y75.001 E2.02094
G1 X121.807 Y75.109 E2.03831
G1 X122.048 Y75.166 E2.04655
G1 X122.95 Y75.421 E2.07773
G1 X123.828 Y75.751 E2.10892
G1 X125.041 Y76.359 E2.15405
G1 X125.239 Y76.474 E2.16167
G1 X126.028 Y76.979 E2.19282
G1 X126.969 Y77.639 E2.23105
G1 X127.057 Y77.694 E2.2345
G1 X128.937 Y78.984 E2.31034
G1 X131.039 Y80.34 E2.39354
G1 X133.185 Y81.639 E2.47697
G1 X135.402 Y82.897 E2.56175
G1 X137.611 Y84.07 E2.64494
G1 X139.843 Y85.175 E2.72778
G1 X142.164 Y86.243 E2.81275
G1 X144.436 Y87.211 E2.89489
G1 X145.825 Y87.755 E2.94451
G1 X146.753 Y88.13 E2.9778
G1 X147.34 Y88.387 E2.99911
G1 X147.526 Y88.475 E3.00595
G1 X148.356 Y88.912 E3.03715
G1 X149.146 Y89.418 E3.06836
G1 X149.89 Y89.989 E3.09955
G1 X150.582 Y90.622 E3.13074
G1 X151.218 Y91.311 E3.16193
G1 X151.793 Y92.052 E3.19312
G1 X152.302 Y92.839 E3.2243
G1 X152.743 Y93.667 E3.2555
G1 X153.014 Y94.281 E3.27782
G1 X153.096 Y94.483 E3.28507
G1 X153.412 Y95.366 E3.31627
G1 X153.651 Y96.273 E3.34746
G1 X153.812 Y97.197 E3.37866
G1 X153.893 Y98.131 E3.40984
G1 X153.883 Y99.298 E3.44866
G1 X153.818 Y100.35 E3.48371
G1 X153.732 Y101.457 E3.52064
G1 X153.605 Y103.983 E3.60476
G1 X153.551 Y106.471 E3.68753
G1 X153.567 Y109.031 E3.77268
G1 X153.653 Y111.521 E3.85555
G1 X153.831 Y114.284 E3.94764
G1 X153.871 Y114.788 E3.96445
G1 X153.906 Y115.725 E3.99564
G1 X153.861 Y116.662 E4.02684
G1 X153.755 Y117.487 E4.05451
G1 X153.726 Y117.66 E4.06034
G1 X153.531 Y118.577 E4.09152
G1 X153.259 Y119.475 E4.12273
G1 X152.912 Y120.346 E4.15391
G1 X152.492 Y121.184 E4.18509
G1 X152.002 Y121.984 E4.21629
G1 X151.445 Y122.739 E4.2475
G1 X150.827 Y123.444 E4.27868
G1 X150.15 Y124.093 E4.30987
G1 X149.438 Y124.67 E4.34035
G1 X149.255 Y124.806 E4.34794
G1 X148.479 Y125.333 E4.37914
G1 X147.661 Y125.792 E4.41033
G1 X146.739 Y126.206 E4.44395
G1 X144.302 Y127.17 E4.53111
G1 X141.978 Y128.165 E4.6152
G1 X139.715 Y129.213 E4.69814
G1 X137.448 Y130.341 E4.78236
G1 X135.229 Y131.523 E4.86599
G1 X133.029 Y132.778 E4.95023
G1 X130.879 Y134.085 E5.03391
G1 X128.78 Y135.444 E5.11708
G1 X126.53 Y136.996 E5.20799
G1 X126.1 Y137.302 E5.22555
G1 X125.779 Y137.522 E5.23849
G1 X125.679 Y137.588 E5.24247
G1 X124.875 Y138.07 E5.27365
G1 X124.015 Y138.491 E5.3055
G1 X123.82 Y138.576 E5.31257
G1 X122.946 Y138.913 E5.34373
G1 X122.045 Y139.175 E5.37494
G1 X120.683 Y139.42 E5.42097
G1 X120.431 Y139.449 E5.4294
G1 X119.299 Y139.52 E5.46713
G1 X117.097 Y139.545 E5.54037
G1 X114.612 Y139.644 E5.62309
G1 X112.045 Y139.818 E5.70866
G1 X109.58 Y140.056 E5.79103
G1 X107.067 Y140.37 E5.87526
G1 X104.599 Y140.75 E5.95832
G1 X102.078 Y141.211 E6.04356
G1 X99.693 Y141.717 E6.12465
G1 X97.172 Y142.328 E6.21092
G1 X94.773 Y142.981 E6.29362
G1 X92.335 Y143.719 E6.37834
G1 X91.851 Y143.877 E6.39527
G1 X91.372 Y144.022 E6.41192
G1 X91.062 Y144.108 E6.42262
G1 X90.148 Y144.32 E6.45382
G1 X89.22 Y144.453 E6.48501
G1 X88.283 Y144.507 E6.51622
G1 X87.346 Y144.481 E6.5474
G1 X86.414 Y144.375 E6.5786
G1 X85.494 Y144.19 E6.60981
G1 X84.977 Y144.049 E6.62763
G1 X84.682 Y143.961 E6.63787
G1 X83.795 Y143.655 E6.66908
G1 X82.938 Y143.274 E6.70027
G1 X82.116 Y142.822 E6.73147
G1 X81.388 Y142.339 E6.76053
G1 X81.255 Y142.243 E6.76599
G1 X80.437 Y141.592 E6.80076
G1 X79.69 Y140.937 E6.8338
G1 X77.761 Y139.291 E6.91814
G1 X75.798 Y137.71 E7.00198
G1 X73.784 Y136.183 E7.08604
G1 X71.763 Y134.736 E7.16871
G1 X69.616 Y133.289 E7.25482
G1 X67.543 Y131.976 E7.33644
G1 X66.318 Y131.24 E7.38397
G1 X65.536 Y130.723 E7.41515
G1 X64.8 Y130.141 E7.44636
G1 X64.116 Y129.499 E7.47756
G1 X63.49 Y128.801 E7.50874
G1 X62.837 Y127.921 E7.54519
G1 X62.672 Y127.674 E7.55507
G1 X62.185 Y126.873 E7.58625
G1 X61.768 Y126.033 E7.61744
G1 X61.424 Y125.16 E7.64865
G1 X61.155 Y124.262 E7.67983
G1 X60.964 Y123.344 E7.71102
G1 X60.852 Y122.413 E7.7422
G1 X60.823 Y121.865 E7.76046
G1 X60.821 Y121.792 E7.76289
G1 X60.835 Y120.854 E7.79409
G1 X60.91 Y120.065 E7.82045
G1 X61.075 Y118.802 E7.86281
G1 X61.381 Y116.185 E7.95045
G1 X61.598 Y113.704 E8.03328
G1 X61.749 Y111.169 E8.11774
G1 X61.827 Y108.649 E8.2016
G1 X61.835 Y106.13 E8.28538
G1 X61.77 Y103.634 E8.36843
G1 X61.635 Y101.117 E8.45226
G1 X61.427 Y98.591 E8.53656
G1 X61.152 Y96.109 E8.61962
G1 X61.051 Y95.374 E8.6443
G1 X60.916 Y94.308 E8.68004
G1 X60.838 Y93.373 E8.71124
G1 X60.84 Y92.436 E8.74241
G1 X60.912 Y91.575 E8.77114
G1 X60.948 Y91.284 E8.7809
G1 X61.103 Y90.359 E8.81209
G1 X61.336 Y89.451 E8.84327
G1 X61.645 Y88.566 E8.87445
G1 X62.029 Y87.71 E8.90565
G1 X62.484 Y86.89 E8.93684
G1 X63.008 Y86.112 E8.96804
G1 X63.297 Y85.736 E8.98381
G1 X63.359 Y85.659 E8.9871
G1 X63.978 Y84.954 E9.0183
G1 X64.655 Y84.305 E9.0495
G1 X65.384 Y83.716 E9.08067
G0 F6000 X65.663 Y84.007
G1 F1200 X66.378 Y83.526 E9.10933
G1 X67.213 Y83.013 E9.14193
G1 X67.727 Y82.707 E9.16182
G1 X69.871 Y81.35 E9.24621
G1 X71.971 Y79.937 E9.3304
G1 X74.038 Y78.458 E9.41493
G1 X76.035 Y76.942 E9.49833
G1 X78.012 Y75.353 E9.58269
G1 X79.939 Y73.711 E9.66689
G1 X80.25 Y73.437 E9.68068
G1 X80.946 Y72.845 E9.71107
G1 X81.673 Y72.279 E9.74171
G1 X82.446 Y71.779 E9.77233
G1 X83.259 Y71.348 E9.80294
G1 X84.107 Y70.988 E9.83358
G1 X84.545 Y70.836 E9.849
G1 X84.838 Y70.741 E9.85924
G1 X85.725 Y70.495 E9.88986
G1 X86.63 Y70.327 E9.92047
G1 X87.547 Y70.239 E9.95111
G1 X88.467 Y70.23 E9.98171
G1 X89.179 Y70.278 E10.00545
G1 X89.238 Y70.284 E10.00742
G1 X90.149 Y70.417 E10.03804
G1 X91.409 Y70.738 E10.08129
G1 X91.934 Y70.907 E10.09963
G1 X94.363 Y71.65 E10.18412
G1 X96.839 Y72.331 E10.26953
G1 X99.269 Y72.927 E10.35274
G1 X101.78 Y73.468 E10.43818
G1 X104.222 Y73.92 E10.52078
G1 X106.714 Y74.311 E10.60468
G1 X109.261 Y74.636 E10.69008
G1 X111.76 Y74.884 E10.7736
G1 X114.25 Y75.06 E10.85663
G1 X116.842 Y75.169 E10.94291
G1 X118.157 Y75.197 E10.98666
G1 X119.425 Y75.215 E11.02884
G1 X120.344 Y75.268 E11.05945
G1 X121.255 Y75.401 E11.09008
G1 X121.715 Y75.499 E11.10572
G1 X121.956 Y75.556 E11.11396
G1 X122.842 Y75.806 E11.14458
G1 X123.702 Y76.133 E11.17518
G1 X124.84 Y76.705 E11.21754
G1 X125.038 Y76.82 E11.22515
M73 P1
G1 X125.798 Y77.306 E11.25516
G1 X126.727 Y77.957 E11.29289
G1 X126.83 Y78.024 E11.29698
G1 X128.699 Y79.306 E11.37236
G1 X130.836 Y80.685 E11.45695
G1 X132.986 Y81.986 E11.54053
G1 X135.196 Y83.24 E11.62504
G1 X137.411 Y84.416 E11.70845
G1 X139.707 Y85.553 E11.79367
G1 X141.989 Y86.604 E11.87723
G1 X144.299 Y87.588 E11.96074
G1 X145.784 Y88.17 E12.01379
G1 X146.604 Y88.501 E12.0432
G1 X147.169 Y88.748 E12.06371
G1 X147.355 Y88.836 E12.07056
G1 X148.17 Y89.266 E12.10121
G1 X148.944 Y89.764 E12.13182
G1 X149.671 Y90.328 E12.16242
G1 X150.348 Y90.953 E12.19307
G1 X150.967 Y91.634 E12.22368
G1 X151.525 Y92.367 E12.25432
G1 X152.017 Y93.144 E12.2849
G1 X152.44 Y93.962 E12.31553
G1 X152.644 Y94.431 E12.33254
G1 X152.726 Y94.633 E12.3398
G1 X153.035 Y95.5 E12.37041
G1 X153.267 Y96.391 E12.40103
G1 X153.421 Y97.299 E12.43166
G1 X153.496 Y98.216 E12.46226
G1 X153.484 Y99.274 E12.49746
G1 X153.419 Y100.326 E12.53251
G1 X153.335 Y101.407 E12.56857
G1 X153.205 Y103.99 E12.65459
G1 X153.151 Y106.465 E12.73693
G1 X153.167 Y109.013 E12.82168
G1 X153.255 Y111.561 E12.90648
G1 X153.433 Y114.34 E12.9991
G1 X153.472 Y114.82 E13.01512
G1 X153.506 Y115.74 E13.04574
G1 X153.46 Y116.659 E13.07634
G1 X153.36 Y117.42 E13.10187
G1 X153.331 Y117.593 E13.1077
G1 X153.14 Y118.494 E13.13834
G1 X152.871 Y119.374 E13.16894
G1 X152.526 Y120.228 E13.19958
G1 X152.109 Y121.049 E13.2302
G1 X151.623 Y121.831 E13.26083
G1 X151.07 Y122.567 E13.29145
G1 X150.455 Y123.252 E13.32206
G1 X149.784 Y123.882 E13.35268
G1 X149.2 Y124.349 E13.37755
G1 X149.017 Y124.485 E13.38513
G1 X148.255 Y125.001 E13.41574
G1 X147.451 Y125.45 E13.44637
G1 X146.592 Y125.834 E13.47766
G1 X144.147 Y126.801 E13.56511
G1 X141.818 Y127.799 E13.64939
G1 X139.548 Y128.85 E13.73259
G1 X137.261 Y129.987 E13.81754
G1 X135.022 Y131.18 E13.90192
G1 X132.829 Y132.431 E13.98589
G1 X130.676 Y133.74 E14.0697
G1 X128.565 Y135.106 E14.15333
G1 X126.277 Y136.685 E14.24579
G1 X125.868 Y136.976 E14.26248
G1 X125.559 Y137.188 E14.27495
G1 X125.459 Y137.254 E14.27893
G1 X124.669 Y137.727 E14.30956
G1 X123.856 Y138.124 E14.33965
G1 X123.661 Y138.209 E14.34672
G1 X122.801 Y138.54 E14.37737
G1 X121.917 Y138.795 E14.40797
G1 X120.637 Y139.023 E14.45122
G1 X120.385 Y139.052 E14.45965
G1 X119.295 Y139.12 E14.49598
G1 X117.113 Y139.145 E14.56856
G1 X114.568 Y139.246 E14.65327
G1 X112.012 Y139.42 E14.73848
G1 X109.532 Y139.658 E14.82134
G1 X107.024 Y139.972 E14.90541
G1 X104.503 Y140.36 E14.99025
G1 X102.029 Y140.813 E15.0739
G1 X99.588 Y141.331 E15.1569
G1 X97.078 Y141.939 E15.24279
G1 X94.668 Y142.595 E15.32587
G1 X92.222 Y143.335 E15.41086
G1 X91.727 Y143.497 E15.42819
G1 X91.265 Y143.636 E15.44423
G1 X90.955 Y143.722 E15.45493
G1 X90.058 Y143.93 E15.48556
G1 X89.146 Y144.058 E15.51619
G1 X88.227 Y144.107 E15.5468
G1 X87.307 Y144.077 E15.57741
G1 X86.393 Y143.966 E15.60804
G1 X85.091 Y143.666 E15.65248
G1 X84.796 Y143.578 E15.66272
G1 X83.926 Y143.276 E15.69335
G1 X83.085 Y142.901 E15.72397
G1 X82.281 Y142.454 E15.75457
G1 X81.622 Y142.015 E15.78091
G1 X81.489 Y141.919 E15.78636
G1 X80.701 Y141.291 E15.81987
G1 X80.005 Y140.68 E15.85068
G1 X78.004 Y138.974 E15.93814
G1 X76.028 Y137.382 E16.02254
G1 X74.037 Y135.871 E16.10567
G1 X71.973 Y134.395 E16.19006
G1 X69.873 Y132.98 E16.27429
G1 X67.721 Y131.616 E16.35903
G1 X66.524 Y130.897 E16.40547
G1 X65.756 Y130.389 E16.4361
G1 X65.036 Y129.816 E16.4667
G1 X64.367 Y129.183 E16.49733
G1 X63.756 Y128.494 E16.52796
G1 X63.17 Y127.699 E16.56081
G1 X63.005 Y127.452 E16.57069
G1 X62.527 Y126.665 E16.60132
G1 X62.12 Y125.839 E16.63194
G1 X61.785 Y124.982 E16.66255
G1 X61.526 Y124.098 E16.69319
G1 X61.345 Y123.196 E16.72379
G1 X61.223 Y121.854 E16.7686
G1 X61.221 Y121.781 E16.77103
G1 X61.236 Y120.861 E16.80164
G1 X61.306 Y120.117 E16.82649
G1 X61.485 Y118.748 E16.87241
G1 X61.775 Y116.268 E16.95546
G1 X62 Y113.691 E17.0415
G1 X62.148 Y111.206 E17.1243
G1 X62.227 Y108.662 E17.20895
G1 X62.235 Y106.12 E17.2935
G1 X62.171 Y103.639 E17.37604
G1 X62.032 Y101.062 E17.46188
G1 X61.828 Y98.585 E17.54454
G1 X61.548 Y96.051 E17.62934
G1 X61.448 Y95.324 E17.65375
G1 X61.313 Y94.258 E17.68948
G1 X61.237 Y93.34 E17.72012
G1 X61.241 Y92.42 E17.75072
G1 X61.309 Y91.625 E17.77726
G1 X61.345 Y91.334 E17.78701
G1 X61.498 Y90.426 E17.81764
G1 X61.729 Y89.534 E17.84828
G1 X62.036 Y88.667 E17.87888
G1 X62.417 Y87.829 E17.90949
G1 X62.87 Y87.027 E17.94013
G1 X63.609 Y85.987 E17.98256
G1 X63.671 Y85.91 E17.98585
G1 X64.279 Y85.219 E18.01646
G1 X64.944 Y84.583 E18.04707
G1 X65.663 Y84.007 E18.07771
G0 F6000 X65.941 Y84.299
G1 F1200 X66.588 Y83.867 E18.10359
G1 X67.549 Y83.278 E18.14107
G1 X67.94 Y83.046 E18.1562
G1 X70.087 Y81.687 E18.24071
G1 X72.204 Y80.262 E18.32559
G1 X74.284 Y78.775 E18.41063
G1 X76.264 Y77.271 E18.49333
G1 X78.272 Y75.656 E18.57903
G1 X80.185 Y74.027 E18.6626
G1 X80.509 Y73.741 E18.67698
G1 X81.205 Y73.149 E18.70737
G1 X81.919 Y72.595 E18.73743
G1 X82.678 Y72.106 E18.76746
G1 X83.478 Y71.687 E18.79749
G1 X84.668 Y71.216 E18.84006
G1 X84.961 Y71.121 E18.8503
G1 X85.832 Y70.881 E18.88035
G1 X86.72 Y70.719 E18.91038
G1 X87.619 Y70.636 E18.9404
G1 X88.522 Y70.632 E18.97044
G1 X89.139 Y70.676 E18.99101
G1 X89.198 Y70.682 E18.99298
G1 X90.092 Y70.813 E19.02304
G1 X91.286 Y71.119 E19.06403
G1 X91.776 Y71.276 E19.08115
G1 X94.267 Y72.039 E19.1678
G1 X96.71 Y72.711 E19.25207
G1 X99.195 Y73.32 E19.33717
G1 X101.695 Y73.859 E19.42223
G1 X104.159 Y74.315 E19.50557
G1 X106.669 Y74.708 E19.59007
G1 X109.208 Y75.033 E19.67521
G1 X111.729 Y75.282 E19.75947
G1 X114.24 Y75.461 E19.84319
G1 X116.817 Y75.569 E19.92898
G1 X118.145 Y75.597 E19.97316
G1 X119.42 Y75.615 E20.01557
G1 X120.321 Y75.668 E20.04559
G1 X121.623 Y75.888 E20.08951
G1 X121.864 Y75.945 E20.09775
G1 X122.732 Y76.191 E20.12775
G1 X123.576 Y76.514 E20.15781
G1 X124.639 Y77.051 E20.19742
G1 X124.837 Y77.166 E20.20504
G1 X125.569 Y77.634 E20.23393
G1 X126.545 Y78.318 E20.27357
G1 X126.604 Y78.354 E20.27587
G1 X128.478 Y79.639 E20.35145
G1 X130.618 Y81.02 E20.43616
G1 X132.787 Y82.334 E20.5205
G1 X134.99 Y83.583 E20.60473
G1 X137.267 Y84.792 E20.69048
G1 X139.511 Y85.903 E20.77376
G1 X141.818 Y86.965 E20.85823
G1 X144.146 Y87.957 E20.9424
G1 X145.634 Y88.541 E20.99557
G1 X146.454 Y88.872 E21.02498
G1 X146.998 Y89.11 E21.04473
G1 X147.184 Y89.198 E21.05157
G1 X147.983 Y89.62 E21.08162
G1 X148.741 Y90.111 E21.11166
G1 X149.452 Y90.667 E21.14168
G1 X150.112 Y91.284 E21.17173
G1 X150.714 Y91.957 E21.20176
G1 X151.255 Y92.68 E21.2318
G1 X151.729 Y93.448 E21.26182
G1 X152.273 Y94.581 E21.30362
G1 X152.355 Y94.783 E21.31087
G1 X152.657 Y95.634 E21.3409
G1 X152.883 Y96.509 E21.37096
G1 X153.031 Y97.4 E21.401
G1 X153.099 Y98.3 E21.43102
G1 X153.085 Y99.249 E21.46259
G1 X153.008 Y100.471 E21.50331
G1 X152.933 Y101.427 E21.53521
G1 X152.807 Y103.926 E21.61843
G1 X152.751 Y106.494 E21.70386
G1 X152.767 Y109.029 E21.78818
G1 X152.855 Y111.567 E21.87264
G1 X153.036 Y114.396 E21.96693
G1 X153.073 Y114.852 E21.98215
G1 X153.106 Y115.754 E22.01217
G1 X153.058 Y116.656 E22.04221
G1 X152.966 Y117.354 E22.06563
G1 X152.937 Y117.527 E22.07146
G1 X152.748 Y118.41 E22.10149
G1 X152.482 Y119.274 E22.13156
G1 X152.141 Y120.11 E22.16159
G1 X151.727 Y120.912 E22.19161
G1 X151.244 Y121.675 E22.22164
G1 X150.695 Y122.392 E22.25168
G1 X150.085 Y123.058 E22.28172
G1 X149.418 Y123.668 E22.31178
G1 X148.961 Y124.028 E22.33113
G1 X148.778 Y124.164 E22.33871
G1 X148.03 Y124.67 E22.36875
G1 X147.24 Y125.108 E22.39879
G1 X146.445 Y125.462 E22.42774
