;FLAVOR:Marlin
M73 P0
M73 R62
;TIME:3728
;Filament used: 2.19691m
;Layer height: 0.2
;MINX:33.186
;MINY:49.342
;MINZ:0.2
;MAXX:181.543
;MAXY:164.97
;MAXZ:15.4
;POSTPROCESSED
;Generated with Cura_SteamEngine 4.9.1
M140 S50
M105
M190 S50
M104 S215
M105
M109 S215
M82 ;absolute extrusion mode
; Ender 3 Custom Start G-code
G92 E0 ; Reset Extruder
G28 ; Home all axes
G1 Z2.0 F3000 ; Move Z Axis up little to prevent scratching of Heat Bed
G1 X0.1 Y20 Z0.3 F5000.0 ; Move to start position
G1 X0.1 Y200.0 Z0.3 F1500.0 E15 ; Draw the first line
G1 X0.4 Y200.0 Z0.3 F5000.0 ; Move to side a little
G1 X0.4 Y20 Z0.3 F1500.0 E30 ; Draw the second line
G92 E0 ; Reset Extruder
G1 Z2.0 F3000 ; Move Z Axis up little to prevent scratching of Heat Bed
G1 X5 Y20 Z0.3 F5000.0 ; Move over to prevent blob squish
G92 E0
G92 E0
G1 F2700 E-5
;LAYER_COUNT:77
;LAYER:0
M107
G0 F6000 X39.224 Y71.485 Z0.2
;TYPE:SKIRT
G1 F2700 E0
G1 F1200 X39.825 Y71.167 E0.02262
G1 X41.695 Y70.216 E0.09239
G1 X43.87 Y69.029 E0.17481
G1 X46.044 Y67.764 E0.25846
G1 X48.197 Y66.427 E0.34276
G1 X50.278 Y65.052 E0.42571
G1 X52.352 Y63.595 E0.51002
G1 X54.361 Y62.098 E0.59335
G1 X56.341 Y60.533 E0.67729
G1 X58.286 Y58.905 E0.76165
G1 X60.161 Y57.242 E0.84501
G1 X61.985 Y55.531 E0.92819
G1 X63.972 Y53.552 E1.02146
G1 X64.475 Y53.036 E1.04543
G1 X65.158 Y52.393 E1.07663
G1 X65.633 Y52.005 E1.09703
G1 X65.882 Y51.813 E1.10749
G1 X66.648 Y51.272 E1.13868
G1 X67.352 Y50.856 E1.16588
G1 X67.551 Y50.748 E1.17341
G1 X68.394 Y50.336 E1.20461
G1 X69.079 Y50.064 E1.22913
G1 X69.182 Y50.027 E1.23277
G1 X70.078 Y49.748 E1.26398
G1 X71.108 Y49.526 E1.29902
G1 X71.332 Y49.489 E1.30658
G1 X72.263 Y49.376 E1.33777
G1 X73.201 Y49.342 E1.36899
G1 X74.137 Y49.389 E1.40016
G1 X74.869 Y49.481 E1.4247
G1 X75.062 Y49.512 E1.4312
G1 X75.981 Y49.7 E1.4624
G1 X76.881 Y49.966 E1.49361
G1 X77.974 Y50.407 E1.53281
G1 X78.435 Y50.622 E1.54973
G1 X80.749 Y51.661 E1.6341
G1 X83.107 Y52.642 E1.71904
G1 X85.447 Y53.537 E1.80237
G1 X87.802 Y54.361 E1.88535
G1 X90.219 Y55.132 E1.96973
G1 X92.644 Y55.831 E2.05367
G1 X95.054 Y56.452 E2.13645
G1 X97.54 Y57.019 E2.22125
G1 X99.998 Y57.507 E2.3046
G1 X102.453 Y57.922 E2.38742
G1 X104.991 Y58.277 E2.47265
G1 X107.465 Y58.552 E2.55544
G1 X109.965 Y58.76 E2.63888
G1 X112.503 Y58.897 E2.72342
G1 X115 Y58.963 E2.8065
G1 X117.519 Y58.957 E2.89028
G1 X120.048 Y58.88 E2.97443
G1 X122.521 Y58.734 E3.05683
G1 X126.318 Y58.378 E3.18367
G1 X127.273 Y58.27 E3.21564
G1 X128.209 Y58.204 E3.24685
G1 X129.147 Y58.218 E3.27805
G1 X130.522 Y58.385 E3.32412
G1 X130.818 Y58.44 E3.33413
G1 X131.731 Y58.651 E3.3653
G1 X132.9 Y59.044 E3.40632
G1 X133.182 Y59.157 E3.41642
G1 X134.036 Y59.543 E3.44759
G1 X135.005 Y60.094 E3.48467
G1 X135.201 Y60.219 E3.4924
G1 X135.972 Y60.758 E3.52369
G1 X136.053 Y60.82 E3.52708
G1 X136.664 Y61.324 E3.55342
G1 X136.771 Y61.419 E3.55818
G1 X138.766 Y63.136 E3.64573
G1 X140.71 Y64.715 E3.72903
G1 X142.679 Y66.224 E3.81154
G1 X144.735 Y67.708 E3.89587
G1 X146.828 Y69.132 E3.98007
G1 X148.954 Y70.491 E4.06399
G1 X151.114 Y71.788 E4.14779
G1 X153.285 Y73.009 E4.23064
G1 X155.545 Y74.198 E4.31557
G1 X157.768 Y75.287 E4.3979
G1 X160.096 Y76.348 E4.483
G1 X162.389 Y77.316 E4.56578
G1 X164.729 Y78.226 E4.64929
G1 X167.098 Y79.071 E4.73294
G1 X169.511 Y79.856 E4.81734
G1 X172.034 Y80.597 E4.9048
G1 X173.019 Y80.872 E4.93881
G1 X174.181 Y81.267 E4.97963
G1 X174.404 Y81.357 E4.98763
G1 X175.258 Y81.745 E5.01883
G1 X176.076 Y82.204 E5.05003
G1 X176.851 Y82.731 E5.0812
G1 X177.543 Y83.291 E5.11081
G1 X177.731 Y83.456 E5.11913
G1 X178.409 Y84.104 E5.15032
G1 X179.029 Y84.807 E5.1815
G1 X179.587 Y85.561 E5.21269
G1 X180.079 Y86.36 E5.2439
G1 X180.501 Y87.197 E5.27508
G1 X180.765 Y87.834 E5.29801
G1 X180.813 Y87.961 E5.30253
G1 X181.106 Y88.852 E5.33373
G1 X181.323 Y89.764 E5.36491
G1 X181.471 Y90.781 E5.39909
G1 X181.492 Y90.996 E5.40627
G1 X181.543 Y91.932 E5.43745
G1 X181.505 Y92.996 E5.47286
G1 X181.496 Y93.102 E5.4764
G1 X181.444 Y93.579 E5.49236
G1 X181.37 Y94.145 E5.51134
G1 X181.122 Y95.889 E5.56993
G1 X180.837 Y98.392 E5.65372
G1 X180.623 Y100.908 E5.73771
G1 X180.481 Y103.421 E5.82142
G1 X180.409 Y105.916 E5.90444
G1 X180.409 Y108.441 E5.98842
G1 X180.48 Y110.99 E6.07324
G1 X180.62 Y113.453 E6.15529
G1 X180.835 Y115.99 E6.23997
G1 X181.122 Y118.521 E6.32469
G1 X181.391 Y120.457 E6.3897
G1 X181.423 Y120.671 E6.3969
G1 X181.522 Y121.604 E6.42811
G1 X181.541 Y122.542 E6.45931
G1 X181.481 Y123.477 E6.49047
G1 X181.381 Y124.186 E6.51429
G1 X181.331 Y124.473 E6.52398
G1 X181.131 Y125.389 E6.55516
G1 X180.828 Y126.355 E6.58883
G1 X180.47 Y127.222 E6.62003
G1 X180.04 Y128.055 E6.65121
G1 X179.54 Y128.849 E6.68242
G1 X178.974 Y129.597 E6.71362
G1 X178.347 Y130.294 E6.7448
G1 X177.851 Y130.77 E6.76766
G1 X177.64 Y130.96 E6.77711
G1 X176.917 Y131.558 E6.80831
G1 X176.145 Y132.091 E6.83952
G1 X175.331 Y132.557 E6.87071
G1 X174.481 Y132.952 E6.90189
G1 X173.931 Y133.162 E6.92147
G1 X173.681 Y133.25 E6.93028
G1 X172.983 Y133.47 E6.95463
G1 X171.95 Y133.758 E6.99029
G1 X169.434 Y134.499 E7.07753
G1 X167.046 Y135.276 E7.16105
G1 X164.697 Y136.117 E7.24404
G1 X162.367 Y137.024 E7.3272
G1 X160.005 Y138.022 E7.41248
G1 X157.751 Y139.05 E7.49488
G1 X155.486 Y140.162 E7.5788
G1 X153.246 Y141.341 E7.663
G1 X151.058 Y142.573 E7.74651
G1 X148.904 Y143.868 E7.83011
G1 X146.759 Y145.239 E7.91478
G1 X144.704 Y146.639 E7.99748
G1 X142.658 Y148.118 E8.08145
G1 X140.672 Y149.641 E8.16469
G1 X138.691 Y151.251 E8.2496
G1 X137.001 Y152.701 E8.32366
G1 X136.593 Y153.06 E8.34173
G1 X135.996 Y153.549 E8.3674
G1 X135.916 Y153.61 E8.37075
G1 X135.146 Y154.147 E8.40197
G1 X134.593 Y154.476 E8.42337
G1 X134.282 Y154.649 E8.43521
G1 X133.444 Y155.069 E8.46639
G1 X132.206 Y155.538 E8.51042
G1 X131.962 Y155.614 E8.51892
G1 X131.056 Y155.855 E8.5501
G1 X129.884 Y156.047 E8.5896
G1 X129.719 Y156.065 E8.59512
G1 X128.783 Y156.127 E8.62632
G1 X127.404 Y156.073 E8.67222
G1 X126.409 Y155.971 E8.70549
G1 X125.44 Y155.856 E8.73794
G1 X122.892 Y155.624 E8.82304
G1 X120.396 Y155.466 E8.90622
G1 X117.909 Y155.38 E8.98899
G1 X115.35 Y155.364 E9.07411
G1 X112.862 Y155.418 E9.15688
G1 X110.343 Y155.545 E9.24076
G1 X107.851 Y155.741 E9.3239
G1 X105.32 Y156.012 E9.40857
G1 X102.805 Y156.354 E9.49299
G1 X100.381 Y156.754 E9.5747
G1 X97.875 Y157.24 E9.6596
G1 X95.454 Y157.781 E9.74211
G1 X92.959 Y158.413 E9.82772
G1 X90.566 Y159.092 E9.91045
G1 X88.152 Y159.852 E9.99462
G1 X85.802 Y160.665 E10.07733
G1 X83.418 Y161.566 E10.1621
G1 X81.103 Y162.517 E10.24534
G1 X78.085 Y163.874 E10.3554
G1 X77.663 Y164.058 E10.37071
G1 X76.789 Y164.396 E10.40188
G1 X75.888 Y164.658 E10.43309
G1 X74.969 Y164.843 E10.46426
G1 X74.037 Y164.948 E10.49546
G1 X72.947 Y164.97 E10.53172
G1 X72.638 Y164.961 E10.542
G1 X71.702 Y164.894 E10.57321
G1 X70.776 Y164.747 E10.6044
G1 X69.42 Y164.381 E10.65111
G1 X69.211 Y164.31 E10.65845
G1 X68.336 Y163.971 E10.68966
G1 X67.125 Y163.348 E10.73496
G1 X66.888 Y163.207 E10.74413
G1 X66.103 Y162.694 E10.77532
G1 X65.493 Y162.223 E10.80095
G1 X65.347 Y162.102 E10.80726
G1 X64.476 Y161.298 E10.84669
G1 X64.034 Y160.843 E10.86778
G1 X62.223 Y159.032 E10.95297
G1 X60.392 Y157.301 E11.03677
G1 X58.525 Y155.635 E11.12
G1 X56.587 Y154 E11.20433
G1 X54.623 Y152.437 E11.28782
G1 X52.596 Y150.915 E11.37212
G1 X50.554 Y149.471 E11.45531
G1 X48.464 Y148.079 E11.53883
G1 X46.324 Y146.74 E11.62279
G1 X44.143 Y145.46 E11.7069
G1 X41.991 Y144.276 E11.78859
G1 X40.931 Y143.739 E11.82812
G1 X39.296 Y142.882 E11.88951
G1 X38.485 Y142.411 E11.92071
G1 X37.717 Y141.873 E11.95189
G1 X37.026 Y141.299 E11.98177
G1 X36.88 Y141.167 E11.98832
G1 X36.212 Y140.508 E12.01953
G1 X35.602 Y139.796 E12.05071
G1 X35.055 Y139.034 E12.08191
G1 X34.575 Y138.228 E12.11311
G1 X34.166 Y137.384 E12.14431
G1 X33.849 Y136.568 E12.17342
G1 X33.784 Y136.378 E12.1801
G1 X33.519 Y135.478 E12.21131
G1 X33.331 Y134.559 E12.2425
G1 X33.199 Y133.215 E12.28742
G1 X33.191 Y132.994 E12.29478
G1 X33.197 Y132.056 E12.32598
G1 X33.283 Y131.122 E12.35717
G1 X33.368 Y130.593 E12.37499
G1 X33.383 Y130.512 E12.37773
G1 X33.502 Y129.95 E12.39684
G1 X33.649 Y129.337 E12.4178
G1 X33.995 Y127.979 E12.46442
G1 X34.554 Y125.496 E12.54907
G1 X35.042 Y123.006 E12.63346
G1 X35.448 Y120.572 E12.71553
G1 X35.798 Y118.027 E12.80098
G1 X36.064 Y115.583 E12.88275
G1 X36.27 Y113.018 E12.96833
G1 X36.4 Y110.534 E13.05106
G1 X36.459 Y108.013 E13.13494
G1 X36.447 Y105.489 E13.21889
G1 X36.363 Y102.949 E13.30341
G1 X36.212 Y100.483 E13.38559
G1 X35.985 Y97.958 E13.46991
G1 X35.69 Y95.463 E13.55347
G1 X35.322 Y92.962 E13.63755
G1 X34.885 Y90.486 E13.72117
G1 X34.386 Y88.052 E13.80381
G1 X33.796 Y85.541 E13.8896
G1 X33.675 Y85.078 E13.90552
G1 X33.616 Y84.842 E13.91361
G1 X33.48 Y84.269 E13.9332
G1 X33.303 Y83.348 E13.96439
G1 X33.204 Y82.416 E13.99556
G1 X33.186 Y81.478 E14.02677
G1 X33.263 Y80.408 E14.06245
G1 X33.304 Y80.069 E14.0738
G1 X33.456 Y79.144 E14.10498
G1 X33.686 Y78.235 E14.13617
G1 X33.993 Y77.349 E14.16736
G1 X34.375 Y76.492 E14.19856
G1 X34.828 Y75.671 E14.22975
G1 X35.349 Y74.891 E14.26095
G1 X35.863 Y74.242 E14.28848
G1 X36.028 Y74.049 E14.29693
G1 X36.667 Y73.363 E14.32811
G1 X37.363 Y72.733 E14.35934
G1 X38.109 Y72.166 E14.3905
G1 X39.224 Y71.485 E14.43396
G0 F6000 X39.412 Y71.838
G1 F1200 X39.837 Y71.612 E14.44997
G1 X41.847 Y70.588 E14.52499
G1 X44.058 Y69.382 E14.60876
G1 X46.276 Y68.09 E14.69413
G1 X48.398 Y66.773 E14.7772
G1 X50.531 Y65.364 E14.86223
G1 X52.552 Y63.945 E14.94436
G1 X54.624 Y62.4 E15.03032
G1 X56.601 Y60.838 E15.11413
G1 X58.524 Y59.227 E15.19756
G1 X60.436 Y57.532 E15.28255
G1 X62.257 Y55.823 E15.36561
G1 X64.292 Y53.797 E15.46112
G1 X64.762 Y53.315 E15.48351
G1 X65.432 Y52.684 E15.51412
G1 X65.877 Y52.322 E15.5332
G1 X66.126 Y52.13 E15.54366
G1 X66.879 Y51.6 E15.57428
G1 X67.543 Y51.208 E15.59993
G1 X67.742 Y51.1 E15.60746
G1 X68.569 Y50.696 E15.63807
G1 X69.214 Y50.44 E15.66116
G1 X69.317 Y50.403 E15.6648
G1 X70.197 Y50.13 E15.69544
G1 X71.174 Y49.921 E15.72867
G1 X71.398 Y49.884 E15.73622
G1 X72.312 Y49.773 E15.76685
G1 X73.232 Y49.743 E15.79746
G1 X74.151 Y49.792 E15.82807
G1 X74.806 Y49.876 E15.85003
G1 X74.999 Y49.907 E15.85654
G1 X75.901 Y50.092 E15.88716
G1 X76.783 Y50.355 E15.91777
G1 X77.805 Y50.769 E15.95445
G1 X78.228 Y50.967 E15.96998
G1 X80.624 Y52.042 E16.05733
G1 X82.935 Y53.003 E16.14057
G1 X85.321 Y53.916 E16.22554
G1 X87.696 Y54.748 E16.30924
G1 X90.124 Y55.522 E16.394
G1 X92.506 Y56.209 E16.47646
G1 X94.97 Y56.843 E16.56108
G1 X97.445 Y57.407 E16.64551
G1 X99.925 Y57.9 E16.72961
G1 X102.402 Y58.318 E16.81316
G1 X104.924 Y58.671 E16.89786
G1 X107.424 Y58.95 E16.98152
G1 X109.981 Y59.162 E17.06686
G1 X112.471 Y59.297 E17.1498
G1 X114.99 Y59.363 E17.23361
G1 X117.532 Y59.357 E17.31816
G1 X120.05 Y59.28 E17.40195
G1 X122.551 Y59.133 E17.48527
G1 X126.356 Y58.776 E17.61238
G1 X127.319 Y58.667 E17.64462
G1 X128.237 Y58.604 E17.67522
G1 X129.157 Y58.62 E17.70583
G1 X130.448 Y58.778 E17.74909
G1 X130.744 Y58.833 E17.7591
G1 X131.641 Y59.041 E17.78973
G1 X132.751 Y59.416 E17.82869
G1 X133.033 Y59.529 E17.8388
G1 X133.872 Y59.908 E17.86942
G1 X134.79 Y60.431 E17.90456
G1 X134.986 Y60.556 E17.91229
G1 X135.729 Y61.076 E17.94245
G1 X135.81 Y61.138 E17.94585
G1 X136.399 Y61.623 E17.97122
G1 X136.528 Y61.737 E17.97695
G1 X138.499 Y63.433 E18.06343
G1 X140.461 Y65.027 E18.14751
G1 X142.464 Y66.562 E18.23145
G1 X144.505 Y68.035 E18.31516
G1 X146.609 Y69.467 E18.39981
G1 X148.724 Y70.819 E18.4833
G1 X150.892 Y72.121 E18.56741
G1 X153.109 Y73.368 E18.65202
G1 X155.362 Y74.553 E18.73668
G1 X157.592 Y75.646 E18.81928
G1 X159.924 Y76.709 E18.90452
G1 X162.237 Y77.685 E18.98802
G1 X164.628 Y78.615 E19.07335
G1 X166.976 Y79.453 E19.15627
G1 X169.38 Y80.235 E19.24035
G1 X171.961 Y80.993 E19.32982
G1 X172.911 Y81.258 E19.36263
G1 X174.031 Y81.638 E19.40196
G1 X174.254 Y81.728 E19.40996
G1 X175.092 Y82.11 E19.44059
G1 X175.894 Y82.562 E19.47121
G1 X176.653 Y83.083 E19.50183
G1 X177.279 Y83.591 E19.52865
G1 X177.467 Y83.756 E19.53697
G1 X178.132 Y84.393 E19.56759
G1 X178.739 Y85.085 E19.59821
G1 X179.284 Y85.827 E19.62883
G1 X179.762 Y86.614 E19.65946
G1 X180.171 Y87.439 E19.69008
G1 X180.39 Y87.975 E19.70934
G1 X180.438 Y88.102 E19.71386
G1 X180.726 Y88.977 E19.74449
G1 X180.937 Y89.873 E19.77511
G1 X181.073 Y90.82 E19.80693
G1 X181.094 Y91.035 E19.81412
G1 X181.143 Y91.954 E19.84473
G1 X181.106 Y92.962 E19.87827
G1 X181.097 Y93.068 E19.88181
G1 X181.048 Y93.528 E19.8972
G1 X180.974 Y94.089 E19.91602
G1 X180.727 Y95.824 E19.97431
G1 X180.44 Y98.349 E20.05883
G1 X180.224 Y100.885 E20.14348
G1 X180.082 Y103.388 E20.22687
G1 X180.009 Y105.94 E20.31178
G1 X180.009 Y108.452 E20.39533
G1 X180.08 Y110.988 E20.47971
G1 X180.223 Y113.511 E20.56376
G1 X180.437 Y116.033 E20.64795
G1 X180.722 Y118.542 E20.73193
G1 X181.027 Y120.73 E20.80541
G1 X181.124 Y121.646 E20.83605
G1 X181.141 Y122.566 E20.86665
G1 X181.077 Y123.485 E20.89729
G1 X180.987 Y124.117 E20.91852
G1 X180.937 Y124.404 E20.92821
G1 X180.739 Y125.304 E20.95886
G1 X180.452 Y126.218 E20.99073
G1 X180.1 Y127.069 E21.02136
G1 X179.676 Y127.886 E21.05197
G1 X179.182 Y128.663 E21.08259
G1 X178.623 Y129.395 E21.11323
G1 X178.002 Y130.075 E21.14386
G1 X177.583 Y130.473 E21.16308
G1 X177.372 Y130.663 E21.17252
G1 X176.662 Y131.249 E21.20314
G1 X175.903 Y131.771 E21.23378
G1 X175.103 Y132.225 E21.26437
G1 X174.265 Y132.608 E21.29502
G1 X173.799 Y132.785 E21.3116
G1 X173.549 Y132.873 E21.32041
G1 X172.876 Y133.085 E21.34388
G1 X171.794 Y133.387 E21.38125
G1 X169.334 Y134.111 E21.46653
G1 X166.935 Y134.892 E21.55045
G1 X164.554 Y135.744 E21.63456
G1 X162.172 Y136.671 E21.71957
G1 X159.862 Y137.647 E21.80298
G1 X157.573 Y138.691 E21.88666
G1 X155.316 Y139.799 E21.97028
G1 X153.03 Y141.002 E22.0562
G1 X150.876 Y142.215 E22.13842
G1 X148.688 Y143.531 E22.22334
G1 X146.564 Y144.889 E22.30719
G1 X144.462 Y146.32 E22.39177
G1 X142.442 Y147.78 E22.47467
G1 X140.4 Y149.347 E22.56028
G1 X138.442 Y150.937 E22.64417
G1 X136.779 Y152.364 E22.71705
G1 X136.329 Y152.76 E22.73699
G1 X135.753 Y153.231 E22.76174
G1 X135.673 Y153.292 E22.76508
G1 X134.918 Y153.818 E22.79569
G1 X134.399 Y154.126 E22.81576
G1 X134.088 Y154.299 E22.8276
G1 X133.265 Y154.711 E22.85821
G1 X132.087 Y155.156 E22.90009
G1 X131.843 Y155.232 E22.90859
G1 X130.953 Y155.468 E22.93921
G1 X129.841 Y155.649 E22.97669
G1 X129.676 Y155.667 E22.98221
G1 X128.757 Y155.727 E23.01284
G1 X127.445 Y155.675 E23.05651
G1 X126.271 Y155.553 E23.09577
G1 X125.456 Y155.455 E23.12307
G1 X122.953 Y155.227 E23.20666
G1 X120.434 Y155.068 E23.29061
G1 X117.89 Y154.98 E23.37528
G1 X115.344 Y154.964 E23.45996
G1 X112.868 Y155.018 E23.54233
G1 X110.292 Y155.148 E23.62812
G1 X107.81 Y155.343 E23.71092
G1 X105.26 Y155.616 E23.79622
G1 X102.792 Y155.951 E23.87906
G1 X100.277 Y156.366 E23.96384
G1 X97.783 Y156.85 E24.04834
G1 X95.366 Y157.391 E24.13072
G1 X92.866 Y158.024 E24.21649
G1 X90.475 Y158.702 E24.29915
G1 X88.006 Y159.479 E24.38524
G1 X85.666 Y160.289 E24.4676
G1 X83.273 Y161.193 E24.55268
G1 X80.966 Y162.141 E24.63564
G1 X77.926 Y163.508 E24.7465
G1 X77.504 Y163.692 E24.76182
G1 X76.644 Y164.023 E24.79247
G1 X75.76 Y164.278 E24.82307
G1 X74.857 Y164.455 E24.85367
G1 X73.941 Y164.554 E24.88432
G1 X72.958 Y164.571 E24.91702
G1 X72.649 Y164.562 E24.9273
G1 X71.731 Y164.495 E24.95791
G1 X70.822 Y164.349 E24.98853
G1 X69.548 Y164.003 E25.03244
G1 X69.339 Y163.932 E25.03978
G1 X68.481 Y163.598 E25.0704
G1 X67.329 Y163.005 E25.1135
G1 X67.092 Y162.864 E25.12267
G1 X66.322 Y162.359 E25.1533
G1 X65.748 Y161.915 E25.17743
