
;FLAVOR:Marlin
;TIME:0
;Filament used: 0m
;Layer height: 0
;MINX:0
;MINY:0
;MINZ:0
;MAXX:220
;MAXY:220
;MAXZ:250

;Time to print!!!!!
;GCode created with FullControl - tell us what you're printing!
;info@fullcontrol.xyz or tag FullControlXYZ on Twitter/Instagram 

G28 ; home axes
M140 S50 ; set bed temp and continue
M105
M104 S215 ; set hotend temp and continue
M190 S50 ; set bed temp and wait
M105
M109 S215  ; set hotend temp and wait
G90 ; absolute coordinates
G21 ; set units to millimeters
M83 ; relative extrusion
M106 S255 ; set fan speed
M220 S100 ; set speed factor override percentage
M221 S100 ; set extrude factor override percentage
G0 F8000 X0.0 Y0.0 Z10.0
G1 F250 E20.7876
G0 F250 Z30.0
G0 F8000 X10.0 Y10.0 Z0.3
;-----
; END OF STARTING PROCEDURE
;-----

;-----
; START OF PRIMER PROCEDURE
;-----
G0 F8000 Y14.0 Z0.16
G1 F1000 X110.0 E4.15752
G1 Y12.0 E0.0831503
G1 X10.0 E4.15752
G1 Y14.0 E0.0831503
G1 Y16.0 E0.0831503
G1 X40.0 E1.24726
G1 Y40.0 E0.997804
;-----
; END OF PRIMER PROCEDURE
;-----

G1 X41.9364 Y43.8729 E0.18002
G1 X45.5499 Y46.2587 E0.18002
G1 X41.2277 Y45.9992 E0.18002
G0 F8000 X45.5499 Y46.2587
G0 X41.9364 Y43.8729
G1 F1000 X42.1959 Y39.5506 E0.18002
G1 X46.0687 Y37.6142 E0.18002
G1 X49.6822 Y40.0 E0.18002
G1 X49.4227 Y44.3222 E0.18002
G1 X45.5499 Y46.2587 E0.18002
G0 F8000 X49.4227 Y44.3222
G1 F1000 X47.037 Y47.9357 E0.18002
G0 F8000 X49.4227 Y44.3222
G0 X49.6822 Y40.0
G1 F1000 X51.6186 Y43.8729 E0.18002
G1 X55.232 Y46.2587 E0.18002
G1 X50.9098 Y45.9992 E0.18002
G0 F8000 X55.232 Y46.2587
G0 X51.6186 Y43.8729
G1 F1000 X51.878 Y39.5506 E0.18002
G1 X55.7509 Y37.6142 E0.18002
G1 X59.3643 Y40.0 E0.18002
G1 X59.1049 Y44.3222 E0.18002
G1 X55.232 Y46.2587 E0.18002
G0 F8000 X59.1049 Y44.3222
G1 F1000 X56.7191 Y47.9357 E0.18002
G0 F8000 X59.1049 Y44.3222
G0 X59.3643 Y40.0
G1 F1000 X61.3008 Y43.8729 E0.18002
G1 X64.9142 Y46.2587 E0.18002
G1 X60.592 Y45.9992 E0.18002
G0 F8000 X64.9142 Y46.2587
G0 X61.3008 Y43.8729
G1 F1000 X61.5602 Y39.5506 E0.18002
G1 X65.4331 Y37.6142 E0.18002
G1 X69.0465 Y40.0 E0.18002
G1 X68.7871 Y44.3222 E0.18002
G1 X64.9142 Y46.2587 E0.18002
G0 F8000 X68.7871 Y44.3222
G1 F1000 X66.4013 Y47.9357 E0.18002
G0 F8000 X68.7871 Y44.3222
G0 X69.0465 Y40.0
G1 F1000 X70.983 Y43.8729 E0.18002
G1 X74.5964 Y46.2587 E0.18002
G1 X70.2742 Y45.9992 E0.18002
G0 F8000 X74.5964 Y46.2587
G0 X70.983 Y43.8729
G1 F1000 X71.2424 Y39.5506 E0.18002
G1 X75.1153 Y37.6142 E0.18002
G1 X78.7287 Y40.0 E0.18002
G1 X78.4693 Y44.3222 E0.18002
G1 X74.5964 Y46.2587 E0.18002
G0 F8000 X78.4693 Y44.3222
G1 F1000 X76.0835 Y47.9357 E0.18002
G0 F8000 X78.4693 Y44.3222
G0 X78.7287 Y40.0
G1 F1000 X80.6651 Y43.8729 E0.18002
G1 X84.2786 Y46.2587 E0.18002
G1 X79.9563 Y45.9992 E0.18002
G0 F8000 X84.2786 Y46.2587
G0 X80.6651 Y43.8729
G1 F1000 X80.9246 Y39.5506 E0.18002
G1 X84.7974 Y37.6142 E0.18002
G1 X88.4109 Y40.0 E0.18002
G1 X88.1514 Y44.3222 E0.18002
G1 X84.2786 Y46.2587 E0.18002
G0 F8000 X88.1514 Y44.3222
G1 F1000 X85.7657 Y47.9357 E0.18002
G0 F8000 X88.1514 Y44.3222
G0 X88.4109 Y40.0
G1 F1000 X90.3473 Y43.8729 E0.18002
G1 X93.9607 Y46.2587 E0.18002
G1 X89.6385 Y45.9992 E0.18002
G0 F8000 X93.9607 Y46.2587
G0 X90.3473 Y43.8729
G1 F1000 X90.6067 Y39.5506 E0.18002
G1 X94.4796 Y37.6142 E0.18002
G1 X98.093 Y40.0 E0.18002
G1 X97.8336 Y44.3222 E0.18002
G1 X93.9607 Y46.2587 E0.18002
G0 F8000 X97.8336 Y44.3222
G1 F1000 X95.4478 Y47.9357 E0.18002
G0 F8000 X97.8336 Y44.3222
G0 X98.093 Y40.0
G1 F1000 X100.029 Y43.8729 E0.18002
G1 X103.643 Y46.2587 E0.18002
G1 X99.3207 Y45.9992 E0.18002
G0 F8000 X103.643 Y46.2587
G0 X100.029 Y43.8729
G1 F1000 X100.289 Y39.5506 E0.18002
G1 X104.162 Y37.6142 E0.18002
G1 X107.775 Y40.0 E0.18002
G1 X107.516 Y44.3222 E0.18002
G1 X103.643 Y46.2587 E0.18002
G0 F8000 X107.516 Y44.3222
G1 F1000 X105.13 Y47.9357 E0.18002
G0 F8000 X107.516 Y44.3222
G0 X107.775 Y40.0
G1 F1000 X107.775 E0.0
G1 X109.712 Y43.8729 E0.18002
G1 X113.325 Y46.2587 E0.18002
G1 X109.003 Y45.9992 E0.18002
G0 F8000 X113.325 Y46.2587
G0 X109.712 Y43.8729
G1 F1000 X109.971 Y39.5506 E0.18002
G1 X113.844 Y37.6142 E0.18002
G1 X117.457 Y40.0 E0.18002
G1 X117.198 Y44.3222 E0.18002
G1 X113.325 Y46.2587 E0.18002
G0 F8000 X117.198 Y44.3222
G1 F1000 X114.812 Y47.9357 E0.18002
G0 F8000 X117.198 Y44.3222
G0 X117.457 Y40.0
G1 F1000 X119.394 Y43.8729 E0.18002
G1 X123.007 Y46.2587 E0.18002
G1 X118.685 Y45.9992 E0.18002
G0 F8000 X123.007 Y46.2587
G0 X119.394 Y43.8729
G1 F1000 X119.653 Y39.5506 E0.18002
G1 X123.526 Y37.6142 E0.18002
G1 X127.14 Y40.0 E0.18002
G1 X126.88 Y44.3222 E0.18002
G1 X123.007 Y46.2587 E0.18002
G0 F8000 X126.88 Y44.3222
G1 F1000 X124.494 Y47.9357 E0.18002
G0 F8000 X126.88 Y44.3222
G0 X127.14 Y40.0
G1 F1000 X133.917 Y52.2579 E0.582335
G1 X131.981 Y48.385 E0.18002
G1 X131.721 Y52.7072 E0.18002
G1 X129.335 Y56.3207 E0.18002
G0 F8000 X131.721 Y52.7072
G1 F1000 X127.848 Y54.6437 E0.18002
G1 X123.526 Y54.3842 E0.18002
G0 F8000 X127.848 Y54.6437
G1 F1000 X124.235 Y52.2579 E0.18002
G1 X124.494 Y47.9357 E0.18002
G1 X128.367 Y45.9992 E0.18002
G1 X131.981 Y48.385 E0.18002
G0 F8000 X131.721 Y52.7072
G0 X127.848 Y54.6437
G0 X124.235 Y52.2579
G1 F1000 X124.235 Y52.2579 E0.0
G1 X122.298 Y48.385 E0.18002
G1 X122.039 Y52.7072 E0.18002
G1 X119.653 Y56.3207 E0.18002
G0 F8000 X122.039 Y52.7072
G1 F1000 X118.166 Y54.6437 E0.18002
G1 X113.844 Y54.3842 E0.18002
G0 F8000 X118.166 Y54.6437
G1 F1000 X114.553 Y52.2579 E0.18002
G1 X114.812 Y47.9357 E0.18002
G1 X118.685 Y45.9992 E0.18002
G1 X122.298 Y48.385 E0.18002
G0 F8000 X122.039 Y52.7072
G0 X118.166 Y54.6437
G0 X114.553 Y52.2579
G1 F1000 X114.553 Y52.2579 E0.0
G1 X112.616 Y48.385 E0.18002
G1 X112.357 Y52.7072 E0.18002
G1 X109.971 Y56.3207 E0.18002
G0 F8000 X112.357 Y52.7072
G1 F1000 X108.484 Y54.6437 E0.18002
G1 X104.162 Y54.3842 E0.18002
G0 F8000 X108.484 Y54.6437
G1 F1000 X104.871 Y52.2579 E0.18002
G1 X105.13 Y47.9357 E0.18002
G1 X109.003 Y45.9992 E0.18002
G1 X112.616 Y48.385 E0.18002
G0 F8000 X112.357 Y52.7072
G0 X108.484 Y54.6437
G0 X104.871 Y52.2579
G1 F1000 X104.871 Y52.2579 E0.0
G1 X102.934 Y48.385 E0.18002
G1 X102.675 Y52.7072 E0.18002
G1 X100.289 Y56.3207 E0.18002
G0 F8000 X102.675 Y52.7072
G1 F1000 X98.8018 Y54.6437 E0.18002
G1 X94.4796 Y54.3842 E0.18002
G0 F8000 X98.8018 Y54.6437
G1 F1000 X95.1884 Y52.2579 E0.18002
G1 X95.4478 Y47.9357 E0.18002
G1 X99.3207 Y45.9992 E0.18002
G1 X102.934 Y48.385 E0.18002
G0 F8000 X102.675 Y52.7072
G0 X98.8018 Y54.6437
G0 X95.1884 Y52.2579
G1 F1000 X95.1884 Y52.2579 E0.0
G1 X93.252 Y48.385 E0.18002
G1 X92.9925 Y52.7072 E0.18002
G1 X90.6067 Y56.3207 E0.18002
G0 F8000 X92.9925 Y52.7072
G1 F1000 X89.1197 Y54.6437 E0.18002
G1 X84.7974 Y54.3842 E0.18002
G0 F8000 X89.1197 Y54.6437
G1 F1000 X85.5062 Y52.2579 E0.18002
G1 X85.7657 Y47.9357 E0.18002
G1 X89.6385 Y45.9992 E0.18002
G1 X93.252 Y48.385 E0.18002
G0 F8000 X92.9925 Y52.7072
G0 X89.1197 Y54.6437
G0 X85.5062 Y52.2579
G1 F1000 X85.5062 Y52.2579 E0.0
G1 X83.5698 Y48.385 E0.18002
G1 X83.3104 Y52.7072 E0.18002
G1 X80.9246 Y56.3207 E0.18002
G0 F8000 X83.3104 Y52.7072
G1 F1000 X79.4375 Y54.6437 E0.18002
G1 X75.1153 Y54.3842 E0.18002
G0 F8000 X79.4375 Y54.6437
G1 F1000 X75.824 Y52.2579 E0.18002
G1 X76.0835 Y47.9357 E0.18002
G1 X79.9563 Y45.9992 E0.18002
G1 X83.5698 Y48.385 E0.18002
G0 F8000 X83.3104 Y52.7072
G0 X79.4375 Y54.6437
G0 X75.824 Y52.2579
G1 F1000 X75.824 Y52.2579 E0.0
G1 X73.8876 Y48.385 E0.18002
G1 X73.6282 Y52.7072 E0.18002
G1 X71.2424 Y56.3207 E0.18002
G0 F8000 X73.6282 Y52.7072
G1 F1000 X69.7553 Y54.6437 E0.18002
G1 X65.4331 Y54.3842 E0.18002
G0 F8000 X69.7553 Y54.6437
G1 F1000 X66.1419 Y52.2579 E0.18002
G1 X66.4013 Y47.9357 E0.18002
G1 X70.2742 Y45.9992 E0.18002
G1 X73.8876 Y48.385 E0.18002
G0 F8000 X73.6282 Y52.7072
G0 X69.7553 Y54.6437
G0 X66.1419 Y52.2579
G1 F1000 X66.1419 Y52.2579 E0.0
G1 X64.2054 Y48.385 E0.18002
G1 X63.946 Y52.7072 E0.18002
G1 X61.5602 Y56.3207 E0.18002
G0 F8000 X63.946 Y52.7072
G1 F1000 X60.0731 Y54.6437 E0.18002
G1 X55.7509 Y54.3842 E0.18002
G0 F8000 X60.0731 Y54.6437
G1 F1000 X56.4597 Y52.2579 E0.18002
G1 X56.7191 Y47.9357 E0.18002
G1 X60.592 Y45.9992 E0.18002
G1 X64.2054 Y48.385 E0.18002
G0 F8000 X63.946 Y52.7072
G0 X60.0731 Y54.6437
G0 X56.4597 Y52.2579
G1 F1000 X56.4597 Y52.2579 E0.0
G1 X54.5233 Y48.385 E0.18002
G1 X54.2638 Y52.7072 E0.18002
G1 X51.878 Y56.3207 E0.18002
G0 F8000 X54.2638 Y52.7072
G1 F1000 X50.391 Y54.6437 E0.18002
G1 X46.0687 Y54.3842 E0.18002
G0 F8000 X50.391 Y54.6437
G1 F1000 X46.7775 Y52.2579 E0.18002
G1 X47.037 Y47.9357 E0.18002
G1 X50.9098 Y45.9992 E0.18002
G1 X54.5233 Y48.385 E0.18002
G0 F8000 X54.2638 Y52.7072
G0 X50.391 Y54.6437
G0 X46.7775 Y52.2579
G1 F1000 X40.0 Y56.77 E0.33851
G1 X41.9364 Y60.6429 E0.18002
G1 X45.5499 Y63.0287 E0.18002
G1 X41.2277 Y62.7692 E0.18002
G0 F8000 X45.5499 Y63.0287
G0 X41.9364 Y60.6429
G1 F1000 X42.1959 Y56.3207 E0.18002
G1 X46.0687 Y54.3842 E0.18002
G1 X49.6822 Y56.77 E0.18002
G1 X49.4227 Y61.0922 E0.18002
G1 X45.5499 Y63.0287 E0.18002
G0 F8000 X49.4227 Y61.0922
G1 F1000 X47.037 Y64.7057 E0.18002
G0 F8000 X49.4227 Y61.0922
G0 X49.6822 Y56.77
G1 F1000 X51.6186 Y60.6429 E0.18002
G1 X55.232 Y63.0287 E0.18002
G1 X50.9098 Y62.7692 E0.18002
G0 F8000 X55.232 Y63.0287
G0 X51.6186 Y60.6429
G1 F1000 X51.878 Y56.3207 E0.18002
G1 X55.7509 Y54.3842 E0.18002
G1 X59.3643 Y56.77 E0.18002
G1 X59.1049 Y61.0922 E0.18002
G1 X55.232 Y63.0287 E0.18002
G0 F8000 X59.1049 Y61.0922
G1 F1000 X56.7191 Y64.7057 E0.18002
G0 F8000 X59.1049 Y61.0922
G0 X59.3643 Y56.77
G1 F1000 X61.3008 Y60.6429 E0.18002
G1 X64.9142 Y63.0287 E0.18002
G1 X60.592 Y62.7692 E0.18002
G0 F8000 X64.9142 Y63.0287
G0 X61.3008 Y60.6429
G1 F1000 X61.5602 Y56.3207 E0.18002
G1 X65.4331 Y54.3842 E0.18002
G1 X69.0465 Y56.77 E0.18002
G1 X68.7871 Y61.0922 E0.18002
G1 X64.9142 Y63.0287 E0.18002
G0 F8000 X68.7871 Y61.0922
G1 F1000 X66.4013 Y64.7057 E0.18002
G0 F8000 X68.7871 Y61.0922
G0 X69.0465 Y56.77
G1 F1000 X70.983 Y60.6429 E0.18002
G1 X74.5964 Y63.0287 E0.18002
G1 X70.2742 Y62.7692 E0.18002
G0 F8000 X74.5964 Y63.0287
G0 X70.983 Y60.6429
G1 F1000 X71.2424 Y56.3207 E0.18002
G1 X75.1153 Y54.3842 E0.18002
G1 X78.7287 Y56.77 E0.18002
G1 X78.4693 Y61.0922 E0.18002
G1 X74.5964 Y63.0287 E0.18002
G0 F8000 X78.4693 Y61.0922
G1 F1000 X76.0835 Y64.7057 E0.18002
G0 F8000 X78.4693 Y61.0922
G0 X78.7287 Y56.77
G1 F1000 X80.6651 Y60.6429 E0.18002
G1 X84.2786 Y63.0287 E0.18002
G1 X79.9563 Y62.7692 E0.18002
G0 F8000 X84.2786 Y63.0287
G0 X80.6651 Y60.6429
G1 F1000 X80.9246 Y56.3207 E0.18002
G1 X84.7974 Y54.3842 E0.18002
G1 X88.4109 Y56.77 E0.18002
G1 X88.1514 Y61.0922 E0.18002
G1 X84.2786 Y63.0287 E0.18002
G0 F8000 X88.1514 Y61.0922
G1 F1000 X85.7657 Y64.7057 E0.18002
G0 F8000 X88.1514 Y61.0922
G0 X88.4109 Y56.77
G1 F1000 X90.3473 Y60.6429 E0.18002
G1 X93.9607 Y63.0287 E0.18002
G1 X89.6385 Y62.7692 E0.18002
G0 F8000 X93.9607 Y63.0287
G0 X90.3473 Y60.6429
G1 F1000 X90.6067 Y56.3207 E0.18002
G1 X94.4796 Y54.3842 E0.18002
G1 X98.093 Y56.77 E0.18002
G1 X97.8336 Y61.0922 E0.18002
G1 X93.9607 Y63.0287 E0.18002
G0 F8000 X97.8336 Y61.0922
G1 F1000 X95.4478 Y64.7057 E0.18002
G0 F8000 X97.8336 Y61.0922
G0 X98.093 Y56.77
G1 F1000 X100.029 Y60.6429 E0.18002
G1 X103.643 Y63.0287 E0.18002
G1 X99.3207 Y62.7692 E0.18002
G0 F8000 X103.643 Y63.0287
G0 X100.029 Y60.6429
G1 F1000 X100.289 Y56.3207 E0.18002
G1 X104.162 Y54.3842 E0.18002
G1 X107.775 Y56.77 E0.18002
G1 X107.516 Y61.0922 E0.18002
G1 X103.643 Y63.0287 E0.18002
G0 F8000 X107.516 Y61.0922
G1 F1000 X105.13 Y64.7057 E0.18002
G0 F8000 X107.516 Y61.0922
G0 X107.775 Y56.77
G1 F1000 X107.775 E0.0
G1 X109.712 Y60.6429 E0.18002
G1 X113.325 Y63.0287 E0.18002
G1 X109.003 Y62.7692 E0.18002
G0 F8000 X113.325 Y63.0287
G0 X109.712 Y60.6429
G1 F1000 X109.971 Y56.3207 E0.18002
G1 X113.844 Y54.3842 E0.18002
G1 X117.457 Y56.77 E0.18002
G1 X117.198 Y61.0922 E0.18002
G1 X113.325 Y63.0287 E0.18002
G0 F8000 X117.198 Y61.0922
G1 F1000 X114.812 Y64.7057 E0.18002
G0 F8000 X117.198 Y61.0922
G0 X117.457 Y56.77
G1 F1000 X119.394 Y60.6429 E0.18002
G1 X123.007 Y63.0287 E0.18002
G1 X118.685 Y62.7692 E0.18002
G0 F8000 X123.007 Y63.0287
G0 X119.394 Y60.6429
G1 F1000 X119.653 Y56.3207 E0.18002
G1 X123.526 Y54.3842 E0.18002
G1 X127.14 Y56.77 E0.18002
G1 X126.88 Y61.0922 E0.18002
G1 X123.007 Y63.0287 E0.18002
G0 F8000 X126.88 Y61.0922
G1 F1000 X124.494 Y64.7057 E0.18002
G0 F8000 X126.88 Y61.0922
G0 X127.14 Y56.77
G1 F1000 X133.917 Y69.0279 E0.582335
G1 X131.981 Y65.155 E0.18002
G1 X131.721 Y69.4772 E0.18002
G1 X129.335 Y73.0907 E0.18002
G0 F8000 X131.721 Y69.4772
G1 F1000 X127.848 Y71.4137 E0.18002
G1 X123.526 Y71.1542 E0.18002
G0 F8000 X127.848 Y71.4137
G1 F1000 X124.235 Y69.0279 E0.18002
G1 X124.494 Y64.7057 E0.18002
G1 X128.367 Y62.7692 E0.18002
G1 X131.981 Y65.155 E0.18002
G0 F8000 X131.721 Y69.4772
G0 X127.848 Y71.4137
G0 X124.235 Y69.0279
G1 F1000 X124.235 E0.0
G1 X122.298 Y65.155 E0.18002
G1 X122.039 Y69.4772 E0.18002
G1 X119.653 Y73.0907 E0.18002
G0 F8000 X122.039 Y69.4772
G1 F1000 X118.166 Y71.4137 E0.18002
G1 X113.844 Y71.1542 E0.18002
G0 F8000 X118.166 Y71.4137
G1 F1000 X114.553 Y69.0279 E0.18002
G1 X114.812 Y64.7057 E0.18002
G1 X118.685 Y62.7692 E0.18002
G1 X122.298 Y65.155 E0.18002
G0 F8000 X122.039 Y69.4772
G0 X118.166 Y71.4137
G0 X114.553 Y69.0279
G1 F1000 X114.553 E0.0
G1 X112.616 Y65.155 E0.18002
G1 X112.357 Y69.4772 E0.18002
G1 X109.971 Y73.0907 E0.18002
G0 F8000 X112.357 Y69.4772
G1 F1000 X108.484 Y71.4137 E0.18002
G1 X104.162 Y71.1542 E0.18002
G0 F8000 X108.484 Y71.4137
G1 F1000 X104.871 Y69.0279 E0.18002
G1 X105.13 Y64.7057 E0.18002
G1 X109.003 Y62.7692 E0.18002
G1 X112.616 Y65.155 E0.18002
G0 F8000 X112.357 Y69.4772
G0 X108.484 Y71.4137
G0 X104.871 Y69.0279
G1 F1000 X104.871 E0.0
G1 X102.934 Y65.155 E0.18002
G1 X102.675 Y69.4772 E0.18002
G1 X100.289 Y73.0907 E0.18002
G0 F8000 X102.675 Y69.4772
G1 F1000 X98.8018 Y71.4137 E0.18002
G1 X94.4796 Y71.1542 E0.18002
G0 F8000 X98.8018 Y71.4137
G1 F1000 X95.1884 Y69.0279 E0.18002
G1 X95.4478 Y64.7057 E0.18002
G1 X99.3207 Y62.7692 E0.18002
G1 X102.934 Y65.155 E0.18002
G0 F8000 X102.675 Y69.4772
G0 X98.8018 Y71.4137
G0 X95.1884 Y69.0279
G1 F1000 X95.1884 E0.0
G1 X93.252 Y65.155 E0.18002
G1 X92.9925 Y69.4772 E0.18002
G1 X90.6067 Y73.0907 E0.18002
G0 F8000 X92.9925 Y69.4772
G1 F1000 X89.1197 Y71.4137 E0.18002
G1 X84.7974 Y71.1542 E0.18002
G0 F8000 X89.1197 Y71.4137
G1 F1000 X85.5062 Y69.0279 E0.18002
G1 X85.7657 Y64.7057 E0.18002
G1 X89.6385 Y62.7692 E0.18002
G1 X93.252 Y65.155 E0.18002
G0 F8000 X92.9925 Y69.4772
G0 X89.1197 Y71.4137
G0 X85.5062 Y69.0279
G1 F1000 X85.5062 E0.0
G1 X83.5698 Y65.155 E0.18002
G1 X83.3104 Y69.4772 E0.18002
G1 X80.9246 Y73.0907 E0.18002
G0 F8000 X83.3104 Y69.4772
G1 F1000 X79.4375 Y71.4137 E0.18002
G1 X75.1153 Y71.1542 E0.18002
G0 F8000 X79.4375 Y71.4137
G1 F1000 X75.824 Y69.0279 E0.18002
G1 X76.0835 Y64.7057 E0.18002
G1 X79.9563 Y62.7692 E0.18002
G1 X83.5698 Y65.155 E0.18002
G0 F8000 X83.3104 Y69.4772
G0 X79.4375 Y71.4137
G0 X75.824 Y69.0279
G1 F1000 X75.824 E0.0
G1 X73.8876 Y65.155 E0.18002
G1 X73.6282 Y69.4772 E0.18002
G1 X71.2424 Y73.0907 E0.18002
G0 F8000 X73.6282 Y69.4772
G1 F1000 X69.7553 Y71.4137 E0.18002
G1 X65.4331 Y71.1542 E0.18002
G0 F8000 X69.7553 Y71.4137
G1 F1000 X66.1419 Y69.0279 E0.18002
G1 X66.4013 Y64.7057 E0.18002
G1 X70.2742 Y62.7692 E0.18002
G1 X73.8876 Y65.155 E0.18002
G0 F8000 X73.6282 Y69.4772
G0 X69.7553 Y71.4137
G0 X66.1419 Y69.0279
G1 F1000 X66.1419 E0.0
G1 X64.2054 Y65.155 E0.18002
G1 X63.946 Y69.4772 E0.18002
G1 X61.5602 Y73.0907 E0.18002
G0 F8000 X63.946 Y69.4772
G1 F1000 X60.0731 Y71.4137 E0.18002
G1 X55.7509 Y71.1542 E0.18002
G0 F8000 X60.0731 Y71.4137
G1 F1000 X56.4597 Y69.0279 E0.18002
G1 X56.7191 Y64.7057 E0.18002
G1 X60.592 Y62.7692 E0.18002
G1 X64.2054 Y65.155 E0.18002
G0 F8000 X63.946 Y69.4772
G0 X60.0731 Y71.4137
G0 X56.4597 Y69.0279
G1 F1000 X56.4597 E0.0
G1 X54.5233 Y65.155 E0.18002
G1 X54.2638 Y69.4772 E0.18002
G1 X51.878 Y73.0907 E0.18002
G0 F8000 X54.2638 Y69.4772
G1 F1000 X50.391 Y71.4137 E0.18002
G1 X46.0687 Y71.1542 E0.18002
G0 F8000 X50.391 Y71.4137
G1 F1000 X46.7775 Y69.0279 E0.18002
G1 X47.037 Y64.7057 E0.18002
G1 X50.9098 Y62.7692 E0.18002
