;FLAVOR:Marlin
M73 P0
M73 R38
;TIME:2260
;Filament used: 1.18551m
;Layer height: 0.2
;MINX:66.508
;MINY:66.507
;MINZ:0.2
;MAXX:168.492
;MAXY:168.492
;MAXZ:34.6
;POSTPROCESSED
;Generated with Cura_SteamEngine 4.9.1
M140 S50
M105
M190 S50
M104 S215
M105
M109 S215
M82 ;absolute extrusion mode
; Ender 3 Custom Start G-code
G92 E0 ; Reset Extruder
G28 ; Home all axes
G1 Z2.0 F3000 ; Move Z Axis up little to prevent scratching of Heat Bed
G1 X0.1 Y20 Z0.3 F5000.0 ; Move to start position
G1 X0.1 Y200.0 Z0.3 F1500.0 E15 ; Draw the first line
G1 X0.4 Y200.0 Z0.3 F5000.0 ; Move to side a little
G1 X0.4 Y20 Z0.3 F1500.0 E30 ; Draw the second line
G92 E0 ; Reset Extruder
G1 Z2.0 F3000 ; Move Z Axis up little to prevent scratching of Heat Bed
G1 X5 Y20 Z0.3 F5000.0 ; Move over to prevent blob squish
G92 E0
G92 E0
G1 F2700 E-5
;LAYER_COUNT:173
;LAYER:0
M107
G0 F6000 X81.677 Y81.211 Z0.2
;TYPE:SKIRT
G1 F2700 E0
G1 F1200 X81.887 Y81.005 E0.00978
G1 X82.486 Y80.431 E0.03738
G1 X83.195 Y79.77 E0.06962
G1 X83.433 Y79.555 E0.08029
G1 X84.104 Y78.967 E0.10996
G1 X84.904 Y78.286 E0.1449
G1 X85.136 Y78.093 E0.15494
G1 X85.695 Y77.643 E0.17881
G1 X86.671 Y76.882 E0.21997
G1 X86.925 Y76.69 E0.23056
G1 X87.475 Y76.287 E0.25324
G1 X88.507 Y75.553 E0.29536
G1 X88.773 Y75.369 E0.30612
G1 X89.395 Y74.956 E0.33095
G1 X90.286 Y74.378 E0.36627
G1 X90.548 Y74.212 E0.37659
G1 X91.193 Y73.819 E0.40171
G1 X92.305 Y73.166 E0.4446
G1 X92.575 Y73.013 E0.45492
G1 X93.295 Y72.62 E0.48221
G1 X94.223 Y72.13 E0.51711
G1 X94.504 Y71.986 E0.52761
G1 X95.255 Y71.618 E0.55543
G1 X96.217 Y71.161 E0.59085
G1 X96.509 Y71.028 E0.60152
G1 X97.277 Y70.691 E0.62942
G1 X98.202 Y70.3 E0.66282
G1 X98.473 Y70.19 E0.67255
G1 X99.297 Y69.869 E0.70196
G1 X100.277 Y69.504 E0.73674
G1 X100.577 Y69.397 E0.74734
G1 X101.445 Y69.103 E0.77782
G1 X102.352 Y68.809 E0.80953
G1 X102.651 Y68.717 E0.81993
G1 X103.525 Y68.462 E0.85022
G1 X104.517 Y68.188 E0.88445
G1 X104.819 Y68.109 E0.89483
G1 X105.645 Y67.907 E0.92311
G1 X106.671 Y67.67 E0.95813
G1 X107.006 Y67.597 E0.96954
G1 X107.71 Y67.457 E0.99341
G1 X108.909 Y67.236 E1.03396
G1 X109.232 Y67.181 E1.04486
G1 X110.034 Y67.06 E1.07184
G1 X111.082 Y66.913 E1.10703
G1 X111.403 Y66.872 E1.1178
G1 X112.306 Y66.774 E1.14801
G1 X113.266 Y66.683 E1.18008
G1 X113.587 Y66.657 E1.19079
G1 X114.352 Y66.607 E1.21629
G1 X115.612 Y66.543 E1.25825
G1 X115.932 Y66.531 E1.2689
G1 X116.741 Y66.515 E1.29581
G1 X117.749 Y66.507 E1.32934
G1 X118.074 Y66.51 E1.34015
G1 X118.939 Y66.53 E1.36893
G1 X120.013 Y66.57 E1.40468
G1 X120.311 Y66.585 E1.4146
G1 X121.127 Y66.639 E1.4418
G1 X122.197 Y66.724 E1.4775
G1 X122.531 Y66.755 E1.48866
G1 X123.4 Y66.852 E1.51774
G1 X124.356 Y66.97 E1.54978
G1 X124.67 Y67.013 E1.56032
G1 X125.396 Y67.124 E1.58475
G1 X126.596 Y67.326 E1.62522
G1 X126.896 Y67.381 E1.63536
G1 X127.707 Y67.542 E1.66286
G1 X128.778 Y67.77 E1.69928
G1 X129.107 Y67.845 E1.71051
G1 X129.934 Y68.049 E1.73884
G1 X130.992 Y68.325 E1.77521
G1 X131.282 Y68.405 E1.78521
G1 X132.021 Y68.621 E1.81082
G1 X133.091 Y68.949 E1.84804
G1 X133.413 Y69.053 E1.8593
G1 X134.146 Y69.304 E1.88507
G1 X135.193 Y69.675 E1.92201
G1 X135.508 Y69.792 E1.93319
G1 X136.31 Y70.105 E1.96182
G1 X137.288 Y70.503 E1.99694
G1 X137.59 Y70.632 E2.00786
G1 X138.36 Y70.973 E2.03587
G1 X139.356 Y71.43 E2.07232
G1 X139.644 Y71.567 E2.08293
G1 X140.391 Y71.937 E2.11065
G1 X141.262 Y72.382 E2.14318
G1 X141.538 Y72.528 E2.15357
G1 X142.152 Y72.864 E2.17685
G1 X143.221 Y73.47 E2.21772
G1 X143.499 Y73.632 E2.22842
G1 X144.119 Y74.008 E2.25254
G1 X145.061 Y74.598 E2.28951
G1 X145.313 Y74.76 E2.29947
G1 X146.113 Y75.294 E2.33146
G1 X146.942 Y75.866 E2.36496
G1 X147.199 Y76.049 E2.37546
G1 X147.884 Y76.552 E2.40372
G1 X148.734 Y77.193 E2.43913
G1 X148.986 Y77.389 E2.44975
G1 X149.671 Y77.939 E2.47897
G1 X150.416 Y78.554 E2.5111
G1 X150.642 Y78.746 E2.52096
G1 X151.181 Y79.216 E2.54475
G1 X151.343 Y79.36 E2.55196
G1 X152.238 Y80.172 E2.59215
G1 X152.446 Y80.365 E2.60159
G1 X152.849 Y80.75 E2.62012
G1 X153.785 Y81.673 E2.66385
G1 X153.995 Y81.887 E2.67382
G1 X154.569 Y82.486 E2.70141
G1 X155.216 Y83.18 E2.73297
G1 X155.434 Y83.421 E2.74378
G1 X156.006 Y84.074 E2.77265
G1 X156.72 Y84.912 E2.80927
G1 X156.916 Y85.149 E2.8195
G1 X157.459 Y85.826 E2.84836
G1 X158.138 Y86.698 E2.88512
G1 X158.338 Y86.963 E2.89616
G1 X158.805 Y87.603 E2.92251
G1 X159.442 Y88.499 E2.95908
G1 X159.618 Y88.754 E2.96938
G1 X160.039 Y89.385 E2.99461
G1 X160.621 Y90.282 E3.03018
G1 X160.792 Y90.555 E3.04089
G1 X161.275 Y91.351 E3.07186
G1 X161.786 Y92.221 E3.10542
G1 X161.943 Y92.497 E3.11598
G1 X162.256 Y93.067 E3.13761
G1 X162.835 Y94.157 E3.17866
G1 X162.983 Y94.444 E3.1894
G1 X163.375 Y95.24 E3.21891
G1 X163.804 Y96.142 E3.25213
G1 X163.929 Y96.416 E3.26215
G1 X164.295 Y97.247 E3.29235
G1 X164.707 Y98.22 E3.32749
G1 X164.825 Y98.509 E3.33787
G1 X165.128 Y99.29 E3.36574
G1 X165.5 Y100.289 E3.40119
G1 X165.605 Y100.583 E3.41158
G1 X165.898 Y101.448 E3.44195
G1 X166.192 Y102.356 E3.4737
G1 X166.28 Y102.642 E3.48365
G1 X166.539 Y103.528 E3.51435
G1 X166.812 Y104.517 E3.54847
G1 X166.889 Y104.809 E3.55852
G1 X167.081 Y105.593 E3.58537
G1 X167.339 Y106.714 E3.62362
G1 X167.408 Y107.036 E3.63458
G1 X167.566 Y107.837 E3.66173
G1 X167.762 Y108.898 E3.69762
G1 X167.816 Y109.216 E3.70835
G1 X167.939 Y110.02 E3.7354
G1 X168.087 Y111.079 E3.77096
G1 X168.126 Y111.392 E3.78145
G1 X168.227 Y112.32 E3.8125
G1 X168.325 Y113.369 E3.84754
G1 X168.35 Y113.684 E3.85805
G1 X168.397 Y114.426 E3.88278
G1 X168.454 Y115.522 E3.91928
G1 X168.466 Y115.848 E3.93013
G1 X168.484 Y116.684 E3.95795
G1 X168.492 Y117.771 E3.9941
G1 X168.49 Y118.078 E4.00431
G1 X168.472 Y118.876 E4.03086
G1 X168.433 Y119.973 E4.06737
G1 X168.416 Y120.307 E4.07849
G1 X168.362 Y121.111 E4.10529
G1 X168.279 Y122.166 E4.14049
G1 X168.248 Y122.5 E4.15165
G1 X168.148 Y123.4 E4.18177
G1 X168.03 Y124.356 E4.21381
G1 X167.987 Y124.67 E4.22435
G1 X167.876 Y125.396 E4.24877
G1 X167.672 Y126.608 E4.28965
G1 X167.618 Y126.907 E4.29976
G1 X167.46 Y127.699 E4.32662
G1 X167.226 Y128.796 E4.36393
G1 X167.153 Y129.113 E4.37475
G1 X166.962 Y129.893 E4.40146
G1 X166.693 Y130.93 E4.43709
G1 X166.606 Y131.243 E4.44789
G1 X166.381 Y132.015 E4.47464
G1 X166.052 Y133.089 E4.512
G1 X165.953 Y133.396 E4.52273
G1 X165.711 Y134.107 E4.54771
G1 X165.326 Y135.191 E4.58597
G1 X165.211 Y135.497 E4.59684
G1 X164.892 Y136.316 E4.62607
G1 X164.531 Y137.207 E4.65805
G1 X164.406 Y137.504 E4.66877
G1 X164.047 Y138.317 E4.69832
G1 X163.626 Y139.241 E4.7321
G1 X163.486 Y139.537 E4.74299
G1 X163.174 Y140.171 E4.76649
G1 X162.618 Y141.26 E4.80716
G1 X162.474 Y141.532 E4.81739
G1 X162.049 Y142.308 E4.84682
G1 X161.535 Y143.214 E4.88147
G1 X161.372 Y143.492 E4.89218
G1 X160.914 Y144.244 E4.92147
G1 X160.409 Y145.052 E4.95316
G1 X160.236 Y145.32 E4.96377
G1 X159.711 Y146.106 E4.99521
G1 X159.14 Y146.935 E5.02869
G1 X158.95 Y147.202 E5.03959
G1 X158.435 Y147.902 E5.06849
G1 X157.74 Y148.82 E5.10679
G1 X157.546 Y149.069 E5.11729
G1 X157.06 Y149.672 E5.14305
G1 X156.444 Y150.418 E5.17522
G1 X156.178 Y150.731 E5.18889
G1 X155.658 Y151.322 E5.21507
G1 X154.926 Y152.133 E5.25141
G1 X154.726 Y152.349 E5.2612
G1 X154.246 Y152.853 E5.28435
G1 X153.368 Y153.745 E5.32597
G1 X153.148 Y153.962 E5.33625
G1 X152.508 Y154.573 E5.36568
G1 X151.799 Y155.233 E5.3979
G1 X151.571 Y155.44 E5.40814
G1 X150.921 Y156.01 E5.4369
G1 X150.108 Y156.704 E5.47245
G1 X149.862 Y156.908 E5.48308
G1 X149.174 Y157.46 E5.51242
G1 X148.341 Y158.109 E5.54754
G1 X148.08 Y158.306 E5.55841
G1 X147.405 Y158.799 E5.58621
G1 X146.536 Y159.418 E5.6217
G1 X146.26 Y159.609 E5.63286
G1 X145.602 Y160.046 E5.65914
G1 X144.634 Y160.673 E5.6975
G1 X144.361 Y160.844 E5.70821
G1 X143.639 Y161.281 E5.73628
G1 X142.748 Y161.803 E5.77063
G1 X142.483 Y161.954 E5.78077
G1 X141.75 Y162.355 E5.80856
G1 X140.772 Y162.872 E5.84535
G1 X140.502 Y163.01 E5.85544
G1 X139.778 Y163.366 E5.88227
G1 X138.857 Y163.804 E5.91619
G1 X138.584 Y163.929 E5.92618
G1 X137.744 Y164.299 E5.95671
G1 X136.759 Y164.715 E5.99227
G1 X136.478 Y164.829 E6.00236
G1 X135.687 Y165.136 E6.03058
G1 X134.713 Y165.499 E6.06515
G1 X134.417 Y165.605 E6.07561
G1 X133.556 Y165.897 E6.10585
G1 X132.649 Y166.191 E6.13756
G1 X132.346 Y166.285 E6.14811
G1 X131.635 Y166.493 E6.17275
G1 X130.486 Y166.811 E6.2124
G1 X130.182 Y166.891 E6.22286
G1 X129.351 Y167.094 E6.25131
G1 X128.323 Y167.331 E6.2864
G1 X128.006 Y167.399 E6.29718
G1 X127.145 Y167.57 E6.32638
G1 X126.098 Y167.763 E6.36179
G1 X125.767 Y167.819 E6.37295
G1 X124.966 Y167.94 E6.3999
G1 X123.919 Y168.087 E6.43506
G1 X123.598 Y168.127 E6.44582
G1 X122.68 Y168.227 E6.47653
G1 X121.631 Y168.325 E6.51158
G1 X121.316 Y168.35 E6.52209
G1 X120.573 Y168.397 E6.54685
G1 X119.475 Y168.454 E6.58342
G1 X119.147 Y168.466 E6.59433
G1 X118.309 Y168.484 E6.62221
G1 X117.284 Y168.492 E6.6563
G1 X116.976 Y168.49 E6.66655
G1 X116.056 Y168.47 E6.69715
G1 X114.984 Y168.431 E6.73283
G1 X114.664 Y168.414 E6.74349
G1 X113.872 Y168.361 E6.76989
G1 X112.803 Y168.276 E6.80556
G1 X112.472 Y168.245 E6.81662
G1 X111.6 Y168.148 E6.8458
G1 X110.644 Y168.03 E6.87784
G1 X110.33 Y167.987 E6.88838
G1 X109.604 Y167.876 E6.91281
G1 X108.404 Y167.674 E6.95328
G1 X108.113 Y167.621 E6.96312
G1 X107.28 Y167.456 E6.99136
G1 X106.216 Y167.229 E7.02755
G1 X105.9 Y167.157 E7.03833
G1 X105.063 Y166.951 E7.06699
G1 X104.003 Y166.674 E7.10343
G1 X103.717 Y166.595 E7.1133
G1 X102.975 Y166.378 E7.13902
G1 X101.906 Y166.05 E7.17621
G1 X101.593 Y165.949 E7.18715
G1 X100.846 Y165.694 E7.2134
G1 X99.79 Y165.319 E7.25067
G1 X99.467 Y165.198 E7.26214
G1 X98.685 Y164.892 E7.29007
G1 X97.794 Y164.531 E7.32205
G1 X97.497 Y164.406 E7.33276
G1 X96.679 Y164.045 E7.3625
G1 X95.754 Y163.623 E7.39632
G1 X95.459 Y163.483 E7.40718
G1 X94.629 Y163.073 E7.43797
G1 X93.687 Y162.591 E7.47316
G1 X93.403 Y162.44 E7.48386
G1 X92.694 Y162.049 E7.51079
G1 X91.782 Y161.532 E7.54566
G1 X91.505 Y161.37 E7.55633
G1 X90.883 Y160.993 E7.58052
G1 X89.939 Y160.402 E7.61757
G1 X89.687 Y160.24 E7.62753
G1 X89.042 Y159.811 E7.6533
G1 X88.049 Y159.127 E7.6934
G1 X87.797 Y158.948 E7.70368
G1 X87.104 Y158.438 E7.7323
G1 X86.266 Y157.806 E7.76721
G1 X86.012 Y157.609 E7.7779
G1 X85.332 Y157.063 E7.80691
G1 X84.579 Y156.442 E7.83937
G1 X84.337 Y156.236 E7.84994
G1 X83.641 Y155.625 E7.88074
G1 X82.765 Y154.831 E7.92007
G1 X82.556 Y154.637 E7.92955
G1 X81.994 Y154.098 E7.95545
G1 X81.206 Y153.318 E7.99233
G1 X81.005 Y153.113 E8.00188
G1 X80.428 Y152.511 E8.02961
G1 X79.775 Y151.81 E8.06148
G1 X79.554 Y151.565 E8.07245
G1 X78.981 Y150.91 E8.10139
G1 X78.277 Y150.084 E8.13749
G1 X78.081 Y149.847 E8.14772
G1 X77.521 Y149.149 E8.17748
G1 X76.859 Y148.298 E8.21334
G1 X76.662 Y148.037 E8.22422
G1 X76.199 Y147.403 E8.25033
G1 X75.561 Y146.507 E8.28692
G1 X75.381 Y146.245 E8.29749
G1 X74.952 Y145.604 E8.32314
G1 X74.36 Y144.691 E8.35933
G1 X74.187 Y144.414 E8.3702
G1 X73.72 Y143.642 E8.40021
G1 X73.209 Y142.77 E8.43382
G1 X73.055 Y142.498 E8.44422
G1 X72.654 Y141.766 E8.47198
G1 X72.16 Y140.835 E8.50703
G1 X72.014 Y140.549 E8.51771
G1 X71.625 Y139.759 E8.547
G1 X71.187 Y138.838 E8.58092
G1 X71.053 Y138.545 E8.59164
G1 X70.697 Y137.732 E8.62116
G1 X70.287 Y136.763 E8.65615
G1 X70.166 Y136.467 E8.66679
G1 X69.865 Y135.69 E8.6945
G1 X69.502 Y134.717 E8.72904
G1 X69.395 Y134.417 E8.73964
G1 X69.104 Y133.559 E8.76977
G1 X68.81 Y132.653 E8.80145
G1 X68.714 Y132.343 E8.81224
G1 X68.46 Y131.469 E8.84252
G1 X68.183 Y130.464 E8.87719
G1 X68.108 Y130.175 E8.88712
G1 X67.905 Y129.345 E8.91554
G1 X67.661 Y128.284 E8.95175
G1 X67.593 Y127.967 E8.96253
G1 X67.43 Y127.145 E8.99041
G1 X67.237 Y126.098 E9.02582
G1 X67.181 Y125.767 E9.03698
G1 X67.06 Y124.966 E9.06392
G1 X66.913 Y123.919 E9.09909
G1 X66.873 Y123.598 E9.10985
G1 X66.774 Y122.697 E9.14
G1 X66.681 Y121.718 E9.1727
G1 X66.655 Y121.393 E9.18355
G1 X66.6 Y120.535 E9.21214
G1 X66.545 Y119.462 E9.24788
G1 X66.534 Y119.143 E9.2585
G1 X66.516 Y118.308 E9.28627
G1 X66.508 Y117.256 E9.32126
G1 X66.51 Y116.942 E9.33171
G1 X66.53 Y116.063 E9.36095
G1 X66.567 Y115.026 E9.39546
G1 X66.583 Y114.701 E9.40629
G1 X66.627 Y114.027 E9.42875
G1 X66.725 Y112.791 E9.46999
G1 X66.756 Y112.46 E9.48105
G1 X66.852 Y111.6 E9.50983
G1 X66.97 Y110.644 E9.54187
G1 X67.013 Y110.33 E9.55241
G1 X67.152 Y109.432 E9.58263
G1 X67.328 Y108.391 E9.61775
G1 X67.382 Y108.096 E9.62772
G1 X67.548 Y107.262 E9.656
G1 X67.785 Y106.158 E9.69356
G1 X67.85 Y105.876 E9.70319
G1 X68.051 Y105.053 E9.73136
G1 X68.329 Y103.993 E9.76781
G1 X68.405 Y103.717 E9.77733
G1 X68.623 Y102.97 E9.80321
G1 X68.954 Y101.893 E9.84069
G1 X69.053 Y101.589 E9.85132
G1 X69.307 Y100.843 E9.87753
G1 X69.682 Y99.788 E9.91477
G1 X69.8 Y99.473 E9.92596
G1 X70.106 Y98.689 E9.95395
G1 X70.467 Y97.797 E9.98596
G1 X70.591 Y97.503 E9.99657
G1 X70.958 Y96.67 E10.02685
G1 X71.381 Y95.745 E10.06068
G1 X71.515 Y95.465 E10.071
G1 X71.923 Y94.636 E10.10173
G1 X72.379 Y93.743 E10.13508
G1 X72.536 Y93.448 E10.1462
G1 X72.951 Y92.694 E10.17482
G1 X73.471 Y91.777 E10.20989
G1 X73.633 Y91.501 E10.22053
G1 X74.089 Y90.751 E10.24972
G1 X74.594 Y89.944 E10.28139
G1 X74.76 Y89.687 E10.29156
G1 X75.293 Y88.888 E10.32351
G1 X75.88 Y88.037 E10.35789
G1 X76.064 Y87.779 E10.36843
G1 X76.568 Y87.093 E10.39674
G1 X77.262 Y86.177 E10.43497
G1 X77.456 Y85.929 E10.44544
G1 X77.934 Y85.335 E10.4708
G1 X78.548 Y84.59 E10.50291
G1 X78.761 Y84.34 E10.51383
G1 X79.353 Y83.666 E10.54367
G1 X80.164 Y82.77 E10.58387
G1 X80.372 Y82.546 E10.59403
G1 X80.897 Y82 E10.61923
G1 X81.677 Y81.211 E10.65613
G0 F6000 X81.962 Y81.492
G1 F1200 X82.163 Y81.293 E10.66553
G1 X82.65 Y80.826 E10.68798
G1 X83.468 Y80.063 E10.72518
G1 X83.697 Y79.855 E10.73547
G1 X84.363 Y79.271 E10.76493
G1 X85.163 Y78.59 E10.79987
G1 X85.387 Y78.405 E10.80954
G1 X86.083 Y77.846 E10.83923
G1 X86.917 Y77.197 E10.87438
G1 X87.162 Y77.013 E10.88457
M73 P1
G1 X87.837 Y76.52 E10.91237
G1 X88.739 Y75.879 E10.94917
G1 X88.995 Y75.702 E10.95952
G1 X89.612 Y75.291 E10.98418
G1 X90.503 Y74.713 E11.01951
G1 X90.757 Y74.554 E11.02947
G1 X91.559 Y74.067 E11.06068
G1 X92.508 Y73.511 E11.09726
G1 X92.767 Y73.364 E11.10717
G1 X93.482 Y72.973 E11.13427
G1 X94.41 Y72.483 E11.16918
G1 X94.68 Y72.345 E11.17926
G1 X95.427 Y71.979 E11.20693
G1 X96.389 Y71.522 E11.24235
G1 X96.67 Y71.394 E11.25262
G1 X97.433 Y71.059 E11.28034
G1 X98.358 Y70.668 E11.31374
G1 X98.619 Y70.562 E11.32311
G1 X99.27 Y70.307 E11.34636
G1 X100.416 Y69.879 E11.38705
G1 X100.706 Y69.776 E11.39729
G1 X101.568 Y69.484 E11.42756
G1 X102.475 Y69.19 E11.45927
G1 X102.764 Y69.101 E11.46933
G1 X103.632 Y68.848 E11.4994
G1 X104.624 Y68.574 E11.53363
G1 X104.915 Y68.498 E11.54363
G1 X105.735 Y68.297 E11.57171
G1 X106.761 Y68.06 E11.60673
G1 X107.223 Y67.961 E11.62245
G1 X107.935 Y67.821 E11.64658
G1 X108.981 Y67.629 E11.68196
G1 X109.293 Y67.577 E11.69248
G1 X110.09 Y67.456 E11.71929
G1 X111.138 Y67.309 E11.75449
G1 X111.447 Y67.27 E11.76484
G1 X112.344 Y67.172 E11.79486
G1 X113.304 Y67.081 E11.82693
G1 X113.613 Y67.057 E11.83724
G1 X114.537 Y66.997 E11.86803
G1 X115.632 Y66.942 E11.9045
G1 X115.941 Y66.931 E11.91478
G1 X116.744 Y66.915 E11.9415
G1 X117.752 Y66.907 E11.97502
G1 X118.065 Y66.909 E11.98544
G1 X118.925 Y66.929 E12.01405
G1 X119.999 Y66.969 E12.04979
G1 X120.285 Y66.984 E12.05932
G1 X121.095 Y67.037 E12.08632
G1 X122.165 Y67.122 E12.12202
G1 X122.487 Y67.153 E12.13278
G1 X123.351 Y67.249 E12.16169
G1 X124.307 Y67.367 E12.19373
G1 X124.61 Y67.409 E12.2039
G1 X125.5 Y67.546 E12.23385
G1 X126.53 Y67.72 E12.2686
G1 X126.818 Y67.773 E12.27834
