;FLAVOR:Marlin
M73 P0
M73 R63
;TIME:3790
;Filament used: 1.11272m
;Layer height: 0.1
;MINX:24.357
;MINY:32.064
;MINZ:0.3
;MAXX:204.306
;MAXY:202.039
;MAXZ:11
;POSTPROCESSED
;Generated with Cura_SteamEngine 5.0.0
M140 S60
M105
M190 S60
M104 S210
M105
M109 S210
M82 ;absolute extrusion mode
; Ender 3 Custom Start G-code
G92 E0 ; Reset Extruder
G28 ; Home all axes
G1 Z2.0 F3000 ; Move Z Axis up little to prevent scratching of Heat Bed
G1 X0.1 Y20 Z0.3 F5000.0 ; Move to start position
G1 X0.1 Y200.0 Z0.3 F1500.0 E15 ; Draw the first line
G1 X0.4 Y200.0 Z0.3 F5000.0 ; Move to side a little
G1 X0.4 Y20 Z0.3 F1500.0 E30 ; Draw the second line
G92 E0 ; Reset Extruder
G1 Z2.0 F3000 ; Move Z Axis up little to prevent scratching of Heat Bed
G1 X5 Y20 Z0.3 F5000.0 ; Move over to prevent blob squish
G92 E0
G92 E0
G1 F2400 E-3
;LAYER_COUNT:58
;LAYER:0
M107
G0 F6000 X103.471 Y173.857 Z0.3
G0 X96.267 Y187.154
;TYPE:SKIRT
G1 F2400 E0
G1 F1200 X96.274 Y186.21 E0.0471
G1 X96.292 Y185.857 E0.06473
G1 X96.384 Y184.894 E0.11299
G1 X96.437 Y184.515 E0.13209
G1 X96.607 Y183.589 E0.17906
G1 X96.686 Y183.243 E0.19676
G1 X96.913 Y182.404 E0.24013
G1 X97.022 Y182.056 E0.25832
G1 X97.399 Y181.034 E0.31267
G1 X97.557 Y180.663 E0.33278
G1 X97.971 Y179.797 E0.38067
G1 X98.123 Y179.512 E0.39679
G1 X98.556 Y178.772 E0.43956
G1 X98.771 Y178.435 E0.4595
G1 X99.318 Y177.654 E0.50708
G1 X99.516 Y177.396 E0.5233
G1 X100.179 Y176.61 E0.5746
G1 X100.476 Y176.29 E0.59638
G1 X101.153 Y175.621 E0.64387
G1 X101.387 Y175.409 E0.65962
G1 X102.08 Y174.832 E0.70461
G1 X102.393 Y174.592 E0.72429
G1 X103.198 Y174.03 E0.77327
G1 X103.471 Y173.857 E0.78939
G1 X104.312 Y173.374 E0.83778
G1 X104.74 Y173.153 E0.86181
G1 X105.702 Y172.714 E0.91457
G1 X105.937 Y172.62 E0.92719
G1 X106.672 Y172.355 E0.96617
G1 X107.063 Y172.23 E0.98665
G1 X108.075 Y171.959 E1.03892
G1 X108.452 Y171.877 E1.05817
G1 X109.422 Y171.711 E1.10727
G1 X109.757 Y171.669 E1.12411
G1 X110.644 Y171.595 E1.16852
G1 X111.032 Y171.578 E1.18789
G1 X111.873 Y171.573 E1.22985
G1 X112.877 Y171.607 E1.27997
G1 X114.346 Y171.679 E1.35335
G1 X116.867 Y171.732 E1.47915
G1 X119.399 Y171.712 E1.60547
G1 X123.056 Y171.576 E1.78805
G1 X124.022 Y171.582 E1.83624
G1 X124.535 Y171.608 E1.86187
G1 X125.745 Y171.737 E1.92258
G1 X126.175 Y171.807 E1.94431
G1 X127.109 Y172.001 E1.9919
G1 X127.334 Y172.058 E2.00348
G1 X128.089 Y172.278 E2.04272
G1 X128.509 Y172.417 E2.06479
G1 X129.456 Y172.779 E2.11537
G1 X129.701 Y172.886 E2.12871
G1 X130.4 Y173.222 E2.1674
G1 X130.719 Y173.389 E2.18536
G1 X131.579 Y173.89 E2.23502
G1 X131.931 Y174.117 E2.25592
G1 X132.765 Y174.711 E2.307
G1 X133.087 Y174.964 E2.32743
G1 X133.784 Y175.561 E2.37322
G1 X133.971 Y175.735 E2.38596
G1 X134.625 Y176.397 E2.43238
G1 X134.918 Y176.72 E2.45414
G1 X135.587 Y177.532 E2.50663
G1 X135.837 Y177.867 E2.52749
G1 X136.376 Y178.659 E2.57528
G1 X136.556 Y178.95 E2.59235
G1 X137.027 Y179.792 E2.64048
G1 X137.182 Y180.1 E2.65769
G1 X137.541 Y180.89 E2.70098
G1 X137.685 Y181.243 E2.72
G1 X138.023 Y182.193 E2.77031
G1 X138.122 Y182.518 E2.78726
G1 X138.349 Y183.392 E2.83231
G1 X138.429 Y183.761 E2.85114
G1 X138.588 Y184.683 E2.89782
G1 X138.635 Y185.047 E2.91613
G1 X138.718 Y186.033 E2.9655
G1 X138.732 Y186.397 E2.98367
G1 X138.725 Y187.391 E3.03326
G1 X138.705 Y187.776 E3.0525
G1 X138.613 Y188.733 E3.10046
G1 X138.559 Y189.118 E3.11986
G1 X138.389 Y190.044 E3.16683
G1 X138.316 Y190.363 E3.18315
G1 X138.096 Y191.177 E3.22522
G1 X137.984 Y191.537 E3.24403
G1 X137.61 Y192.558 E3.29828
G1 X137.458 Y192.917 E3.31773
G1 X137.04 Y193.794 E3.3662
G1 X136.882 Y194.091 E3.38298
G1 X136.441 Y194.847 E3.42665
G1 X136.227 Y195.182 E3.44648
G1 X135.64 Y196.013 E3.49724
G1 X135.395 Y196.328 E3.51715
G1 X134.737 Y197.098 E3.56768
G1 X134.512 Y197.338 E3.58409
G1 X133.994 Y197.855 E3.6206
G1 X133.828 Y198.01 E3.63193
G1 X133.159 Y198.587 E3.67601
G1 X132.757 Y198.906 E3.70161
G1 X131.76 Y199.61 E3.7625
G1 X131.452 Y199.803 E3.78064
G1 X130.663 Y200.253 E3.82595
G1 X130.311 Y200.435 E3.84572
G1 X129.505 Y200.812 E3.89012
G1 X129.266 Y200.912 E3.90304
G1 X128.309 Y201.261 E3.95386
G1 X127.792 Y201.423 E3.98089
G1 X126.741 Y201.696 E4.03507
G1 X126.486 Y201.749 E4.04806
G1 X125.726 Y201.879 E4.08653
G1 X125.372 Y201.927 E4.10435
G1 X124.372 Y202.017 E4.15444
G1 X123.935 Y202.036 E4.17627
G1 X123.078 Y202.039 E4.21902
G1 X122.278 Y202.011 E4.25896
G1 X120.631 Y201.93 E4.34123
G1 X118.103 Y201.876 E4.46738
G1 X115.599 Y201.895 E4.59231
G1 X112.077 Y202.035 E4.76816
G1 X111.295 Y202.039 E4.80717
G1 X110.783 Y202.023 E4.83273
G1 X109.885 Y201.958 E4.87765
G1 X109.621 Y201.928 E4.8909
G1 X108.571 Y201.756 E4.94399
G1 X108.097 Y201.655 E4.96817
G1 X107.216 Y201.429 E5.01354
G1 X106.977 Y201.357 E5.026
G1 X106.108 Y201.055 E5.07189
G1 X105.698 Y200.893 E5.09389
G1 X104.722 Y200.452 E5.14732
G1 X104.406 Y200.29 E5.16504
G1 X103.575 Y199.817 E5.21274
G1 X103.223 Y199.596 E5.23348
G1 X102.299 Y198.948 E5.28978
G1 X101.933 Y198.662 E5.31295
G1 X101.226 Y198.059 E5.35931
G1 X101.033 Y197.88 E5.37245
G1 X100.357 Y197.196 E5.42043
G1 X100.043 Y196.849 E5.44377
G1 X99.352 Y196.005 E5.49819
G1 X99.137 Y195.714 E5.51624
G1 X98.604 Y194.923 E5.56383
G1 X98.419 Y194.621 E5.5815
G1 X97.973 Y193.82 E5.62724
G1 X97.818 Y193.512 E5.64444
G1 X97.47 Y192.749 E5.68628
G1 X97.329 Y192.406 E5.70478
G1 X96.963 Y191.372 E5.7595
G1 X96.851 Y190.997 E5.77903
G1 X96.628 Y190.12 E5.82417
G1 X96.555 Y189.774 E5.84182
G1 X96.402 Y188.864 E5.88785
G1 X96.357 Y188.503 E5.906
G1 X96.28 Y187.526 E5.9549
G1 X96.267 Y187.154 E5.97347
G0 F6000 X96.666 Y187.14
G1 F1200 X96.674 Y186.23 E6.01887
G1 X96.692 Y185.877 E6.0365
G1 X96.78 Y184.949 E6.08301
G1 X96.833 Y184.57 E6.1021
G1 X96.997 Y183.678 E6.14735
G1 X97.076 Y183.332 E6.16506
G1 X97.295 Y182.524 E6.20682
G1 X97.404 Y182.176 E6.22502
G1 X97.767 Y181.191 E6.27739
G1 X97.925 Y180.82 E6.29751
G1 X98.324 Y179.985 E6.34368
G1 X98.476 Y179.7 E6.35979
G1 X98.893 Y178.987 E6.401
G1 X99.108 Y178.65 E6.42094
G1 X99.635 Y177.898 E6.46676
G1 X99.833 Y177.64 E6.48298
G1 X100.473 Y176.882 E6.53247
G1 X100.77 Y176.562 E6.55426
G1 X101.422 Y175.917 E6.60001
G1 X101.656 Y175.705 E6.61576
G1 X102.323 Y175.149 E6.65909
G1 X102.636 Y174.909 E6.67876
G1 X103.412 Y174.367 E6.72599
G1 X103.685 Y174.194 E6.74211
G1 X104.496 Y173.729 E6.78875
G1 X104.924 Y173.508 E6.81278
G1 X105.85 Y173.085 E6.86357
G1 X106.085 Y172.991 E6.8762
G1 X106.794 Y172.736 E6.91379
G1 X107.185 Y172.611 E6.93427
G1 X108.16 Y172.35 E6.98463
G1 X108.537 Y172.268 E7.00388
G1 X109.471 Y172.108 E7.05115
G1 X109.806 Y172.066 E7.068
G1 X110.661 Y171.994 E7.1108
G1 X111.049 Y171.977 E7.13018
G1 X111.86 Y171.973 E7.17064
G1 X112.857 Y172.007 E7.22041
G1 X114.317 Y172.079 E7.29334
G1 X116.862 Y172.132 E7.42034
G1 X119.382 Y172.112 E7.54606
G1 X123.071 Y171.975 E7.73024
G1 X124.002 Y171.982 E7.77668
G1 X124.515 Y172.008 E7.80231
G1 X125.681 Y172.132 E7.86081
G1 X126.111 Y172.202 E7.88255
G1 X127.011 Y172.389 E7.92841
G1 X127.236 Y172.446 E7.93999
G1 X127.963 Y172.658 E7.97777
G1 X128.383 Y172.797 E7.99984
G1 X129.295 Y173.146 E8.04856
G1 X129.54 Y173.253 E8.06189
G1 X130.214 Y173.576 E8.09918
G1 X130.533 Y173.743 E8.11715
G1 X131.362 Y174.226 E8.16501
G1 X131.714 Y174.453 E8.18591
G1 X132.518 Y175.026 E8.23517
G1 X132.84 Y175.279 E8.2556
G1 X133.512 Y175.854 E8.29972
G1 X133.699 Y176.028 E8.31246
G1 X134.329 Y176.666 E8.3572
G1 X134.622 Y176.989 E8.37895
G1 X135.266 Y177.771 E8.42949
G1 X135.516 Y178.106 E8.45035
G1 X136.036 Y178.87 E8.49646
G1 X136.216 Y179.161 E8.51353
G1 X136.67 Y179.972 E8.5599
G1 X136.825 Y180.28 E8.5771
G1 X137.171 Y181.041 E8.6188
G1 X137.315 Y181.394 E8.63782
G1 X137.64 Y182.309 E8.68627
G1 X137.739 Y182.634 E8.70322
G1 X137.958 Y183.477 E8.74667
G1 X138.038 Y183.846 E8.76551
G1 X138.192 Y184.735 E8.81052
G1 X138.239 Y185.099 E8.82883
G1 X138.318 Y186.049 E8.87639
G1 X138.332 Y186.413 E8.89457
G1 X138.326 Y187.37 E8.94231
G1 X138.306 Y187.755 E8.96154
G1 X138.217 Y188.677 E9.00776
G1 X138.163 Y189.062 E9.02715
G1 X137.999 Y189.955 E9.07245
G1 X137.926 Y190.274 E9.08878
G1 X137.714 Y191.058 E9.1293
G1 X137.602 Y191.418 E9.1481
G1 X137.242 Y192.402 E9.20038
G1 X137.09 Y192.761 E9.21983
G1 X136.687 Y193.606 E9.26654
G1 X136.529 Y193.903 E9.28332
G1 X136.104 Y194.631 E9.32537
G1 X135.89 Y194.966 E9.34521
G1 X135.324 Y195.768 E9.39418
G1 X135.079 Y196.083 E9.41409
G1 X134.445 Y196.825 E9.46278
G1 X134.22 Y197.065 E9.47919
G1 X133.721 Y197.563 E9.51437
G1 X133.555 Y197.718 E9.5257
G1 X132.91 Y198.273 E9.56815
G1 X132.508 Y198.592 E9.59375
G1 X131.547 Y199.271 E9.65246
G1 X131.239 Y199.464 E9.67059
G1 X130.479 Y199.898 E9.71425
G1 X130.127 Y200.08 E9.73402
G1 X129.35 Y200.443 E9.77681
G1 X129.111 Y200.543 E9.78973
G1 X128.19 Y200.879 E9.83865
G1 X127.673 Y201.041 E9.86568
G1 X126.66 Y201.304 E9.91789
G1 X126.405 Y201.357 E9.93088
G1 X125.672 Y201.483 E9.96799
G1 X125.318 Y201.531 E9.98581
G1 X124.354 Y201.617 E10.0341
G1 X123.917 Y201.636 E10.05592
G1 X123.092 Y201.64 E10.09708
G1 X122.297 Y201.611 E10.13677
G1 X120.658 Y201.53 E10.21864
G1 X118.109 Y201.476 E10.34584
G1 X115.611 Y201.495 E10.47047
G1 X112.061 Y201.636 E10.64772
G1 X111.308 Y201.639 E10.68528
G1 X110.796 Y201.623 E10.71084
G1 X109.93 Y201.56 E10.75416
G1 X109.666 Y201.53 E10.76742
G1 X108.654 Y201.365 E10.81857
G1 X108.18 Y201.264 E10.84275
G1 X107.331 Y201.046 E10.88648
G1 X107.092 Y200.974 E10.89893
G1 X106.255 Y200.683 E10.94314
G1 X105.845 Y200.521 E10.96514
G1 X104.904 Y200.096 E11.01665
G1 X104.588 Y199.934 E11.03437
G1 X103.788 Y199.478 E11.08031
G1 X103.436 Y199.257 E11.10104
G1 X102.545 Y198.632 E11.15534
G1 X102.179 Y198.346 E11.17851
G1 X101.498 Y197.766 E11.22314
G1 X101.305 Y197.587 E11.23627
G1 X100.653 Y196.927 E11.28256
G1 X100.339 Y196.58 E11.30591
G1 X99.674 Y195.767 E11.35831
G1 X99.459 Y195.476 E11.37636
G1 X98.945 Y194.714 E11.42222
G1 X98.76 Y194.412 E11.43989
G1 X98.33 Y193.64 E11.48397
G1 X98.175 Y193.332 E11.50117
G1 X97.84 Y192.597 E11.54147
G1 X97.699 Y192.254 E11.55997
G1 X97.346 Y191.257 E11.61274
G1 X97.234 Y190.882 E11.63227
G1 X97.019 Y190.037 E11.67577
G1 X96.946 Y189.691 E11.69341
G1 X96.799 Y188.814 E11.73777
G1 X96.754 Y188.453 E11.75592
G1 X96.679 Y187.512 E11.80302
G1 X96.666 Y187.14 E11.82159
G0 F6000 X97.066 Y187.126
G1 F1200 X97.073 Y186.251 E11.86524
G1 X97.091 Y185.898 E11.88288
G1 X97.176 Y185.004 E11.92768
G1 X97.229 Y184.625 E11.94677
G1 X97.387 Y183.768 E11.99025
G1 X97.466 Y183.422 E12.00796
G1 X97.676 Y182.643 E12.04821
G1 X97.785 Y182.295 E12.0664
G1 X98.135 Y181.347 E12.11682
G1 X98.293 Y180.976 E12.13694
G1 X98.677 Y180.173 E12.18134
G1 X98.829 Y179.888 E12.19746
G1 X99.23 Y179.202 E12.2371
G1 X99.445 Y178.865 E12.25704
G1 X99.952 Y178.141 E12.30114
G1 X100.15 Y177.883 E12.31737
G1 X100.766 Y177.154 E12.36498
G1 X101.063 Y176.834 E12.38676
G1 X101.691 Y176.214 E12.43079
G1 X101.925 Y176.002 E12.44654
G1 X102.566 Y175.467 E12.4882
G1 X102.879 Y175.227 E12.50788
G1 X103.626 Y174.705 E12.55334
G1 X103.899 Y174.532 E12.56947
G1 X104.679 Y174.085 E12.61432
G1 X105.107 Y173.864 E12.63835
G1 X105.999 Y173.457 E12.68726
G1 X106.234 Y173.363 E12.69989
G1 X106.916 Y173.117 E12.73606
G1 X107.307 Y172.992 E12.75654
G1 X108.245 Y172.741 E12.80499
G1 X108.622 Y172.659 E12.82423
G1 X109.521 Y172.505 E12.86974
G1 X109.856 Y172.463 E12.88658
G1 X110.679 Y172.394 E12.92779
G1 X111.067 Y172.377 E12.94716
G1 X111.847 Y172.372 E12.98608
G1 X112.837 Y172.406 E13.0355
G1 X114.324 Y172.479 E13.10977
G1 X116.857 Y172.532 E13.23617
G1 X119.401 Y172.512 E13.3631
G1 X123.086 Y172.375 E13.54707
G1 X123.981 Y172.381 E13.59172
G1 X124.494 Y172.407 E13.61735
G1 X125.617 Y172.527 E13.6737
G1 X126.047 Y172.597 E13.69543
G1 X126.913 Y172.776 E13.73955
G1 X127.138 Y172.833 E13.75113
G1 X127.838 Y173.038 E13.78752
G1 X128.258 Y173.177 E13.80959
G1 X129.135 Y173.513 E13.85645
G1 X129.38 Y173.62 E13.86978
G1 X130.029 Y173.93 E13.90567
G1 X130.348 Y174.097 E13.92363
G1 X131.145 Y174.562 E13.96967
G1 X131.497 Y174.789 E13.99056
G1 X132.271 Y175.341 E14.03799
G1 X132.593 Y175.594 E14.05842
G1 X133.239 Y176.147 E14.10085
G1 X133.426 Y176.321 E14.11359
G1 X134.033 Y176.935 E14.15666
G1 X134.326 Y177.258 E14.17842
G1 X134.946 Y178.011 E14.22708
G1 X135.196 Y178.346 E14.24794
G1 X135.696 Y179.08 E14.29225
G1 X135.876 Y179.371 E14.30932
G1 X136.312 Y180.152 E14.35394
G1 X136.467 Y180.46 E14.37115
G1 X136.8 Y181.192 E14.41127
G1 X136.944 Y181.545 E14.43029
G1 X137.257 Y182.426 E14.47693
G1 X137.356 Y182.751 E14.49388
G1 X137.567 Y183.562 E14.53569
G1 X137.647 Y183.931 E14.55453
G1 X137.795 Y184.786 E14.59782
G1 X137.842 Y185.15 E14.61613
G1 X137.918 Y186.064 E14.66188
G1 X137.932 Y186.428 E14.68006
G1 X137.926 Y187.349 E14.72601
G1 X137.906 Y187.734 E14.74524
G1 X137.821 Y188.622 E14.78975
G1 X137.767 Y189.007 E14.80914
G1 X137.609 Y189.865 E14.85267
G1 X137.536 Y190.184 E14.86899
G1 X137.333 Y190.939 E14.908
G1 X137.221 Y191.299 E14.92681
G1 X136.874 Y192.246 E14.97713
G1 X136.722 Y192.605 E14.99658
G1 X136.334 Y193.419 E15.04156
G1 X136.176 Y193.716 E15.05835
G1 X135.767 Y194.416 E15.0988
G1 X135.553 Y194.751 E15.11863
G1 X135.008 Y195.522 E15.16573
G1 X134.763 Y195.837 E15.18564
G1 X134.153 Y196.551 E15.23249
G1 X133.928 Y196.791 E15.24891
G1 X133.448 Y197.27 E15.28274
G1 X133.282 Y197.425 E15.29407
G1 X132.661 Y197.96 E15.33496
G1 X132.259 Y198.279 E15.36057
G1 X131.335 Y198.932 E15.41701
G1 X131.027 Y199.125 E15.43515
G1 X130.296 Y199.543 E15.47716
G1 X129.944 Y199.725 E15.49693
G1 X129.196 Y200.074 E15.53811
G1 X128.957 Y200.174 E15.55103
G1 X128.07 Y200.497 E15.59813
G1 X127.553 Y200.659 E15.62516
G1 X126.579 Y200.913 E15.67538
G1 X126.324 Y200.966 E15.68837
G1 X125.619 Y201.087 E15.72406
G1 X125.265 Y201.135 E15.74188
G1 X124.337 Y201.217 E15.78836
G1 X123.9 Y201.236 E15.81018
G1 X123.105 Y201.24 E15.84984
G1 X122.317 Y201.212 E15.88918
G1 X120.651 Y201.13 E15.9724
G1 X118.115 Y201.076 E16.09895
G1 X115.592 Y201.095 E16.22483
G1 X112.045 Y201.236 E16.40193
G1 X111.32 Y201.239 E16.4381
G1 X110.808 Y201.223 E16.46365
G1 X109.975 Y201.163 E16.50532
G1 X109.711 Y201.133 E16.51858
G1 X108.737 Y200.974 E16.56781
G1 X108.263 Y200.873 E16.59199
G1 X107.447 Y200.663 E16.63403
G1 X107.208 Y200.591 E16.64648
G1 X106.402 Y200.311 E16.68905
G1 X105.992 Y200.149 E16.71104
G1 X105.087 Y199.74 E16.76059
G1 X104.771 Y199.578 E16.77831
G1 X104 Y199.14 E16.82255
G1 X103.648 Y198.919 E16.84328
G1 X102.792 Y198.317 E16.89549
G1 X102.426 Y198.031 E16.91867
G1 X101.77 Y197.473 E16.96163
G1 X101.577 Y197.294 E16.97477
G1 X100.95 Y196.659 E17.01929
G1 X100.636 Y196.312 E17.04263
G1 X99.995 Y195.529 E17.09312
G1 X99.78 Y195.238 E17.11117
G1 X99.286 Y194.505 E17.15527
G1 X99.101 Y194.203 E17.17294
G1 X98.688 Y193.46 E17.21535
G1 X98.533 Y193.152 E17.23255
G1 X98.21 Y192.445 E17.27133
G1 X98.069 Y192.102 E17.28983
G1 X97.73 Y191.143 E17.34058
G1 X97.618 Y190.768 E17.3601
G1 X97.411 Y189.955 E17.40196
G1 X97.338 Y189.609 E17.4196
G1 X97.196 Y188.765 E17.4623
G1 X97.151 Y188.404 E17.48045
G1 X97.079 Y187.498 E17.52579
G1 X97.066 Y187.126 E17.54436
G1 F2400 E14.54436
;MESH:SP_connector.stl(4)
G0 F6000 X107.664 Y189.881
G0 X108.754 Y189.463
G0 X111.238 Y190.433
G1 F2400 E17.54436
G0 F6000 X111.209 Y190.841
;TYPE:WALL-OUTER
G1 F1200 X111.576 Y190.851 E17.56268
G1 X111.915 Y190.831 E17.57962
G1 X112.296 Y190.773 E17.59885
G1 X112.596 Y190.7 E17.61425
G1 X112.97 Y190.575 E17.63393
G1 X113.256 Y190.451 E17.64948
G1 X113.597 Y190.266 E17.66883
G1 X113.869 Y190.086 E17.6851
G1 X114.151 Y189.862 E17.70307
