;FLAVOR:Marlin
M73 P0
M73 R153
;TIME:9153
;Filament used: 8.53798m
;Layer height: 0.2
;MINX:18.022
;MINY:91.721
;MINZ:0.24
;MAXX:209.351
;MAXY:143.266
;MAXZ:16.29
;POSTPROCESSED
;Generated with Cura_SteamEngine 5.0.0
M140 S50
M105
M190 S50
M104 S189
M105
M109 S189
M82 ;absolute extrusion mode
; Ender 3 Custom Start G-code
G92 E0 ; Reset Extruder
G28 ; Home all axes
G1 Z2.0 F3000 ; Move Z Axis up little to prevent scratching of Heat Bed
G1 X0.1 Y20 Z0.3 F5000.0 ; Move to start position
G1 X0.1 Y200.0 Z0.3 F1500.0 E15 ; Draw the first line
G1 X0.4 Y200.0 Z0.3 F5000.0 ; Move to side a little
G1 X0.4 Y20 Z0.3 F1500.0 E30 ; Draw the second line
G92 E0 ; Reset Extruder
G1 Z2.0 F3000 ; Move Z Axis up little to prevent scratching of Heat Bed
G1 X5 Y20 Z0.3 F5000.0 ; Move over to prevent blob squish
G92 E0
G92 E0
G1 F2700 E-5
;LAYER_COUNT:76
;LAYER:-6
M107
G0 F9000 X27.077 Y93.891 Z0.24
;TYPE:SUPPORT-INTERFACE
G1 F2700 E0
G1 F1125 X26.784 Y94.023 E0.02565
G1 X26.293 Y94.265 E0.06935
G1 X25.773 Y94.547 E0.11657
G1 X25.293 Y94.834 E0.16121
G1 X24.79 Y95.166 E0.20932
G1 X24.199 Y95.604 E0.26804
G1 X23.73 Y95.985 E0.31627
G1 X23.29 Y96.38 E0.36347
G1 X22.874 Y96.786 E0.40987
G1 X22.446 Y97.244 E0.45991
G1 X21.916 Y97.885 E0.5263
G1 X21.554 Y98.367 E0.57442
G1 X21.167 Y98.94 E0.62962
G1 X20.849 Y99.469 E0.67889
G1 X20.631 Y99.864 E0.7149
G1 X20.454 Y100.206 E0.74564
G1 X20.284 Y100.567 E0.77749
G1 X20.153 Y100.863 E0.80333
G1 X19.92 Y101.449 E0.85367
G1 X19.725 Y102.016 E0.90153
G1 X19.569 Y102.54 E0.94517
G1 X19.456 Y102.984 E0.98174
G1 X19.329 Y103.567 E1.02937
G1 X19.225 Y104.186 E1.07948
G1 X19.149 Y104.828 E1.13108
G1 X19.118 Y105.207 E1.16144
G1 X19.089 Y105.895 E1.21641
G1 X19.091 Y108.005 E1.38483
G1 X19.13 Y108.784 E1.4471
G1 X19.131 Y109.266 E1.48557
G1 X19.096 Y110.123 E1.55404
G1 X19.087 Y124.452 E2.69784
G1 X19.092 Y124.767 E2.72299
G1 X19.103 Y125.037 E2.74456
G1 X19.144 Y125.485 E2.78047
G1 X19.192 Y125.815 E2.80709
G1 X19.3 Y126.346 E2.85034
G1 X19.429 Y126.812 E2.88894
G1 X19.533 Y127.127 E2.91542
G1 X19.693 Y127.551 E2.9516
G1 X19.87 Y128.094 E2.99718
G1 X19.882 Y128.143 E3.00121
G1 X20.001 Y128.768 E3.052
G1 X20.008 Y128.819 E3.05611
G1 X20.08 Y130.064 E3.15565
G1 X20.116 Y130.337 E3.17764
G1 X20.174 Y130.625 E3.20109
G1 X20.245 Y130.898 E3.2236
G1 X20.338 Y131.188 E3.24791
G1 X20.447 Y131.454 E3.27086
G1 X20.57 Y131.71 E3.29353
G1 X20.715 Y131.97 E3.3173
G1 X20.872 Y132.212 E3.34032
G1 X21.042 Y132.443 E3.36322
G1 X21.234 Y132.671 E3.38701
G1 X21.432 Y132.877 E3.40982
G1 X21.644 Y133.072 E3.43281
G1 X21.877 Y133.261 E3.45676
G1 X22.158 Y133.461 E3.48429
G1 X22.376 Y133.596 E3.50476
G1 X22.997 Y133.913 E3.56042
G1 X23.72 Y134.156 E3.6213
G1 X23.977 Y134.222 E3.64248
G1 X24.33 Y134.284 E3.67109
G1 X24.906 Y134.34 E3.71729
G1 X201.797 Y142.207 E17.85145
G1 X202.396 Y142.202 E17.89926
G1 X202.733 Y142.17 E17.92629
G1 X203.34 Y142.07 E17.97539
G1 X203.666 Y141.986 E18.00227
G1 X204.263 Y141.775 E18.05281
G1 X204.592 Y141.624 E18.08171
G1 X205.139 Y141.314 E18.13189
G1 X205.367 Y141.161 E18.15381
G1 X205.619 Y140.967 E18.1792
G1 X205.812 Y140.799 E18.19962
G1 X206.06 Y140.556 E18.22734
G1 X206.241 Y140.353 E18.24905
G1 X206.433 Y140.107 E18.27396
G1 X206.584 Y139.885 E18.29539
G1 X206.74 Y139.625 E18.31959
G1 X206.865 Y139.381 E18.34148
G1 X206.984 Y139.114 E18.36481
G1 X207.088 Y138.828 E18.38911
G1 X207.176 Y138.52 E18.41467
G1 X207.238 Y138.232 E18.43819
G1 X207.278 Y137.982 E18.4584
G1 X207.303 Y137.702 E18.48084
G1 X207.326 Y137.292 E18.51362
G1 X207.325 Y135.971 E18.61907
G1 X207.363 Y135.354 E18.66841
G1 X207.369 Y135.304 E18.67243
G1 X207.484 Y134.694 E18.72198
G1 X207.754 Y133.621 E18.8103
G1 X207.98 Y132.625 E18.89183
G1 X208.11 Y131.899 E18.95071
G1 X208.207 Y131.195 E19.00743
G1 X208.264 Y130.512 E19.06214
G1 X208.278 Y130.187 E19.08811
G1 X208.286 Y106.081 E21.01235
G1 X208.284 Y105.922 E21.02505
G1 X208.268 Y105.486 E21.05987
G1 X208.252 Y105.185 E21.08394
G1 X208.19 Y104.503 E21.1386
G1 X208.103 Y103.883 E21.18858
G1 X207.998 Y103.34 E21.23272
G1 X207.882 Y102.838 E21.27385
G1 X207.721 Y102.245 E21.3229
G1 X207.563 Y101.757 E21.36385
G1 X207.385 Y101.273 E21.40501
G1 X207.173 Y100.756 E21.44961
G1 X206.938 Y100.251 E21.49408
G1 X206.709 Y99.805 E21.5341
G1 X206.412 Y99.277 E21.58245
G1 X206.1 Y98.78 E21.6293
G1 X205.805 Y98.351 E21.67086
G1 X205.436 Y97.859 E21.71995
G1 X205.086 Y97.433 E21.76396
G1 X204.668 Y96.967 E21.81393
G1 X204.26 Y96.549 E21.86056
G1 X203.845 Y96.161 E21.90591
G1 X203.387 Y95.772 E21.95387
G1 X202.89 Y95.386 E22.00411
G1 X202.418 Y95.056 E22.05008
G1 X201.938 Y94.746 E22.09569
M73 P1
G1 X201.458 Y94.465 E22.14009
G1 X200.819 Y94.133 E22.19757
G1 X200.482 Y93.972 E22.22738
G1 X199.894 Y93.722 E22.27839
G1 X199.371 Y93.526 E22.32297
G1 X198.835 Y93.352 E22.36795
G1 X198.3 Y93.205 E22.41224
G1 X197.71 Y93.067 E22.46061
G1 X197.124 Y92.957 E22.5082
G1 X196.54 Y92.877 E22.55526
G1 X195.97 Y92.823 E22.60096
G1 X195.37 Y92.791 E22.64892
G1 X32.444 Y92.785 E35.65438
G1 X31.985 Y92.797 E35.69103
G1 X31.702 Y92.806 E35.71363
G1 X31.114 Y92.849 E35.7607
G1 X30.548 Y92.915 E35.80618
G1 X29.816 Y93.038 E35.86543
G1 X29.098 Y93.194 E35.92408
G1 X28.344 Y93.414 E35.98678
G1 X27.827 Y93.592 E36.03043
G1 X27.077 Y93.891 E36.09488
G0 F9000 X26.652 Y94.534
G1 F1125 X67.972 Y135.854 E40.75944
G0 F9000 X70.34 Y135.959
G1 F1125 X28.249 Y93.869 E45.51098
G0 F9000 X30.047 Y93.404
G1 F1125 X72.707 Y136.064 E50.32681
G0 F9000 X75.075 Y136.169
G1 F1125 X32.1 Y93.194 E55.1782
G0 F9000 X34.354 Y93.185
G1 F1125 X77.443 Y136.275 E60.04251
G0 F9000 X79.811 Y136.38
G1 F1125 X36.616 Y93.185 E64.91874
G0 F9000 X38.879 Y93.185
G1 F1125 X82.179 Y136.485 E69.80681
G0 F9000 X84.548 Y136.591
G1 F1125 X41.142 Y93.185 E74.70686
G0 F9000 X43.405 Y93.185
G1 F1125 X86.916 Y136.696 E79.61876
G0 F9000 X89.284 Y136.801
G1 F1125 X45.667 Y93.185 E84.54256
G0 F9000 X47.93 Y93.185
G1 F1125 X91.652 Y136.907 E89.47828
G0 F9000 X94.02 Y137.012
G1 F1125 X50.193 Y93.185 E94.42585
G0 F9000 X52.456 Y93.186
G1 F1125 X96.388 Y137.117 E99.38522
G0 F9000 X98.756 Y137.223
G1 F1125 X54.719 Y93.186 E104.3565
G0 F9000 X56.982 Y93.186
G1 F1125 X101.124 Y137.328 E109.33963
G0 F9000 X103.492 Y137.433
G1 F1125 X59.244 Y93.186 E114.33467
G0 F9000 X61.507 Y93.186
G1 F1125 X105.86 Y137.539 E119.34162
G0 F9000 X108.229 Y137.644
G1 F1125 X63.77 Y93.186 E124.36048
G0 F9000 X66.033 Y93.186
G1 F1125 X110.597 Y137.75 E129.39124
G0 F9000 X112.965 Y137.855
G1 F1125 X68.295 Y93.186 E134.43392
G0 F9000 X70.559 Y93.186
G1 F1125 X115.333 Y137.96 E139.4884
G0 F9000 X117.701 Y138.066
G1 F1125 X72.822 Y93.186 E144.55479
G0 F9000 X75.084 Y93.186
G1 F1125 X120.068 Y138.17 E149.63297
G0 F9000 X122.436 Y138.276
G1 F1125 X77.347 Y93.186 E154.72306
G0 F9000 X79.61 Y93.186
G1 F1125 X124.805 Y138.381 E159.82506
G0 F9000 X127.173 Y138.486
G1 F1125 X81.873 Y93.186 E164.93892
G0 F9000 X84.135 Y93.186
G1 F1125 X129.541 Y138.592 E170.06474
G0 F9000 X131.909 Y138.697
G1 F1125 X86.398 Y93.186 E175.20242
G0 F9000 X88.661 Y93.187
G1 F1125 X134.277 Y138.802 E180.35189
G0 F9000 X136.645 Y138.908
G1 F1125 X90.924 Y93.187 E185.51327
G0 F9000 X93.187 Y93.187
G1 F1125 X139.013 Y139.013 E190.6865
G0 F9000 X141.381 Y139.119
G1 F1125 X95.45 Y93.187 E195.87165
G0 F9000 X97.712 Y93.187
G1 F1125 X143.749 Y139.224 E201.0687
G0 F9000 X146.117 Y139.329
G1 F1125 X99.975 Y93.187 E206.27761
G0 F9000 X102.238 Y93.187
G1 F1125 X148.486 Y139.435 E211.49848
G0 F9000 X150.854 Y139.54
G1 F1125 X104.501 Y93.187 E216.73121
G0 F9000 X106.764 Y93.188
G1 F1125 X153.222 Y139.645 E221.97574
G0 F9000 X155.59 Y139.751
G1 F1125 X109.027 Y93.188 E227.23217
G0 F9000 X111.29 Y93.188
G1 F1125 X157.958 Y139.856 E232.50046
G0 F9000 X160.326 Y139.961
G1 F1125 X113.552 Y93.188 E237.78065
G0 F9000 X115.815 Y93.188
G1 F1125 X162.694 Y140.067 E243.07276
G0 F9000 X165.062 Y140.172
G1 F1125 X118.078 Y93.188 E248.37672
G0 F9000 X120.341 Y93.188
G1 F1125 X167.43 Y140.277 E253.69253
G0 F9000 X169.798 Y140.382
G1 F1125 X122.603 Y93.188 E259.02026
G0 F9000 X124.867 Y93.188
G1 F1125 X172.166 Y140.487 E264.35978
G0 F9000 X174.534 Y140.593
G1 F1125 X127.13 Y93.188 E269.71121
G0 F9000 X129.392 Y93.188
G1 F1125 X176.902 Y140.698 E275.07455
G0 F9000 X179.27 Y140.804
G1 F1125 X131.655 Y93.188 E280.44979
G0 F9000 X133.918 Y93.188
G1 F1125 X181.638 Y140.909 E285.8369
G0 F9000 X184.006 Y141.014
G1 F1125 X136.18 Y93.188 E291.23591
G0 F9000 X138.443 Y93.188
G1 F1125 X186.374 Y141.12 E296.64683
G0 F9000 X188.743 Y141.225
G1 F1125 X140.706 Y93.188 E302.06966
G0 F9000 X142.969 Y93.189
G1 F1125 X191.111 Y141.33 E307.50429
G0 F9000 X193.479 Y141.436
M73 P2
G1 F1125 X145.232 Y93.189 E312.95083
G0 F9000 X147.495 Y93.189
G1 F1125 X195.847 Y141.541 E318.40922
G0 F9000 X198.215 Y141.646
G1 F1125 X149.758 Y93.189 E323.87947
G0 F9000 X152.02 Y93.189
G1 F1125 X200.583 Y141.752 E329.36168
G0 F9000 X202.839 Y141.745
G1 F1125 X154.283 Y93.189 E334.8431
G0 F9000 X156.546 Y93.189
G1 F1125 X204.544 Y141.188 E340.26158
G0 F9000 X205.83 Y140.21
G1 F1125 X158.809 Y93.189 E345.56972
G0 F9000 X161.072 Y93.19
G1 F1125 X206.675 Y138.793 E350.71778
G0 F9000 X206.925 Y136.78
G1 F1125 X163.335 Y93.19 E355.6386
G0 F9000 X165.598 Y93.19
G1 F1125 X207.081 Y134.673 E360.32156
G0 F9000 X207.518 Y132.847
G1 F1125 X167.86 Y93.19 E364.79844
G0 F9000 X170.123 Y93.19
G1 F1125 X207.829 Y130.896 E369.05502
G0 F9000 X207.878 Y128.682
G1 F1125 X172.386 Y93.19 E373.06166
G0 F9000 X174.649 Y93.19
G1 F1125 X207.878 Y126.42 E376.81289
G0 F9000 X207.879 Y124.158
G1 F1125 X176.911 Y93.19 E380.30883
G0 F9000 X179.175 Y93.191
G1 F1125 X207.88 Y121.896 E383.5493
G0 F9000 X207.88 Y119.633
G1 F1125 X181.437 Y93.191 E386.53436
G0 F9000 X183.7 Y93.191
G1 F1125 X207.88 Y117.371 E389.264
G0 F9000 X207.881 Y115.109
G1 F1125 X185.963 Y93.191 E391.7383
G0 F9000 X188.226 Y93.191
G1 F1125 X207.882 Y112.847 E393.95723
G0 F9000 X207.883 Y110.585
G1 F1125 X190.488 Y93.191 E395.92088
G0 F9000 X192.751 Y93.191
G1 F1125 X207.883 Y108.323 E397.62911
G0 F9000 X207.883 Y106.06
G1 F1125 X195.014 Y93.191 E399.08187
G0 F9000 X197.526 Y93.44
G1 F1125 X207.629 Y103.543 E400.22239
G0 F9000 X206.369 Y100.02
G1 F1125 X201.057 Y94.708 E400.82205
G1 F2700 E395.82205
G0 F9000 X201.294 Y93.18
G0 X202.775 Y94.01
G0 X204.361 Y95.198
G0 X205.823 Y96.655
G0 X206.991 Y98.196
G0 X207.895 Y99.783
G0 X208.671 Y101.712
G0 X208.93 Y102.602
G0 X209.248 Y104.384
G0 X209.351 Y106.076
G0 X209.327 Y130.579
G0 X208.245 Y138.64
G0 X207.917 Y139.648
G0 X207.392 Y140.599
G0 X206.713 Y141.414
G0 X205.683 Y142.23
G0 X204.65 Y142.767
G0 X203.546 Y143.115
G0 X202.436 Y143.266
G0 X65.539 Y137.213
G0 X65.603 Y135.748
G1 F2700 E400.82205
G1 F1125 X25.217 Y95.362 E405.38117
G0 F9000 X23.932 Y96.34
G1 F1125 X63.235 Y135.643 E409.81803
G0 F9000 X60.867 Y135.538
G1 F1125 X22.79 Y97.46 E414.11655
G0 F9000 X21.793 Y98.726
G1 F1125 X58.499 Y135.432 E418.26024
G0 F9000 X56.131 Y135.327
G1 F1125 X20.943 Y100.139 E422.23257
G0 F9000 X20.252 Y101.71
G1 F1125 X53.763 Y135.222 E426.01563
G0 F9000 X51.395 Y135.116
G1 F1125 X19.757 Y103.478 E429.5872
G0 F9000 X19.506 Y105.49
G1 F1125 X49.027 Y135.011 E432.91979
G0 F9000 X46.659 Y134.906
G1 F1125 X19.49 Y107.737 E435.98686
G0 F9000 X19.5 Y110.01
G1 F1125 X44.291 Y134.8 E438.78543
G0 F9000 X41.922 Y134.695
G1 F1125 X19.494 Y112.266 E441.31735
G0 F9000 X19.492 Y114.527
G1 F1125 X39.554 Y134.589 E443.58212
G0 F9000 X37.186 Y134.484
G1 F1125 X19.491 Y116.789 E445.57969
G0 F9000 X19.489 Y119.049
G1 F1125 X34.818 Y134.379 E447.31021
G0 F9000 X32.45 Y134.273
G1 F1125 X19.487 Y121.311 E448.77353
G0 F9000 X19.486 Y123.572
G1 F1125 X30.082 Y134.168 E449.9697
G0 F9000 X27.714 Y134.063
G1 F1125 X19.634 Y125.983 E450.88184
G0 F9000 X20.42 Y129.032
G1 F1125 X25.346 Y133.957 E451.43787
G1 F2700 E446.43787
G0 F300 X25.346 Y133.957 Z0.54
G0 F9000 X25.282 Y135.423
G0 X23.752 Y135.264
G0 X22.387 Y134.801
G0 X21.56 Y134.342
G0 X20.689 Y133.641
G0 X19.996 Y132.819
G0 X19.473 Y131.887
G0 X19.134 Y130.864
G0 X18.086 Y125.605
G0 X18.022 Y124.625
G0 X18.063 Y105.031
G0 X18.357 Y103.003
G0 X18.923 Y101.076
G0 X19.693 Y99.36
G0 X20.516 Y97.99
G0 X21.723 Y96.456
G0 X23.211 Y95.032
G0 X24.475 Y94.093
G0 X26.335 Y93.057
G0 X27.221 Y94.262
M73 R147
M73 P3
;TIME_ELAPSED:322.507244
;LAYER:-5
;TYPE:SUPPORT
G1 F2700 E451.43787
G1 F1125 X26.953 Y94.383 E451.46721
G1 X26.476 Y94.617 E451.52023
G1 X25.964 Y94.895 E451.57836
G1 X25.494 Y95.177 E451.63305
G1 X25.024 Y95.489 E451.68934
G1 X24.622 Y95.782 E451.73898
G1 X24.132 Y96.169 E451.80128
G1 X23.719 Y96.526 E451.85575
G1 X23.157 Y97.068 E451.93366
G1 X22.749 Y97.503 E451.99316
G1 X22.282 Y98.062 E452.06584
G1 X21.88 Y98.597 E452.13262
G1 X21.626 Y98.968 E452.17748
G1 X21.331 Y99.434 E452.23251
G1 X20.977 Y100.062 E452.30444
G1 X20.815 Y100.375 E452.33961
G1 X20.515 Y101.033 E452.41177
G1 X20.466 Y101.155 E452.42489
G1 X27.454 Y94.168 E453.4109
G1 X27.859 Y94.004 E453.4545
G1 X28.474 Y93.791 E453.51944
G1 X29.174 Y93.589 E453.59213
G1 X29.528 Y93.507 E453.62839
G1 X19.811 Y103.224 E454.99956
G1 X19.711 Y103.692 E455.04732
G1 X19.609 Y104.312 E455.11001
G1 X19.543 Y104.907 E455.16975
G1 X31.21 Y93.24 E456.81608
G1 X31.716 Y93.205 E456.86669
G1 X32.455 Y93.183 E456.94046
G1 X32.681 Y93.183 E456.96302
G1 X19.489 Y106.375 E458.82455
G1 X19.49 Y107.788 E458.96554
G1 X34.095 Y93.183 E461.02646
G1 X35.51 Y93.183 E461.16765
G1 X19.53 Y109.162 E463.42253
G1 X19.494 Y110.146 E463.52078
G1 X19.494 Y110.612 E463.56728
G1 X36.924 Y93.183 E466.02677
G1 X38.338 Y93.183 E466.16786
G1 X19.494 Y112.027 E468.82695
G1 X19.493 Y113.442 E468.96814
G1 X39.752 Y93.183 E471.8269
G1 X41.167 Y93.183 E471.96809
G1 X19.492 Y114.858 E475.02667
G1 X19.491 Y116.273 E475.16786
G1 X42.581 Y93.183 E478.42611
G1 X43.995 Y93.183 E478.5672
G1 X19.49 Y117.688 E482.02512
G1 X19.489 Y119.103 E482.16631
G1 X45.409 Y93.183 E485.8239
G1 X46.823 Y93.183 E485.96499
G1 X19.488 Y120.518 E489.82225
G1 X19.487 Y121.933 E489.96344
G1 X48.237 Y93.183 E494.02038
G1 X49.651 Y93.183 E494.16147
G1 X19.487 Y123.348 E498.418
G1 X19.49 Y124.759 E498.55879
G1 X51.065 Y93.183 E503.01444
G1 X52.48 Y93.183 E503.15563
G1 X19.642 Y126.021 E507.78942
G1 X19.687 Y126.246 E507.81232
G1 X19.811 Y126.692 E507.85851
G1 X19.959 Y127.118 E507.90351
G1 X53.894 Y93.183 E512.6921
G1 X55.308 Y93.183 E512.83319
G1 X20.298 Y128.193 E517.77348
G1 X20.404 Y128.741 E517.82917
G1 X20.445 Y129.461 E517.90113
G1 X56.722 Y93.183 E523.02028
G1 X58.136 Y93.183 E523.16137
G1 X20.61 Y130.71 E528.45676
G1 X20.623 Y130.772 E528.46308
G1 X20.717 Y131.057 E528.49303
G1 X20.921 Y131.521 E528.5436
G1 X21.031 Y131.703 E528.56482
G1 X59.551 Y93.183 E534.00041
G1 X60.965 Y93.183 E534.1415
M73 P4
G1 X21.639 Y132.509 E539.69082
G1 X21.904 Y132.769 E539.72787
G1 X22.118 Y132.943 E539.75539
G1 X22.418 Y133.144 E539.79142
G1 X62.378 Y93.184 E545.43021
G1 X63.793 Y93.184 E545.5714
G1 X23.364 Y133.613 E551.27637
G1 X23.823 Y133.768 E551.32471
G1 X24.069 Y133.833 E551.35009
G1 X24.492 Y133.899 E551.39281
G1 X65.207 Y93.184 E557.13814
G1 X66.621 Y93.184 E557.27923
G1 X25.829 Y133.976 E563.03542
G1 X27.183 Y134.037 E563.17066
G1 X68.035 Y93.184 E568.93539
G1 X69.449 Y93.184 E569.07648
G1 X28.537 Y134.097 E574.84967
G1 X29.891 Y134.157 E574.98491
G1 X70.864 Y93.184 E580.76664
G1 X72.278 Y93.184 E580.90773
G1 X31.244 Y134.218 E586.69807
G1 X32.599 Y134.278 E586.83341
G1 X73.692 Y93.184 E592.63214
G1 X75.106 Y93.184 E592.77323
G1 X33.953 Y134.338 E598.58044
G1 X35.307 Y134.398 E598.71567
G1 X76.52 Y93.184 E604.53134
G1 X77.934 Y93.185 E604.67243
