;FLAVOR:Marlin
M73 P0
M73 R110
;TIME:6617
;Filament used: 5.86704m
;Layer height: 0.2
;MINX:12.686
;MINY:86.384
;MINZ:0.2
;MAXX:214.682
;MAXY:148.598
;MAXZ:15.2
;POSTPROCESSED
;Generated with Cura_SteamEngine 5.0.0
M140 S50
M105
M190 S50
M104 S189
M105
M109 S189
M82 ;absolute extrusion mode
; Ender 3 Custom Start G-code
G92 E0 ; Reset Extruder
G28 ; Home all axes
G1 Z2.0 F3000 ; Move Z Axis up little to prevent scratching of Heat Bed
G1 X0.1 Y20 Z0.3 F5000.0 ; Move to start position
G1 X0.1 Y200.0 Z0.3 F1500.0 E15 ; Draw the first line
G1 X0.4 Y200.0 Z0.3 F5000.0 ; Move to side a little
G1 X0.4 Y20 Z0.3 F1500.0 E30 ; Draw the second line
G92 E0 ; Reset Extruder
G1 Z2.0 F3000 ; Move Z Axis up little to prevent scratching of Heat Bed
G1 X5 Y20 Z0.3 F5000.0 ; Move over to prevent blob squish
G92 E0
G92 E0
G1 F2700 E-5
;LAYER_COUNT:76
;LAYER:0
M107
G0 F6000 X26.292 Y87.36 Z0.2
G0 X13.788 Y99.616
;TYPE:SKIRT
G1 F2700 E0
G1 F1200 X14.009 Y99.015 E0.0213
G1 X14.283 Y98.34 E0.04553
G1 X14.513 Y97.823 E0.06435
G1 X14.836 Y97.158 E0.08894
G1 X15.081 Y96.694 E0.10639
G1 X15.338 Y96.234 E0.12391
G1 X15.559 Y95.86 E0.13836
G1 X16.057 Y95.091 E0.16884
G1 X16.643 Y94.265 E0.20252
G1 X17.31 Y93.417 E0.2384
G1 X17.713 Y92.953 E0.25884
G1 X18.173 Y92.456 E0.28137
G1 X18.754 Y91.875 E0.3087
G1 X19.353 Y91.334 E0.33554
G1 X19.852 Y90.913 E0.35726
G1 X20.22 Y90.615 E0.37301
G1 X20.743 Y90.211 E0.39499
G1 X21.527 Y89.657 E0.42692
G1 X22.064 Y89.324 E0.44793
G1 X22.927 Y88.822 E0.48114
G1 X24.08 Y88.239 E0.52411
G1 X25.032 Y87.826 E0.55863
G1 X25.892 Y87.495 E0.58928
G1 X26.292 Y87.36 E0.60332
G1 X26.953 Y87.159 E0.6263
G1 X27.574 Y86.992 E0.64768
G1 X28.234 Y86.837 E0.67023
G1 X29.015 Y86.686 E0.69669
G1 X29.43 Y86.618 E0.71068
G1 X29.988 Y86.541 E0.72941
G1 X30.783 Y86.461 E0.75599
G1 X31.119 Y86.437 E0.76719
G1 X31.705 Y86.411 E0.7867
G1 X33.29 Y86.384 E0.83943
G1 X194.637 Y86.388 E6.20585
G1 X195.259 Y86.397 E6.22654
G1 X195.824 Y86.42 E6.24535
G1 X196.794 Y86.484 E6.27768
G1 X197.643 Y86.573 E6.30607
G1 X198.463 Y86.702 E6.33368
G1 X198.855 Y86.776 E6.34695
G1 X199.373 Y86.887 E6.36457
G1 X200.193 Y87.093 E6.39269
G1 X200.97 Y87.324 E6.41965
G1 X201.825 Y87.618 E6.44972
G1 X202.2 Y87.761 E6.46307
G1 X202.799 Y88.01 E6.48465
G1 X203.354 Y88.26 E6.50489
G1 X203.99 Y88.571 E6.52844
G1 X204.435 Y88.807 E6.54519
G1 X204.932 Y89.087 E6.56417
G1 X205.625 Y89.513 E6.59122
G1 X205.95 Y89.726 E6.60415
G1 X206.525 Y90.128 E6.62748
G1 X206.949 Y90.451 E6.64521
G1 X207.599 Y90.972 E6.67292
G1 X208.334 Y91.617 E6.70544
G1 X208.874 Y92.135 E6.73033
G1 X209.527 Y92.818 E6.76176
G1 X210.107 Y93.479 E6.791
G1 X210.667 Y94.171 E6.82061
G1 X211.105 Y94.784 E6.84567
G1 X211.633 Y95.576 E6.87733
G1 X212.09 Y96.326 E6.90654
G1 X212.454 Y97.002 E6.93208
G1 X212.75 Y97.595 E6.95412
G1 X213.132 Y98.45 E6.98527
G1 X213.384 Y99.085 E7.00799
G1 X213.646 Y99.804 E7.03344
G1 X213.905 Y100.646 E7.06274
G1 X214.061 Y101.237 E7.08307
G1 X214.173 Y101.703 E7.09901
G1 X214.317 Y102.364 E7.12151
G1 X214.465 Y103.193 E7.14952
G1 X214.514 Y103.546 E7.16138
G1 X214.605 Y104.422 E7.19067
G1 X214.642 Y104.991 E7.20963
G1 X214.674 Y105.826 E7.23743
G1 X214.682 Y106.247 E7.25143
G1 X214.679 Y129.666 E8.03035
G1 X214.662 Y130.499 E8.05806
G1 X214.61 Y131.366 E8.08695
G1 X214.55 Y131.968 E8.10707
G1 X214.488 Y132.467 E8.1238
G1 X214.331 Y133.542 E8.15993
G1 X214.058 Y135.298 E8.21904
G1 X213.731 Y137.861 E8.30497
G1 X213.651 Y138.591 E8.3294
G1 X213.509 Y139.518 E8.36059
G1 X213.288 Y140.43 E8.3918
G1 X212.991 Y141.319 E8.42298
G1 X212.618 Y142.18 E8.45419
G1 X212.174 Y143.006 E8.48538
G1 X211.661 Y143.791 E8.51657
G1 X211.083 Y144.53 E8.54777
G1 X210.445 Y145.217 E8.57895
G1 X209.75 Y145.846 E8.61013
G1 X209.004 Y146.415 E8.64134
G1 X208.322 Y146.853 E8.6683
G1 X208.067 Y147.004 E8.67815
G1 X207.24 Y147.447 E8.70936
G1 X206.379 Y147.818 E8.74054
G1 X205.489 Y148.114 E8.77173
G1 X204.567 Y148.336 E8.80328
G1 X204.249 Y148.398 E8.81405
G1 X203.322 Y148.538 E8.84523
G1 X202.386 Y148.598 E8.87643
G1 X201.844 Y148.597 E8.89446
G1 X200.703 Y148.564 E8.93242
G1 X25.086 Y140.755 E14.77924
G1 X24.345 Y140.711 E14.80393
G1 X23.412 Y140.615 E14.83512
G1 X22.49 Y140.441 E14.86633
G1 X21.587 Y140.188 E14.89752
G1 X20.718 Y139.864 E14.92837
G1 X20.377 Y139.72 E14.94068
G1 X19.529 Y139.318 E14.97189
G1 X18.719 Y138.846 E15.00307
G1 X17.951 Y138.307 E15.03428
G1 X17.233 Y137.704 E15.06547
G1 X16.568 Y137.042 E15.09667
G1 X15.963 Y136.326 E15.12785
G1 X15.42 Y135.561 E15.15905
G1 X14.945 Y134.753 E15.19023
G1 X14.54 Y133.907 E15.22142
G1 X14.209 Y133.029 E15.25263
G1 X13.868 Y131.736 E15.29711
G1 X13.177 Y128.27 E15.41466
G1 X12.973 Y127.317 E15.44707
G1 X12.816 Y126.393 E15.47825
G1 X12.763 Y125.88 E15.4954
G1 X12.729 Y125.45 E15.50974
G1 X12.696 Y124.756 E15.53285
G1 X12.686 Y124.007 E15.55777
G1 X12.691 Y110.26 E16.01499
G1 X12.701 Y108.536 E16.07234
G1 X12.689 Y106.385 E16.14388
G1 X12.702 Y105.584 E16.17052
G1 X12.733 Y104.922 E16.19257
G1 X12.783 Y104.27 E16.21432
G1 X12.875 Y103.435 E16.24226
G1 X12.99 Y102.699 E16.26703
G1 X13.099 Y102.154 E16.28552
G1 X13.279 Y101.358 E16.31266
G1 X13.414 Y100.822 E16.33105
G1 X13.518 Y100.45 E16.34389
G1 X13.788 Y99.616 E16.37305
G1 F2700 E11.37305
G0 F6000 X13.489 Y106.398
G1 F2700 E16.37305
G1 F1200 X13.502 Y105.597 E16.39969
G1 X13.531 Y104.983 E16.42014
G1 X13.581 Y104.331 E16.44189
G1 X13.669 Y103.534 E16.46856
G1 X13.778 Y102.836 E16.49205
G1 X13.879 Y102.33 E16.50922
G1 X14.059 Y101.534 E16.53636
G1 X14.185 Y101.038 E16.55338
G1 X14.289 Y100.666 E16.56623
G1 X14.539 Y99.892 E16.59328
G1 X14.76 Y99.291 E16.61458
G1 X15.014 Y98.665 E16.63705
G1 X15.244 Y98.148 E16.65587
G1 X15.543 Y97.531 E16.67867
G1 X15.788 Y97.067 E16.69613
G1 X16.027 Y96.641 E16.71237
G1 X16.248 Y96.267 E16.72682
G1 X16.71 Y95.554 E16.75508
G1 X17.296 Y94.728 E16.78876
G1 X17.914 Y93.941 E16.82204
G1 X18.317 Y93.477 E16.84248
G1 X18.743 Y93.016 E16.86336
G1 X19.304 Y92.457 E16.8897
G1 X19.869 Y91.945 E16.91506
G1 X20.368 Y91.524 E16.93678
G1 X20.71 Y91.248 E16.95139
G1 X21.233 Y90.844 E16.97337
G1 X21.968 Y90.325 E17.0033
G1 X22.466 Y90.015 E17.02281
G1 X23.329 Y89.513 E17.05602
G1 X24.399 Y88.973 E17.09588
G1 X25.351 Y88.56 E17.1304
G1 X26.148 Y88.253 E17.1588
G1 X26.548 Y88.118 E17.17285
G1 X27.161 Y87.932 E17.19415
G1 X27.782 Y87.765 E17.21554
G1 X28.394 Y87.621 E17.23645
G1 X29.145 Y87.475 E17.2619
G1 X29.56 Y87.407 E17.27588
G1 X30.076 Y87.336 E17.29321
G1 X30.84 Y87.259 E17.31875
G1 X31.176 Y87.235 E17.32995
G1 X31.719 Y87.211 E17.34803
G1 X33.29 Y87.184 E17.40029
G1 X194.626 Y87.188 E22.76635
G1 X195.248 Y87.197 E22.78704
G1 X195.772 Y87.218 E22.80448
G1 X196.742 Y87.282 E22.83681
G1 X197.529 Y87.365 E22.86313
G1 X198.315 Y87.488 E22.88959
G1 X198.707 Y87.562 E22.90286
G1 X199.555 Y87.753 E22.93177
G1 X200.315 Y87.959 E22.95796
G1 X201.101 Y88.209 E22.98539
G1 X201.915 Y88.508 E23.01424
G1 X202.47 Y88.739 E23.03423
G1 X203.025 Y88.989 E23.05448
G1 X203.615 Y89.278 E23.07633
G1 X204.06 Y89.514 E23.09308
G1 X204.521 Y89.774 E23.11068
G1 X205.186 Y90.182 E23.13663
G1 X205.906 Y90.667 E23.16551
G1 X206.448 Y91.075 E23.18807
G1 X207.098 Y91.596 E23.21578
G1 X207.78 Y92.194 E23.24595
G1 X208.32 Y92.712 E23.27083
G1 X208.926 Y93.346 E23.3
G1 X209.506 Y94.007 E23.32925
G1 X210.025 Y94.649 E23.35671
G1 X210.439 Y95.228 E23.38038
G1 X210.967 Y96.02 E23.41204
G1 X211.391 Y96.715 E23.43912
G1 X211.738 Y97.36 E23.46348
G1 X212.034 Y97.953 E23.48553
G1 X212.389 Y98.746 E23.51442
G1 X212.783 Y99.76 E23.55061
G1 X212.892 Y100.07 E23.56154
G1 X213.131 Y100.85 E23.58867
G1 X213.287 Y101.441 E23.609
G1 X213.391 Y101.873 E23.62378
G1 X213.535 Y102.534 E23.64628
G1 X213.672 Y103.303 E23.67226
G1 X213.777 Y104.14 E23.70031
G1 X213.809 Y104.494 E23.71214
G1 X213.843 Y105.021 E23.7297
G1 X213.875 Y105.856 E23.75749
G1 X213.882 Y106.247 E23.7705
G1 X213.879 Y129.65 E24.54889
G1 X213.862 Y130.483 E24.5766
G1 X213.814 Y131.287 E24.60339
G1 X213.754 Y131.889 E24.62351
G1 X213.697 Y132.351 E24.63899
G1 X213.541 Y133.419 E24.67489
G1 X213.261 Y135.217 E24.73541
G1 X212.941 Y137.729 E24.81964
G1 X212.856 Y138.504 E24.84557
G1 X212.717 Y139.396 E24.8756
G1 X212.501 Y140.273 E24.90564
G1 X212.207 Y141.127 E24.93568
G1 X211.839 Y141.952 E24.96572
G1 X211.4 Y142.741 E24.99575
G1 X210.892 Y143.488 E25.0258
G1 X210.321 Y144.187 E25.05582
G1 X209.689 Y144.833 E25.08588
G1 X209.004 Y145.42 E25.11588
G1 X207.914 Y146.165 E25.15979
G1 X207.659 Y146.316 E25.16965
G1 X206.862 Y146.741 E25.19969
G1 X206.031 Y147.094 E25.22972
G1 X205.172 Y147.372 E25.25975
G1 X204.414 Y147.55 E25.28565
G1 X204.096 Y147.612 E25.29642
G1 X203.203 Y147.746 E25.32646
G1 X201.866 Y147.797 E25.37096
G1 X200.739 Y147.765 E25.40846
G1 X25.133 Y139.956 E31.25491
G1 X24.392 Y139.912 E31.2796
G1 X23.494 Y139.819 E31.30963
G1 X22.608 Y139.646 E31.33965
G1 X21.74 Y139.396 E31.3697
G1 X21.029 Y139.127 E31.39498
G1 X20.688 Y138.983 E31.40729
G1 X19.872 Y138.595 E31.43734
G1 X19.094 Y138.136 E31.46739
G1 X18.36 Y137.611 E31.4974
G1 X17.675 Y137.022 E31.52745
G1 X17.044 Y136.376 E31.55748
G1 X16.473 Y135.676 E31.58753
G1 X15.967 Y134.928 E31.61757
G1 X15.528 Y134.139 E31.6476
G1 X15.161 Y133.314 E31.67763
G1 X14.869 Y132.459 E31.70768
G1 X14.653 Y131.58 E31.73778
G1 X13.978 Y128.191 E31.85272
G1 X13.755 Y127.15 E31.88813
G1 X13.561 Y125.817 E31.93293
G1 X13.527 Y125.387 E31.94728
G1 X13.496 Y124.743 E31.96872
G1 X13.486 Y124.007 E31.9932
G1 X13.491 Y110.265 E32.45026
G1 X13.501 Y108.536 E32.50777
G1 X13.489 Y106.398 E32.57888
G0 F6000 X13.089 Y106.392
G1 F1200 X13.102 Y105.591 E32.60553
G1 X13.132 Y104.952 E32.6268
G1 X13.182 Y104.3 E32.64855
G1 X13.272 Y103.484 E32.67586
G1 X13.384 Y102.768 E32.69996
G1 X13.489 Y102.242 E32.7178
G1 X13.669 Y101.446 E32.74494
G1 X13.799 Y100.93 E32.76264
G1 X13.903 Y100.558 E32.77549
G1 X14.163 Y99.754 E32.8036
G1 X14.384 Y99.153 E32.82489
G1 X14.648 Y98.502 E32.84826
G1 X14.878 Y97.985 E32.86708
G1 X15.189 Y97.345 E32.89075
G1 X15.434 Y96.881 E32.9082
G1 X15.682 Y96.437 E32.92511
G1 X15.903 Y96.063 E32.93956
G1 X16.384 Y95.323 E32.96892
M73 P1
G1 X16.97 Y94.497 E33.0026
G1 X17.612 Y93.679 E33.03719
G1 X18.015 Y93.215 E33.05763
G1 X18.458 Y92.736 E33.07933
G1 X19.029 Y92.166 E33.10616
G1 X19.611 Y91.639 E33.13228
G1 X20.11 Y91.218 E33.15399
G1 X20.465 Y90.931 E33.16917
G1 X20.988 Y90.527 E33.19115
G1 X21.747 Y89.991 E33.22206
G1 X22.265 Y89.669 E33.24235
G1 X23.128 Y89.167 E33.27555
G1 X24.239 Y88.606 E33.31695
G1 X25.191 Y88.193 E33.35146
G1 X26.02 Y87.874 E33.38101
G1 X26.42 Y87.739 E33.39505
G1 X27.057 Y87.546 E33.41718
G1 X27.678 Y87.379 E33.43857
G1 X28.314 Y87.229 E33.46031
G1 X29.08 Y87.08 E33.48626
G1 X29.495 Y87.012 E33.50025
G1 X30.032 Y86.939 E33.51827
G1 X30.812 Y86.86 E33.54435
G1 X31.148 Y86.836 E33.55555
G1 X31.712 Y86.811 E33.57433
G1 X33.29 Y86.784 E33.62682
G1 X194.631 Y86.788 E38.99305
G1 X195.253 Y86.797 E39.01374
G1 X195.798 Y86.819 E39.03188
G1 X196.768 Y86.883 E39.06421
G1 X197.586 Y86.969 E39.09157
G1 X198.389 Y87.095 E39.1186
G1 X198.781 Y87.169 E39.13187
G1 X199.28 Y87.276 E39.14884
G1 X200.083 Y87.477 E39.17638
G1 X200.844 Y87.703 E39.20278
G1 X201.226 Y87.829 E39.21616
G1 X202.058 Y88.135 E39.24564
G1 X202.634 Y88.374 E39.26638
G1 X203.189 Y88.624 E39.28663
G1 X203.802 Y88.924 E39.30933
G1 X204.247 Y89.16 E39.32608
G1 X204.726 Y89.43 E39.34437
G1 X205.405 Y89.847 E39.37087
G1 X206.141 Y90.343 E39.40039
G1 X206.699 Y90.763 E39.42362
G1 X207.349 Y91.284 E39.45133
G1 X208.057 Y91.905 E39.48265
G1 X208.597 Y92.423 E39.50754
G1 X209.227 Y93.082 E39.53786
G1 X209.807 Y93.743 E39.56711
G1 X210.346 Y94.41 E39.59563
G1 X210.772 Y95.006 E39.62
G1 X211.3 Y95.798 E39.65166
G1 X211.741 Y96.52 E39.6798
G1 X212.096 Y97.181 E39.70475
G1 X212.392 Y97.774 E39.7268
G1 X212.761 Y98.598 E39.75683
G1 X213.013 Y99.233 E39.77955
G1 X213.269 Y99.937 E39.80446
G1 X213.518 Y100.748 E39.83268
G1 X213.674 Y101.339 E39.85301
G1 X213.782 Y101.788 E39.86837
G1 X213.926 Y102.449 E39.89087
G1 X214.068 Y103.248 E39.91786
G1 X214.175 Y104.104 E39.94655
G1 X214.207 Y104.458 E39.95838
G1 X214.242 Y105.006 E39.97664
G1 X214.282 Y106.247 E40.01794
G1 X214.279 Y129.658 E40.79659
G1 X214.262 Y130.491 E40.8243
G1 X214.212 Y131.326 E40.85212
G1 X214.152 Y131.928 E40.87224
G1 X214.093 Y132.409 E40.88836
G1 X213.936 Y133.48 E40.92437
G1 X213.661 Y135.244 E40.98374
G1 X213.333 Y137.823 E41.07021
G1 X213.253 Y138.547 E41.09444
G1 X213.113 Y139.457 E41.12506
G1 X212.894 Y140.352 E41.15571
G1 X212.599 Y141.223 E41.1863
G1 X212.229 Y142.066 E41.21692
G1 X211.787 Y142.874 E41.24755
G1 X211.277 Y143.64 E41.27816
G1 X210.702 Y144.36 E41.3088
G1 X210.067 Y145.026 E41.33941
G1 X209.376 Y145.635 E41.37004
G1 X208.635 Y146.182 E41.40068
G1 X208.118 Y146.509 E41.42102
G1 X207.863 Y146.66 E41.43088
G1 X207.051 Y147.094 E41.4615
G1 X206.205 Y147.456 E41.49211
G1 X205.33 Y147.744 E41.52275
G1 X204.49 Y147.943 E41.55146
G1 X204.172 Y148.005 E41.56223
G1 X203.262 Y148.142 E41.59284
G1 X202.343 Y148.199 E41.62347
G1 X201.855 Y148.197 E41.6397
G1 X200.721 Y148.165 E41.67743
G1 X25.11 Y140.355 E47.52405
G1 X24.369 Y140.311 E47.54874
G1 X23.453 Y140.217 E47.57936
G1 X22.549 Y140.043 E47.60998
G1 X21.663 Y139.792 E47.64061
G1 X20.873 Y139.495 E47.66868
G1 X20.532 Y139.351 E47.68099
G1 X19.701 Y138.956 E47.7116
G1 X18.906 Y138.491 E47.74223
G1 X18.155 Y137.959 E47.77284
G1 X17.453 Y137.363 E47.80347
G1 X16.806 Y136.709 E47.83407
G1 X16.217 Y136 E47.86472
G1 X15.692 Y135.244 E47.89534
G1 X15.235 Y134.445 E47.92595
G1 X14.849 Y133.609 E47.95658
G1 X14.537 Y132.743 E47.98719
G1 X14.26 Y131.658 E48.02444
G1 X13.565 Y128.173 E48.14263
G1 X13.364 Y127.233 E48.1746
G1 X13.211 Y126.326 E48.2052
G1 X13.162 Y125.849 E48.22115
G1 X13.128 Y125.419 E48.23549
G1 X13.096 Y124.75 E48.25777
G1 X13.086 Y124.007 E48.28248
G1 X13.091 Y110.263 E48.73961
G1 X13.101 Y108.536 E48.79705
G1 X13.089 Y106.392 E48.86836
G1 F2700 E43.86836
;MESH:stringer.stl
G0 F6000 X24.291 Y101.376
G0 X25.249 Y101.903
G0 X28.704 Y99.506
G0 X29.766 Y99.038
G0 X32.401 Y98.093
G1 F2700 E48.86836
G0 F6000 X32.381 Y97.585
;TYPE:WALL-OUTER
G1 F1200 X31.837 Y97.604 E48.88647
G1 X31.478 Y97.634 E48.89845
G1 X31.125 Y97.68 E48.91029
G1 X30.59 Y97.775 E48.92836
G1 X30.254 Y97.856 E48.93986
G1 X29.9 Y97.959 E48.95212
G1 X29.545 Y98.074 E48.96453
G1 X29.226 Y98.197 E48.9759
G1 X28.882 Y98.339 E48.98828
G1 X28.393 Y98.581 E49.00643
G1 X28.081 Y98.754 E49.01829
G1 X27.774 Y98.944 E49.0303
G1 X27.475 Y99.145 E49.04228
G1 X27.186 Y99.359 E49.05424
G1 X26.905 Y99.585 E49.06624
G1 X26.634 Y99.824 E49.07826
G1 X26.247 Y100.2 E49.0962
G1 X26.004 Y100.465 E49.10816
G1 X25.661 Y100.883 E49.12615
G1 X25.447 Y101.174 E49.13816
G1 X25.244 Y101.473 E49.15018
G1 X25.058 Y101.778 E49.16206
G1 X24.796 Y102.254 E49.18013
G1 X24.608 Y102.651 E49.19474
G1 X24.392 Y103.187 E49.21396
G1 X24.26 Y103.587 E49.22797
G1 X24.151 Y104.003 E49.24228
G1 X24.059 Y104.396 E49.2557
G1 X23.998 Y104.731 E49.26703
G1 X23.945 Y105.127 E49.28032
G1 X23.914 Y105.408 E49.28972
G1 X23.889 Y105.898 E49.30604
G1 X23.888 Y107.824 E49.3701
G1 X23.931 Y108.699 E49.39923
G1 X23.939 Y109.182 E49.4153
G1 X23.892 Y110.327 E49.45342
G1 X23.886 Y124.607 E49.92837
G1 X23.932 Y125.069 E49.94381
G1 X23.992 Y125.324 E49.95253
G1 X24.098 Y125.642 E49.96367
G1 X24.236 Y125.961 E49.97523
G1 X24.647 Y126.753 E50.00491
G1 X24.765 Y127.021 E50.01465
G1 X24.838 Y127.312 E50.02463
G1 X24.843 Y127.358 E50.02617
G1 X24.849 Y129.479 E50.09671
G1 X25.071 Y129.543 E50.1044
G1 X202.091 Y137.415 E55.99793
