;FLAVOR:Marlin
M73 P0
M73 R45
;TIME:2686
;Filament used: 3.04356m
;Layer height: 0.28
;MINX:19.02
;MINY:78.386
;MINZ:0.28
;MAXX:215.98
;MAXY:157.227
;MAXZ:3.08
;POSTPROCESSED
;Generated with Cura_SteamEngine 5.0.0
M140 S50
M105
M190 S50
M104 S215
M105
M109 S215
M82 ;absolute extrusion mode
; Ender 3 Custom Start G-code
G92 E0 ; Reset Extruder
G28 ; Home all axes
G1 Z2.0 F3000 ; Move Z Axis up little to prevent scratching of Heat Bed
G1 X0.1 Y20 Z0.3 F5000.0 ; Move to start position
G1 X0.1 Y200.0 Z0.3 F1500.0 E15 ; Draw the first line
G1 X0.4 Y200.0 Z0.3 F5000.0 ; Move to side a little
G1 X0.4 Y20 Z0.3 F1500.0 E30 ; Draw the second line
G92 E0 ; Reset Extruder
G1 Z2.0 F3000 ; Move Z Axis up little to prevent scratching of Heat Bed
G1 X5 Y20 Z0.3 F5000.0 ; Move over to prevent blob squish
G92 E0
G92 E0
G1 F2700 E-5
;LAYER_COUNT:11
;LAYER:0
M107
G0 F6000 X48.293 Y110.211 Z0.28
G0 X42.697 Y114.811
;TYPE:SKIRT
G1 F2700 E0
G1 F1200 X43.227 Y114.037 E0.04368
G1 X43.82 Y113.311 E0.08733
G1 X44.474 Y112.638 E0.13103
G1 X45.182 Y112.023 E0.1747
G1 X45.94 Y111.471 E0.21836
G1 X47.053 Y110.821 E0.27837
G1 X47.699 Y110.493 E0.31211
G1 X48.293 Y110.211 E0.34273
G1 X49.162 Y109.858 E0.3864
G1 X50.058 Y109.58 E0.43009
G1 X50.974 Y109.38 E0.47375
G1 X51.846 Y109.263 E0.51471
G1 X53.184 Y109.139 E0.57728
G1 X55.725 Y108.864 E0.69629
G1 X58.221 Y108.522 E0.8136
G1 X60.7 Y108.111 E0.93061
G1 X63.184 Y107.626 E1.04846
G1 X65.608 Y107.083 E1.16413
G1 X68.047 Y106.462 E1.28132
G1 X70.504 Y105.762 E1.40028
G1 X72.891 Y105.008 E1.51685
G1 X75.268 Y104.184 E1.63399
G1 X77.602 Y103.3 E1.75021
G1 X79.952 Y102.332 E1.86855
G1 X82.253 Y101.307 E1.98585
G1 X84.514 Y100.224 E2.10258
G1 X86.761 Y99.066 E2.22029
G1 X88.965 Y97.852 E2.33745
G1 X91.119 Y96.583 E2.45387
G1 X93.279 Y95.229 E2.57257
G1 X95.347 Y93.849 E2.68834
G1 X97.408 Y92.387 E2.806
G1 X99.433 Y90.863 E2.92401
G1 X101.384 Y89.306 E3.04024
G1 X103.317 Y87.671 E3.15813
G1 X105.193 Y85.993 E3.27533
G1 X106.998 Y84.284 E3.39108
G1 X109.41 Y81.844 E3.55084
G1 X110.087 Y81.195 E3.5945
G1 X110.817 Y80.606 E3.63818
G1 X111.594 Y80.081 E3.68185
G1 X112.461 Y79.601 E3.72799
G1 X112.61 Y79.527 E3.73574
G1 X113.467 Y79.146 E3.77941
G1 X114.353 Y78.84 E3.82306
G1 X115.263 Y78.61 E3.86676
G1 X116.188 Y78.458 E3.91041
G1 X117.123 Y78.386 E3.95408
G1 X118.061 Y78.393 E3.99776
G1 X118.995 Y78.481 E4.04144
G1 X119.918 Y78.647 E4.08511
G1 X120.823 Y78.892 E4.12877
G1 X121.949 Y79.317 E4.18481
G1 X122.078 Y79.374 E4.19138
G1 X122.919 Y79.79 E4.23506
G1 X123.721 Y80.275 E4.27871
G1 X124.479 Y80.827 E4.32237
G1 X125.511 Y81.76 E4.38715
G1 X126.543 Y82.82 E4.45604
G1 X128.368 Y84.628 E4.57566
G1 X130.21 Y86.354 E4.6932
G1 X132.089 Y88.017 E4.81004
G1 X134.019 Y89.629 E4.92713
G1 X135.993 Y91.186 E5.0442
G1 X138.024 Y92.696 E5.16205
G1 X140.081 Y94.138 E5.27902
G1 X142.171 Y95.516 E5.39559
G1 X144.347 Y96.864 E5.51478
G1 X146.501 Y98.115 E5.63077
G1 X148.686 Y99.304 E5.7466
G1 X150.963 Y100.459 E5.86549
G1 X153.235 Y101.534 E5.98253
G1 X155.533 Y102.541 E6.09935
G1 X157.857 Y103.483 E6.21612
G1 X160.241 Y104.371 E6.33458
G1 X162.583 Y105.169 E6.44979
G1 X165.016 Y105.922 E6.56838
G1 X167.459 Y106.603 E6.68648
G1 X169.897 Y107.208 E6.80344
G1 X172.342 Y107.743 E6.91999
G1 X174.822 Y108.212 E7.03751
G1 X177.307 Y108.609 E7.15469
G1 X179.758 Y108.931 E7.2698
G1 X183.19 Y109.269 E7.43038
G1 X184.119 Y109.401 E7.47407
G1 X185.033 Y109.611 E7.51774
G1 X185.925 Y109.899 E7.56139
G1 X186.656 Y110.199 E7.59818
G1 X187.656 Y110.661 E7.64948
G1 X187.876 Y110.771 E7.66093
G1 X188.697 Y111.226 E7.70464
G1 X189.475 Y111.749 E7.74829
G1 X190.206 Y112.337 E7.79197
G1 X190.885 Y112.984 E7.83564
G1 X191.505 Y113.687 E7.87929
G1 X192.064 Y114.441 E7.923
G1 X192.361 Y114.903 E7.94857
G1 X192.598 Y115.293 E7.96982
G1 X193.948 Y117.447 E8.08819
G1 X195.369 Y119.579 E8.2075
G1 X196.806 Y121.604 E8.32312
G1 X198.323 Y123.621 E8.44064
M73 P1
G1 X199.911 Y125.613 E8.55926
G1 X201.504 Y127.5 E8.67425
G1 X203.216 Y129.413 E8.79379
G1 X204.927 Y131.222 E8.90973
G1 X206.702 Y132.992 E9.02646
G1 X208.52 Y134.709 E9.1429
G1 X211.399 Y137.24 E9.32139
G1 X212.079 Y137.814 E9.36283
G1 X212.769 Y138.449 E9.40649
G1 X213.403 Y139.14 E9.45016
G1 X213.975 Y139.883 E9.49382
G1 X214.482 Y140.672 E9.53749
G1 X214.92 Y141.502 E9.58119
G1 X215.285 Y142.365 E9.62482
G1 X215.576 Y143.257 E9.66851
G1 X215.79 Y144.17 E9.71218
G1 X215.925 Y145.098 E9.75585
G1 X215.98 Y146.035 E9.79955
G1 X215.956 Y146.972 E9.8432
G1 X215.852 Y147.904 E9.88686
G1 X215.669 Y148.824 E9.93054
G1 X215.408 Y149.725 E9.97422
G1 X215.071 Y150.6 E10.01788
G1 X214.661 Y151.444 E10.06157
G1 X214.181 Y152.249 E10.10522
G1 X213.634 Y153.011 E10.14889
G1 X213.024 Y153.723 E10.19255
G1 X212.355 Y154.381 E10.23624
G1 X211.633 Y154.98 E10.27993
G1 X210.863 Y155.514 E10.32356
G1 X210.049 Y155.981 E10.36726
G1 X209.199 Y156.378 E10.41094
G1 X208.318 Y156.7 E10.45462
G1 X207.413 Y156.946 E10.49829
G1 X206.491 Y157.114 E10.54193
G1 X205.174 Y157.216 E10.60344
G1 X204.467 Y157.227 E10.63636
G1 X149.275 Y157.226 E13.20633
G1 X148.554 Y157.214 E13.23991
G1 X147.618 Y157.159 E13.28357
G1 X147.039 Y157.084 E13.31076
G1 X146.361 Y156.977 E13.34272
G1 X144.765 Y156.704 E13.41811
G1 X142.227 Y156.344 E13.53748
G1 X139.76 Y156.065 E13.65308
G1 X137.254 Y155.853 E13.77019
G1 X134.723 Y155.711 E13.88823
G1 X132.203 Y155.64 E14.00562
G1 X129.68 Y155.642 E14.1231
G1 X127.186 Y155.713 E14.23928
G1 X125.326 Y155.811 E14.32601
G1 X124.241 Y155.88 E14.37663
G1 X122.987 Y155.888 E14.43502
G1 X122.023 Y155.839 E14.47997
G1 X119.442 Y155.746 E14.60023
G1 X116.912 Y155.725 E14.71804
G1 X114.39 Y155.776 E14.8355
G1 X111.972 Y155.89 E14.94822
G1 X110.819 Y155.884 E15.0019
G1 X109.022 Y155.773 E15.08574
G1 X106.53 Y155.669 E15.20188
G1 X104.035 Y155.634 E15.31807
G1 X101.51 Y155.67 E15.43565
G1 X98.988 Y155.777 E15.5532
G1 X96.494 Y155.954 E15.66962
G1 X93.994 Y156.202 E15.7866
G1 X91.48 Y156.523 E15.90461
G1 X89.346 Y156.853 E16.00516
G1 X88.101 Y157.06 E16.06393
G1 X87.17 Y157.174 E16.10761
G1 X86.504 Y157.207 E16.13866
G1 X85.337 Y157.227 E16.193
G1 X30.536 Y157.226 E18.74477
G1 X29.856 Y157.216 E18.77643
G1 X28.92 Y157.162 E18.82009
G1 X27.992 Y157.029 E18.86374
G1 X27.078 Y156.817 E18.90743
G1 X26.186 Y156.528 E18.95109
G1 X25.321 Y156.164 E18.99479
G1 X24.491 Y155.728 E19.03845
G1 X23.701 Y155.222 E19.08213
G1 X22.957 Y154.651 E19.12581
G1 X22.264 Y154.019 E19.16948
G1 X21.628 Y153.33 E19.21314
G1 X21.052 Y152.59 E19.25681
G1 X20.542 Y151.803 E19.30047
G1 X20.101 Y150.975 E19.34416
G1 X19.731 Y150.113 E19.38784
G1 X19.437 Y149.223 E19.43148
G1 X19.219 Y148.311 E19.47514
G1 X19.08 Y147.383 E19.51884
G1 X19.02 Y146.447 E19.56251
G1 X19.041 Y145.51 E19.60615
G1 X19.141 Y144.577 E19.64985
G1 X19.32 Y143.656 E19.69353
G1 X19.577 Y142.755 E19.73716
G1 X19.91 Y141.878 E19.78084
G1 X20.316 Y141.032 E19.82454
G1 X20.793 Y140.225 E19.86819
G1 X21.337 Y139.461 E19.91186
G1 X21.944 Y138.746 E19.95553
G1 X22.61 Y138.085 E19.99923
G1 X25.203 Y135.862 E20.15826
G1 X27.094 Y134.144 E20.27723
G1 X28.881 Y132.425 E20.39269
G1 X30.662 Y130.613 E20.511
G1 X32.371 Y128.771 E20.628
M73 P2
G1 X34.027 Y126.882 E20.74497
G1 X35.648 Y124.926 E20.86326
G1 X37.179 Y122.967 E20.97904
G1 X38.677 Y120.934 E21.09662
G1 X40.116 Y118.86 E21.21417
G1 X41.497 Y116.748 E21.33167
G1 X42.697 Y114.811 E21.43777
G1 F2700 E16.43777
G0 F6000 X40.447 Y119.085
G1 F2700 E21.43777
G1 F1200 X41.83 Y116.971 E21.5554
G1 X43.037 Y115.023 E21.66211
G1 X43.557 Y114.263 E21.70499
G1 X44.142 Y113.552 E21.74786
G1 X44.785 Y112.894 E21.7907
G1 X45.484 Y112.294 E21.83359
G1 X46.232 Y111.757 E21.87647
G1 X47.234 Y111.178 E21.93036
G1 X47.88 Y110.85 E21.96409
G1 X48.459 Y110.575 E21.99394
G1 X49.312 Y110.229 E22.0368
G1 X50.192 Y109.958 E22.07968
G1 X51.092 Y109.765 E22.12254
G1 X51.883 Y109.662 E22.15968
G1 X53.132 Y109.546 E22.21809
G1 X55.786 Y109.259 E22.34239
G1 X58.269 Y108.919 E22.45909
G1 X60.776 Y108.503 E22.57742
G1 X63.27 Y108.017 E22.69574
G1 X65.722 Y107.467 E22.81275
G1 X68.159 Y106.847 E22.92984
G1 X70.587 Y106.155 E23.0474
G1 X73.038 Y105.381 E23.16709
G1 X75.392 Y104.564 E23.28311
G1 X77.772 Y103.664 E23.40159
G1 X80.089 Y102.709 E23.51829
G1 X82.439 Y101.662 E23.63808
G1 X84.691 Y100.583 E23.75436
G1 X86.93 Y99.429 E23.87165
G1 X89.181 Y98.189 E23.99132
G1 X91.329 Y96.924 E24.1074
G1 X93.492 Y95.568 E24.22627
G1 X95.554 Y94.192 E24.3417
G1 X97.674 Y92.689 E24.46271
G1 X99.638 Y91.21 E24.57719
G1 X101.646 Y89.607 E24.69683
G1 X103.578 Y87.974 E24.81462
G1 X105.469 Y86.282 E24.93278
G1 X107.274 Y84.573 E25.04852
G1 X109.699 Y82.121 E25.20911
G1 X110.364 Y81.484 E25.25198
G1 X111.082 Y80.908 E25.29485
G1 X111.847 Y80.396 E25.33771
G1 X112.639 Y79.959 E25.37983
G1 X112.788 Y79.885 E25.38758
G1 X113.63 Y79.512 E25.43046
G1 X114.5 Y79.213 E25.4733
G1 X115.394 Y78.991 E25.51619
G1 X116.303 Y78.847 E25.55904
G1 X117.222 Y78.783 E25.60194
G1 X118.142 Y78.798 E25.64478
G1 X119.058 Y78.894 E25.68767
G1 X119.962 Y79.068 E25.73054
G1 X120.847 Y79.32 E25.77338
G1 X121.787 Y79.683 E25.8203
G1 X121.916 Y79.74 E25.82687
G1 X122.741 Y80.149 E25.86975
G1 X123.528 Y80.627 E25.91262
G1 X124.27 Y81.172 E25.95549
G1 X125.225 Y82.039 E26.01555
G1 X126.259 Y83.1 E26.08454
G1 X128.097 Y84.921 E26.20502
G1 X129.955 Y86.663 E26.32361
G1 X131.81 Y88.304 E26.43894
G1 X133.782 Y89.951 E26.55857
G1 X135.752 Y91.505 E26.67541
G1 X137.778 Y93.012 E26.79299
G1 X139.861 Y94.472 E26.91143
G1 X141.987 Y95.874 E27.03002
G1 X144.1 Y97.183 E27.14576
G1 X146.304 Y98.463 E27.26443
G1 X148.52 Y99.669 E27.38191
G1 X150.79 Y100.82 E27.50042
G1 X153.041 Y101.885 E27.61638
G1 X155.401 Y102.919 E27.73636
G1 X157.715 Y103.857 E27.85262
G1 X160.077 Y104.737 E27.96999
G1 X162.505 Y105.564 E28.08943
G1 X164.896 Y106.304 E28.20597
G1 X167.328 Y106.982 E28.32354
G1 X169.821 Y107.601 E28.44314
G1 X172.261 Y108.135 E28.55945
G1 X174.756 Y108.607 E28.67769
G1 X177.223 Y109.001 E28.79402
G1 X179.728 Y109.33 E28.91166
G1 X183.151 Y109.667 E29.07182
G1 X184.062 Y109.797 E29.11467
G1 X184.959 Y110.006 E29.15756
G1 X185.834 Y110.291 E29.20041
G1 X186.49 Y110.563 E29.23348
G1 X187.477 Y111.019 E29.2841
G1 X187.697 Y111.129 E29.29556
G1 X188.502 Y111.576 E29.33843
G1 X189.265 Y112.091 E29.3813
G1 X189.981 Y112.671 E29.4242
G1 X190.643 Y113.31 E29.46705
G1 X191.247 Y114.005 E29.50992
M73 P3
G1 X192.019 Y115.11 E29.57269
G1 X193.626 Y117.685 E29.71403
G1 X195.038 Y119.803 E29.83256
G1 X196.493 Y121.854 E29.94965
G1 X197.992 Y123.849 E30.06585
G1 X199.608 Y125.875 E30.18652
G1 X201.199 Y127.759 E30.30134
G1 X202.91 Y129.671 E30.42082
G1 X204.637 Y131.497 E30.53785
G1 X206.429 Y133.284 E30.65569
G1 X208.25 Y135.003 E30.7723
G1 X211.133 Y137.538 E30.95106
G1 X211.821 Y138.119 E30.99299
G1 X212.498 Y138.743 E31.03586
G1 X213.118 Y139.424 E31.07874
G1 X213.677 Y140.155 E31.12159
G1 X214.17 Y140.933 E31.16448
G1 X214.594 Y141.75 E31.20734
G1 X214.946 Y142.601 E31.25022
G1 X215.222 Y143.479 E31.29308
G1 X215.421 Y144.378 E31.33595
G1 X215.541 Y145.291 E31.37883
G1 X215.582 Y146.21 E31.42167
G1 X215.543 Y147.13 E31.46455
G1 X215.424 Y148.043 E31.50742
G1 X215.226 Y148.942 E31.55028
G1 X214.951 Y149.821 E31.59317
G1 X214.601 Y150.672 E31.63602
G1 X214.178 Y151.49 E31.6789
G1 X213.686 Y152.268 E31.72176
G1 X213.128 Y153.001 E31.76466
G1 X212.509 Y153.682 E31.80751
G1 X211.833 Y154.307 E31.85038
G1 X211.105 Y154.871 E31.89326
G1 X210.331 Y155.369 E31.93611
G1 X209.517 Y155.799 E31.97898
G1 X208.668 Y156.156 E32.02187
G1 X207.792 Y156.439 E32.06473
G1 X206.895 Y156.644 E32.10758
G1 X205.983 Y156.771 E32.15045
G1 X205.167 Y156.816 E32.18851
G1 X204.467 Y156.827 E32.22111
G1 X149.282 Y156.827 E34.79075
G1 X148.561 Y156.815 E34.82433
G1 X147.642 Y156.759 E34.8672
G1 X147.101 Y156.689 E34.8926
G1 X146.428 Y156.583 E34.92433
G1 X144.816 Y156.308 E35.00047
G1 X142.291 Y155.949 E35.11923
G1 X139.768 Y155.663 E35.23746
G1 X137.276 Y155.453 E35.35391
G1 X134.756 Y155.311 E35.47144
G1 X132.214 Y155.24 E35.58985
G1 X129.703 Y155.242 E35.70678
G1 X127.112 Y155.316 E35.82747
G1 X125.376 Y155.408 E35.90842
G1 X124.216 Y155.481 E35.96254
G1 X123.008 Y155.488 E36.01879
G1 X122.059 Y155.44 E36.06304
G1 X119.46 Y155.346 E36.18414
G1 X116.907 Y155.325 E36.30302
G1 X114.363 Y155.376 E36.4215
G1 X111.953 Y155.49 E36.53385
G1 X110.843 Y155.484 E36.58554
G1 X109.068 Y155.375 E36.66834
G1 X106.517 Y155.269 E36.78723
G1 X104.035 Y155.234 E36.90282
G1 X101.488 Y155.27 E37.02143
G1 X98.979 Y155.377 E37.13836
G1 X96.459 Y155.555 E37.256
G1 X93.944 Y155.804 E37.37368
G1 X91.442 Y156.125 E37.49114
G1 X89.314 Y156.454 E37.5914
G1 X88.036 Y156.666 E37.65172
G1 X87.122 Y156.777 E37.6946
G1 X86.497 Y156.807 E37.72373
G1 X85.337 Y156.827 E37.77775
G1 X30.542 Y156.826 E40.32924
G1 X29.862 Y156.816 E40.36091
G1 X28.943 Y156.762 E40.40377
G1 X28.032 Y156.629 E40.44664
G1 X27.136 Y156.418 E40.48951
G1 X26.262 Y156.129 E40.53237
G1 X25.416 Y155.766 E40.57524
G1 X24.605 Y155.33 E40.61811
G1 X23.834 Y154.826 E40.661
G1 X23.111 Y154.257 E40.70384
G1 X22.439 Y153.628 E40.7467
G1 X21.824 Y152.942 E40.7896
G1 X21.272 Y152.206 E40.83244
G1 X20.785 Y151.424 E40.87534
G1 X20.368 Y150.603 E40.91822
G1 X20.024 Y149.75 E40.96105
G1 X19.755 Y148.869 E41.00394
G1 X19.564 Y147.968 E41.04682
G1 X19.451 Y147.055 E41.08966
G1 X19.418 Y146.135 E41.13253
G1 X19.465 Y145.215 E41.17542
G1 X19.592 Y144.303 E41.2183
G1 X19.798 Y143.406 E41.26116
G1 X20.08 Y142.53 E41.30401
G1 X20.437 Y141.681 E41.34689
G1 X20.867 Y140.867 E41.38976
G1 X21.366 Y140.093 E41.43264
G1 X21.93 Y139.365 E41.47552
G1 X22.555 Y138.689 E41.51839
G1 X23.234 Y138.072 E41.56111
M73 P4
G1 X23.53 Y137.826 E41.57903
G1 X25.467 Y136.163 E41.69791
G1 X27.357 Y134.445 E41.81684
G1 X29.179 Y132.692 E41.93457
G1 X30.957 Y130.884 E42.05265
G1 X32.65 Y129.059 E42.16856
G1 X34.35 Y127.12 E42.28864
G1 X35.941 Y125.199 E42.40478
G1 X37.5 Y123.205 E42.52264
G1 X39.012 Y121.154 E42.64129
G1 X40.447 Y119.085 E42.75854
G1 F2700 E37.75854
G0 F6000 X37.809 Y123.46
G1 F2700 E42.75854
G1 F1200 X39.347 Y121.373 E42.87926
G1 X40.778 Y119.31 E42.99617
G1 X42.172 Y117.178 E43.11478
G1 X43.376 Y115.234 E43.22125
G1 X43.887 Y114.49 E43.26328
G1 X44.462 Y113.793 E43.30536
G1 X45.097 Y113.151 E43.3474
G1 X45.785 Y112.566 E43.38945
G1 X46.523 Y112.045 E43.43152
G1 X47.415 Y111.534 E43.47939
G1 X48.061 Y111.206 E43.51312
G1 X48.625 Y110.939 E43.54218
G1 X49.463 Y110.6 E43.58427
G1 X50.327 Y110.337 E43.62633
G1 X51.21 Y110.151 E43.66834
G1 X51.92 Y110.06 E43.70168
G1 X53.212 Y109.94 E43.7621
G1 X55.816 Y109.658 E43.88406
G1 X58.353 Y109.311 E44.00329
G1 X60.841 Y108.899 E44.12072
G1 X63.335 Y108.412 E44.23904
G1 X65.836 Y107.851 E44.3584
G1 X68.253 Y107.236 E44.47453
G1 X70.722 Y106.533 E44.59406
G1 X73.141 Y105.768 E44.7122
G1 X75.56 Y104.93 E44.83141
G1 X77.887 Y104.049 E44.94727
G1 X80.254 Y103.073 E45.06649
G1 X82.566 Y102.044 E45.18432
G1 X84.881 Y100.934 E45.30387
G1 X87.155 Y99.763 E45.42297
G1 X89.345 Y98.556 E45.53941
G1 X91.549 Y97.258 E45.65851
G1 X93.696 Y95.912 E45.77651
G1 X95.826 Y94.49 E45.89576
G1 X97.86 Y93.048 E46.01186
G1 X99.922 Y91.496 E46.13203
G1 X101.909 Y89.91 E46.25042
G1 X103.82 Y88.294 E46.36695
G1 X105.747 Y86.57 E46.48735
G1 X107.55 Y84.863 E46.60296
G1 X109.988 Y82.397 E46.76443
G1 X110.641 Y81.774 E46.80646
G1 X111.347 Y81.21 E46.84853
G1 X112.099 Y80.711 E46.89056
G1 X112.817 Y80.318 E46.92867
G1 X112.966 Y80.244 E46.93642
G1 X113.792 Y79.878 E46.97849
G1 X114.647 Y79.587 E47.02054
G1 X115.524 Y79.373 E47.06258
G1 X116.417 Y79.237 E47.10464
